(G-CODE GENERATED BY FLATCAM v8.994 - www.flatcam.org - Version Date: 2020/11/7)

(Name: ESP32_Cnc_Shield-F_SilkS.gbr_iso_combined_paint_cnc)
(Type: G-code from Geometry)
(Units: MM)

(Created on Thursday, 30 June 2022 at 09:24)

(This preprocessor is the default preprocessor used by FlatCAM.)
(It is made to work with MACH3 compatible motion controllers.)

(TOOL DIAMETER: 0.18 mm)
(Feedrate_XY: 100.0 mm/min)
(Feedrate_Z: 50.0 mm/min)
(Feedrate rapids 500.0 mm/min)

(Z_Cut: -0.149 mm)
(Z_Move: 3.0 mm)
(Z Start: None mm)
(Z End: 5.0 mm)
(X,Y End: None mm)
(Steps per circle: 64)
(Preprocessor Geometry: default)

(X range:   24.4626 ...   51.9256  mm)
(Y range:   34.6401 ...   36.4602  mm)

(Spindle Speed: 0.0 RPM)
G21 (Milimeters)
G90 (Absolute)
G94 (Feed per minute)

; GCan Cnc MiMi 
(ESP32 Cnc Shield)
(VBit 30ยบ)
G0 Z3
M03
M08
G01 F400.00
G00 X24.6233 Y34.6401
G01 F50.00
G01 Z-0.14900
G01 F400.00
G01 X24.6070 Y34.6409
G01 X24.5915 Y34.6432
G01 X24.5762 Y34.6470
G01 X24.5624 Y34.6519
G01 X24.5463 Y34.6595
G01 X24.5338 Y34.6671
G01 X24.5204 Y34.6771
G01 X24.5095 Y34.6870
G01 X24.4990 Y34.6986
G01 X24.4896 Y34.7112
G01 X24.4815 Y34.7247
G01 X24.4748 Y34.7389
G01 X24.4695 Y34.7537
G01 X24.4657 Y34.7689
G01 X24.4634 Y34.7847
G01 X24.4626 Y34.8007
G01 X24.4626 Y36.2996
G01 X24.4634 Y36.3158
G01 X24.4659 Y36.3324
G01 X24.4695 Y36.3466
G01 X24.4745 Y36.3604
G01 X24.4815 Y36.3756
G01 X24.4896 Y36.3891
G01 X24.4997 Y36.4025
G01 X24.5095 Y36.4133
G01 X24.5204 Y36.4232
G01 X24.5338 Y36.4332
G01 X24.5482 Y36.4418
G01 X24.5614 Y36.4480
G01 X24.5753 Y36.4530
G01 X24.5915 Y36.4571
G01 X24.6070 Y36.4594
G01 X24.6233 Y36.4602
G01 X25.3364 Y36.4602
G01 X25.3524 Y36.4595
G01 X25.3682 Y36.4571
G01 X25.3835 Y36.4533
G01 X25.3982 Y36.4480
G01 X25.4115 Y36.4418
G01 X25.4259 Y36.4332
G01 X25.4377 Y36.4245
G01 X25.4509 Y36.4126
G01 X25.4607 Y36.4017
G01 X25.4701 Y36.3891
G01 X25.4782 Y36.3756
G01 X25.4849 Y36.3614
G01 X25.4902 Y36.3466
G01 X25.4940 Y36.3314
G01 X25.4963 Y36.3158
G01 X25.4970 Y36.3012
G01 X25.4962 Y36.2834
G01 X25.4940 Y36.2689
G01 X25.4902 Y36.2537
G01 X25.4849 Y36.2389
G01 X25.4786 Y36.2256
G01 X25.4695 Y36.2104
G01 X25.4607 Y36.1986
G01 X25.4502 Y36.1870
G01 X25.4385 Y36.1764
G01 X25.4268 Y36.1677
G01 X25.4115 Y36.1585
G01 X25.3982 Y36.1523
G01 X25.3837 Y36.1470
G01 X25.3672 Y36.1430
G01 X25.3527 Y36.1409
G01 X25.3372 Y36.1401
G01 X24.8728 Y36.1401
G01 X24.8596 Y36.1391
G01 X24.8467 Y36.1362
G01 X24.8383 Y36.1332
G01 X24.8323 Y36.1305
G01 X24.8265 Y36.1273
G01 X24.8192 Y36.1224
G01 X24.8140 Y36.1182
G01 X24.8076 Y36.1121
G01 X24.8032 Y36.1072
G01 X24.7979 Y36.1001
G01 X24.7934 Y36.0925
G01 X24.7905 Y36.0865
G01 X24.7873 Y36.0783
G01 X24.7855 Y36.0719
G01 X24.7832 Y36.0589
G01 X24.7828 Y36.0501
G01 X24.7828 Y35.8359
G01 X24.7832 Y35.8271
G01 X24.7845 Y35.8184
G01 X24.7860 Y35.8119
G01 X24.7888 Y35.8035
G01 X24.7914 Y35.7975
G01 X24.7945 Y35.7916
G01 X24.7992 Y35.7841
G01 X24.8046 Y35.7772
G01 X24.8107 Y35.7708
G01 X24.8174 Y35.7650
G01 X24.8228 Y35.7611
G01 X24.8284 Y35.7576
G01 X24.8363 Y35.7537
G01 X24.8425 Y35.7512
G01 X24.8509 Y35.7486
G01 X24.8640 Y35.7464
G01 X24.8728 Y35.7459
G01 X25.1237 Y35.7459
G01 X25.1384 Y35.7452
G01 X25.1539 Y35.7429
G01 X25.1692 Y35.7390
G01 X25.1837 Y35.7338
G01 X25.1991 Y35.7265
G01 X25.2116 Y35.7190
G01 X25.2243 Y35.7096
G01 X25.2359 Y35.6990
G01 X25.2458 Y35.6882
G01 X25.2558 Y35.6748
G01 X25.2643 Y35.6604
G01 X25.2706 Y35.6471
G01 X25.2759 Y35.6323
G01 X25.2797 Y35.6171
G01 X25.2819 Y35.6026
G01 X25.2828 Y35.5859
G01 X25.2819 Y35.5691
G01 X25.2797 Y35.5546
G01 X25.2759 Y35.5394
G01 X25.2706 Y35.5246
G01 X25.2643 Y35.5113
G01 X25.2558 Y35.4969
G01 X25.2458 Y35.4835
G01 X25.2359 Y35.4727
G01 X25.2243 Y35.4621
G01 X25.2116 Y35.4528
G01 X25.1991 Y35.4452
G01 X25.1840 Y35.4380
G01 X25.1692 Y35.4327
G01 X25.1539 Y35.4289
G01 X25.1384 Y35.4266
G01 X25.1237 Y35.4258
G01 X24.8728 Y35.4258
G01 X24.8618 Y35.4251
G01 X24.8531 Y35.4236
G01 X24.8445 Y35.4212
G01 X24.8363 Y35.4181
G01 X24.8304 Y35.4152
G01 X24.8246 Y35.4118
G01 X24.8174 Y35.4067
G01 X24.8107 Y35.4010
G01 X24.8046 Y35.3946
G01 X24.8005 Y35.3894
G01 X24.7956 Y35.3821
G01 X24.7914 Y35.3743
G01 X24.7888 Y35.3682
G01 X24.7860 Y35.3598
G01 X24.7845 Y35.3533
G01 X24.7829 Y35.3402
G01 X24.7828 Y35.0480
G01 X24.7835 Y35.0392
G01 X24.7845 Y35.0327
G01 X24.7867 Y35.0241
G01 X24.7888 Y35.0178
G01 X24.7934 Y35.0078
G01 X24.8005 Y34.9966
G01 X24.8091 Y34.9866
G01 X24.8174 Y34.9793
G01 X24.8284 Y34.9719
G01 X24.8383 Y34.9671
G01 X24.8488 Y34.9635
G01 X24.8618 Y34.9609
G01 X24.8728 Y34.9602
G01 X25.3364 Y34.9602
G01 X25.3516 Y34.9595
G01 X25.3682 Y34.9571
G01 X25.3844 Y34.9530
G01 X25.3982 Y34.9480
G01 X25.4115 Y34.9418
G01 X25.4261 Y34.9331
G01 X25.4385 Y34.9239
G01 X25.4494 Y34.9140
G01 X25.4614 Y34.9009
G01 X25.4701 Y34.8891
G01 X25.4782 Y34.8756
G01 X25.4849 Y34.8614
G01 X25.4898 Y34.8476
G01 X25.4942 Y34.8303
G01 X25.4963 Y34.8158
G01 X25.4971 Y34.8001
G01 X25.4962 Y34.7834
G01 X25.4940 Y34.7689
G01 X25.4902 Y34.7537
G01 X25.4849 Y34.7389
G01 X25.4786 Y34.7256
G01 X25.4695 Y34.7104
G01 X25.4607 Y34.6986
G01 X25.4502 Y34.6870
G01 X25.4385 Y34.6764
G01 X25.4268 Y34.6677
G01 X25.4115 Y34.6585
G01 X25.3982 Y34.6523
G01 X25.3835 Y34.6470
G01 X25.3682 Y34.6432
G01 X25.3537 Y34.6410
G01 X25.3364 Y34.6401
G01 X24.6233 Y34.6401
G01 X24.6426 Y34.9091
G01 X24.6514 Y34.8957
G01 X24.6613 Y34.8824
G01 X24.6712 Y34.8705
G01 X24.6826 Y34.8585
G01 X24.6931 Y34.8487
G01 X24.7058 Y34.8381
G01 X24.7182 Y34.8288
G01 X24.7316 Y34.8201
G01 X24.6426 Y34.8201
G01 X24.6426 Y34.9091
G01 X24.6426 Y35.6948
G01 X24.6546 Y35.6769
G01 X24.6676 Y35.6604
G01 X24.6826 Y35.6442
G01 X24.6981 Y35.6301
G01 X24.7155 Y35.6165
G01 X24.7330 Y35.6049
G01 X24.7524 Y35.5943
G01 X24.7710 Y35.5859
G01 X24.7524 Y35.5774
G01 X24.7330 Y35.5668
G01 X24.7155 Y35.5553
G01 X24.6981 Y35.5417
G01 X24.6826 Y35.5275
G01 X24.6676 Y35.5113
G01 X24.6546 Y35.4948
G01 X24.6426 Y35.4770
G01 X24.6426 Y35.6948
G01 X24.6426 Y36.2802
G01 X24.7316 Y36.2802
G01 X24.7182 Y36.2715
G01 X24.7049 Y36.2616
G01 X24.6931 Y36.2516
G01 X24.6811 Y36.2402
G01 X24.6712 Y36.2297
G01 X24.6606 Y36.2171
G01 X24.6514 Y36.2046
G01 X24.6426 Y36.1912
G01 X24.6426 Y36.2802
G01 X24.5526 Y36.2982
G01 X24.5531 Y36.3070
G01 X24.5541 Y36.3138
G01 X24.5557 Y36.3205
G01 X24.5581 Y36.3269
G01 X24.5610 Y36.3331
G01 X24.5645 Y36.3390
G01 X24.5686 Y36.3445
G01 X24.5732 Y36.3496
G01 X24.5783 Y36.3542
G01 X24.5838 Y36.3583
G01 X24.5897 Y36.3619
G01 X24.5959 Y36.3648
G01 X24.6024 Y36.3671
G01 X24.6091 Y36.3688
G01 X24.6158 Y36.3698
G01 X24.6247 Y36.3702
G01 X25.3350 Y36.3702
G01 X25.3439 Y36.3698
G01 X25.3506 Y36.3688
G01 X25.3573 Y36.3671
G01 X25.3638 Y36.3648
G01 X25.3700 Y36.3619
G01 X25.3759 Y36.3583
G01 X25.3814 Y36.3542
G01 X25.3865 Y36.3496
G01 X25.3911 Y36.3445
G01 X25.3952 Y36.3390
G01 X25.3987 Y36.3331
G01 X25.4016 Y36.3269
G01 X25.4040 Y36.3205
G01 X25.4056 Y36.3138
G01 X25.4066 Y36.3070
G01 X25.4070 Y36.3001
G01 X25.4066 Y36.2933
G01 X25.4056 Y36.2865
G01 X25.4040 Y36.2798
G01 X25.4016 Y36.2734
G01 X25.3987 Y36.2672
G01 X25.3952 Y36.2613
G01 X25.3911 Y36.2558
G01 X25.3865 Y36.2507
G01 X25.3814 Y36.2461
G01 X25.3759 Y36.2420
G01 X25.3700 Y36.2384
G01 X25.3638 Y36.2355
G01 X25.3573 Y36.2332
G01 X25.3506 Y36.2315
G01 X25.3439 Y36.2305
G01 X25.3350 Y36.2301
G01 X24.8695 Y36.2300
G01 X24.8540 Y36.2291
G01 X24.8387 Y36.2268
G01 X24.8237 Y36.2233
G01 X24.8090 Y36.2184
G01 X24.7988 Y36.2142
G01 X24.7870 Y36.2083
G01 X24.7756 Y36.2016
G01 X24.7647 Y36.1940
G01 X24.7544 Y36.1856
G01 X24.7447 Y36.1766
G01 X24.7358 Y36.1668
G01 X24.7276 Y36.1564
G01 X24.7201 Y36.1454
G01 X24.7135 Y36.1339
G01 X24.7078 Y36.1220
G01 X24.7029 Y36.1097
G01 X24.6990 Y36.0970
G01 X24.6960 Y36.0841
G01 X24.6940 Y36.0710
G01 X24.6929 Y36.0578
G01 X24.6928 Y35.8348
G01 X24.6934 Y35.8216
G01 X24.6949 Y35.8084
G01 X24.6979 Y35.7933
G01 X24.7015 Y35.7805
G01 X24.7069 Y35.7660
G01 X24.7135 Y35.7521
G01 X24.7201 Y35.7406
G01 X24.7289 Y35.7278
G01 X24.7387 Y35.7159
G01 X24.7495 Y35.7048
G01 X24.7612 Y35.6947
G01 X24.7719 Y35.6869
G01 X24.7850 Y35.6788
G01 X24.7968 Y35.6728
G01 X24.8111 Y35.6668
G01 X24.8237 Y35.6628
G01 X24.8366 Y35.6596
G01 X24.8497 Y35.6574
G01 X24.8606 Y35.6564
G01 X24.8728 Y35.6559
G01 X25.1207 Y35.6559
G01 X25.1296 Y35.6555
G01 X25.1364 Y35.6545
G01 X25.1430 Y35.6528
G01 X25.1495 Y35.6505
G01 X25.1557 Y35.6476
G01 X25.1616 Y35.6440
G01 X25.1671 Y35.6400
G01 X25.1722 Y35.6353
G01 X25.1768 Y35.6303
G01 X25.1809 Y35.6247
G01 X25.1844 Y35.6188
G01 X25.1874 Y35.6126
G01 X25.1897 Y35.6062
G01 X25.1913 Y35.5995
G01 X25.1923 Y35.5927
G01 X25.1927 Y35.5859
G01 X25.1923 Y35.5790
G01 X25.1913 Y35.5722
G01 X25.1897 Y35.5655
G01 X25.1874 Y35.5591
G01 X25.1844 Y35.5529
G01 X25.1809 Y35.5470
G01 X25.1768 Y35.5415
G01 X25.1722 Y35.5364
G01 X25.1671 Y35.5318
G01 X25.1616 Y35.5277
G01 X25.1557 Y35.5241
G01 X25.1495 Y35.5212
G01 X25.1430 Y35.5189
G01 X25.1364 Y35.5172
G01 X25.1296 Y35.5162
G01 X25.1207 Y35.5158
G01 X24.8717 Y35.5158
G01 X24.8562 Y35.5150
G01 X24.8409 Y35.5129
G01 X24.8258 Y35.5096
G01 X24.8090 Y35.5041
G01 X24.7948 Y35.4980
G01 X24.7812 Y35.4907
G01 X24.7664 Y35.4810
G01 X24.7544 Y35.4714
G01 X24.7432 Y35.4607
G01 X24.7316 Y35.4474
G01 X24.7237 Y35.4367
G01 X24.7167 Y35.4255
G01 X24.7096 Y35.4117
G01 X24.7045 Y35.3995
G01 X24.6996 Y35.3849
G01 X24.6965 Y35.3720
G01 X24.6943 Y35.3589
G01 X24.6929 Y35.3435
G01 X24.6929 Y35.0425
G01 X24.6946 Y35.0249
G01 X24.6979 Y35.0076
G01 X24.7009 Y34.9969
G01 X24.7037 Y34.9885
G01 X24.7105 Y34.9723
G01 X24.7156 Y34.9625
G01 X24.7213 Y34.9530
G01 X24.7263 Y34.9457
G01 X24.7329 Y34.9369
G01 X24.7402 Y34.9285
G01 X24.7479 Y34.9206
G01 X24.7560 Y34.9132
G01 X24.7647 Y34.9063
G01 X24.7737 Y34.9000
G01 X24.7831 Y34.8942
G01 X24.7909 Y34.8899
G01 X24.8008 Y34.8852
G01 X24.8111 Y34.8811
G01 X24.8216 Y34.8777
G01 X24.8323 Y34.8748
G01 X24.8431 Y34.8727
G01 X24.8584 Y34.8708
G01 X24.8728 Y34.8702
G01 X25.3350 Y34.8702
G01 X25.3439 Y34.8698
G01 X25.3506 Y34.8688
G01 X25.3573 Y34.8671
G01 X25.3638 Y34.8648
G01 X25.3700 Y34.8619
G01 X25.3759 Y34.8583
G01 X25.3814 Y34.8542
G01 X25.3865 Y34.8496
G01 X25.3911 Y34.8445
G01 X25.3952 Y34.8390
G01 X25.3987 Y34.8331
G01 X25.4016 Y34.8269
G01 X25.4040 Y34.8205
G01 X25.4056 Y34.8138
G01 X25.4066 Y34.8070
G01 X25.4070 Y34.8001
G01 X25.4066 Y34.7933
G01 X25.4056 Y34.7865
G01 X25.4040 Y34.7798
G01 X25.4016 Y34.7734
G01 X25.3987 Y34.7672
G01 X25.3952 Y34.7613
G01 X25.3911 Y34.7558
G01 X25.3865 Y34.7507
G01 X25.3814 Y34.7461
G01 X25.3759 Y34.7420
G01 X25.3700 Y34.7384
G01 X25.3638 Y34.7355
G01 X25.3573 Y34.7332
G01 X25.3506 Y34.7315
G01 X25.3439 Y34.7305
G01 X25.3350 Y34.7301
G01 X24.6248 Y34.7301
G01 X24.6158 Y34.7305
G01 X24.6091 Y34.7315
G01 X24.6024 Y34.7332
G01 X24.5959 Y34.7355
G01 X24.5897 Y34.7384
G01 X24.5838 Y34.7420
G01 X24.5783 Y34.7461
G01 X24.5732 Y34.7507
G01 X24.5686 Y34.7558
G01 X24.5645 Y34.7613
G01 X24.5610 Y34.7672
G01 X24.5581 Y34.7734
G01 X24.5557 Y34.7798
G01 X24.5541 Y34.7865
G01 X24.5531 Y34.7933
G01 X24.5526 Y34.8021
G01 X24.5526 Y36.2982
G00 Z3.0000
G00 X25.8383 Y36.0126
G01 F50.00
G01 Z-0.14900
G01 F400.00
G01 X25.8387 Y36.0209
G01 X25.8396 Y36.0273
G01 X25.8411 Y36.0337
G01 X25.8432 Y36.0398
G01 X25.8466 Y36.0474
G01 X25.9162 Y36.1867
G01 X25.9210 Y36.1951
G01 X25.9254 Y36.2012
G01 X25.9318 Y36.2084
G01 X26.0002 Y36.2768
G01 X26.0074 Y36.2832
G01 X26.0135 Y36.2876
G01 X26.0219 Y36.2924
G01 X26.1611 Y36.3620
G01 X26.1688 Y36.3654
G01 X26.1749 Y36.3674
G01 X26.1812 Y36.3689
G01 X26.1877 Y36.3698
G01 X26.1960 Y36.3702
G01 X26.5491 Y36.3702
G01 X26.5588 Y36.3697
G01 X26.5662 Y36.3685
G01 X26.5755 Y36.3659
G01 X26.7859 Y36.2958
G01 X26.7941 Y36.2926
G01 X26.8002 Y36.2895
G01 X26.8060 Y36.2858
G01 X26.8114 Y36.2816
G01 X26.8164 Y36.2768
G01 X26.8208 Y36.2716
G01 X26.8248 Y36.2660
G01 X26.8282 Y36.2600
G01 X26.8309 Y36.2537
G01 X26.8331 Y36.2472
G01 X26.8345 Y36.2405
G01 X26.8354 Y36.2337
G01 X26.8355 Y36.2268
G01 X26.8350 Y36.2200
G01 X26.8338 Y36.2132
G01 X26.8319 Y36.2066
G01 X26.8295 Y36.2002
G01 X26.8264 Y36.1941
G01 X26.8227 Y36.1883
G01 X26.8184 Y36.1829
G01 X26.8137 Y36.1779
G01 X26.8085 Y36.1734
G01 X26.8028 Y36.1695
G01 X26.7969 Y36.1661
G01 X26.7906 Y36.1634
G01 X26.7840 Y36.1612
G01 X26.7773 Y36.1597
G01 X26.7705 Y36.1589
G01 X26.7637 Y36.1588
G01 X26.7568 Y36.1593
G01 X26.7500 Y36.1605
G01 X26.7415 Y36.1629
G01 X26.5644 Y36.2219
G01 X26.5472 Y36.2263
G01 X26.5296 Y36.2291
G01 X26.5107 Y36.2301
G01 X26.2477 Y36.2300
G01 X26.2345 Y36.2291
G01 X26.2193 Y36.2269
G01 X26.2065 Y36.2239
G01 X26.1939 Y36.2200
G01 X26.1836 Y36.2161
G01 X26.1727 Y36.2111
G01 X26.1159 Y36.1827
G01 X26.1025 Y36.1748
G01 X26.0897 Y36.1659
G01 X26.0794 Y36.1574
G01 X26.0581 Y36.1364
G01 X26.0497 Y36.1275
G01 X26.0387 Y36.1135
G01 X26.0291 Y36.0985
G01 X26.0244 Y36.0897
G01 X25.9951 Y36.0309
G01 X25.9900 Y36.0188
G01 X25.9852 Y36.0042
G01 X25.9821 Y35.9914
G01 X25.9797 Y35.9762
G01 X25.9786 Y35.9609
G01 X25.9785 Y35.9306
G01 X25.9788 Y35.9207
G01 X25.9797 Y35.9098
G01 X25.9817 Y35.8968
G01 X25.9847 Y35.8839
G01 X25.9885 Y35.8713
G01 X25.9933 Y35.8591
G01 X26.0259 Y35.7934
G01 X26.0314 Y35.7837
G01 X26.0387 Y35.7725
G01 X26.0483 Y35.7602
G01 X26.0581 Y35.7496
G01 X26.0778 Y35.7301
G01 X26.0862 Y35.7229
G01 X26.0933 Y35.7174
G01 X26.1062 Y35.7088
G01 X26.1189 Y35.7018
G01 X26.2039 Y35.6594
G01 X26.2139 Y35.6550
G01 X26.2241 Y35.6512
G01 X26.2378 Y35.6472
G01 X26.4947 Y35.5829
G01 X26.5041 Y35.5800
G01 X26.5131 Y35.5761
G01 X26.6521 Y35.5066
G01 X26.6605 Y35.5019
G01 X26.6666 Y35.4975
G01 X26.6738 Y35.4910
G01 X26.7422 Y35.4226
G01 X26.7486 Y35.4155
G01 X26.7530 Y35.4094
G01 X26.7578 Y35.4010
G01 X26.8274 Y35.2617
G01 X26.8308 Y35.2541
G01 X26.8329 Y35.2479
G01 X26.8344 Y35.2416
G01 X26.8353 Y35.2352
G01 X26.8356 Y35.2269
G01 X26.8356 Y35.0877
G01 X26.8353 Y35.0794
G01 X26.8344 Y35.0730
G01 X26.8329 Y35.0666
G01 X26.8308 Y35.0605
G01 X26.8274 Y35.0529
G01 X26.7578 Y34.9136
G01 X26.7530 Y34.9052
G01 X26.7486 Y34.8991
G01 X26.7422 Y34.8919
G01 X26.6738 Y34.8235
G01 X26.6666 Y34.8171
G01 X26.6605 Y34.8127
G01 X26.6521 Y34.8079
G01 X26.5128 Y34.7383
G01 X26.5052 Y34.7349
G01 X26.4991 Y34.7328
G01 X26.4928 Y34.7314
G01 X26.4863 Y34.7305
G01 X26.4780 Y34.7301
G01 X26.1249 Y34.7301
G01 X26.1152 Y34.7306
G01 X26.1078 Y34.7318
G01 X26.0985 Y34.7343
G01 X25.8881 Y34.8045
G01 X25.8799 Y34.8077
G01 X25.8738 Y34.8108
G01 X25.8680 Y34.8145
G01 X25.8626 Y34.8187
G01 X25.8576 Y34.8235
G01 X25.8531 Y34.8287
G01 X25.8492 Y34.8343
G01 X25.8458 Y34.8403
G01 X25.8431 Y34.8466
G01 X25.8409 Y34.8531
G01 X25.8394 Y34.8598
G01 X25.8386 Y34.8666
G01 X25.8385 Y34.8735
G01 X25.8390 Y34.8803
G01 X25.8402 Y34.8871
G01 X25.8420 Y34.8937
G01 X25.8445 Y34.9001
G01 X25.8476 Y34.9062
G01 X25.8513 Y34.9120
G01 X25.8556 Y34.9174
G01 X25.8603 Y34.9224
G01 X25.8655 Y34.9269
G01 X25.8711 Y34.9308
G01 X25.8771 Y34.9342
G01 X25.8834 Y34.9369
G01 X25.8899 Y34.9391
G01 X25.8966 Y34.9406
G01 X25.9035 Y34.9414
G01 X25.9103 Y34.9415
G01 X25.9172 Y34.9410
G01 X25.9239 Y34.9398
G01 X25.9324 Y34.9374
G01 X26.1095 Y34.8784
G01 X26.1181 Y34.8760
G01 X26.1290 Y34.8735
G01 X26.1466 Y34.8710
G01 X26.1633 Y34.8702
G01 X26.4263 Y34.8703
G01 X26.4416 Y34.8714
G01 X26.4568 Y34.8739
G01 X26.4738 Y34.8782
G01 X26.4883 Y34.8834
G01 X26.5003 Y34.8887
G01 X26.5580 Y34.9176
G01 X26.5677 Y34.9231
G01 X26.5771 Y34.9292
G01 X26.5895 Y34.9386
G01 X26.6011 Y34.9490
G01 X26.6213 Y34.9695
G01 X26.6285 Y34.9779
G01 X26.6340 Y34.9850
G01 X26.6426 Y34.9980
G01 X26.6491 Y35.0096
G01 X26.6779 Y35.0674
G01 X26.6824 Y35.0774
G01 X26.6862 Y35.0877
G01 X26.6909 Y35.1046
G01 X26.6930 Y35.1154
G01 X26.6943 Y35.1241
G01 X26.6954 Y35.1394
G01 X26.6955 Y35.1708
G01 X26.6947 Y35.1861
G01 X26.6927 Y35.2014
G01 X26.6893 Y35.2164
G01 X26.6847 Y35.2310
G01 X26.6807 Y35.2412
G01 X26.6770 Y35.2492
G01 X26.6449 Y35.3128
G01 X26.6390 Y35.3223
G01 X26.6327 Y35.3314
G01 X26.6257 Y35.3401
G01 X26.6182 Y35.3483
G01 X26.6011 Y35.3655
G01 X26.5929 Y35.3731
G01 X26.5825 Y35.3815
G01 X26.5715 Y35.3891
G01 X26.5561 Y35.3980
G01 X26.4721 Y35.4400
G01 X26.4601 Y35.4453
G01 X26.4478 Y35.4498
G01 X26.4362 Y35.4531
G01 X26.1793 Y35.5173
G01 X26.1699 Y35.5203
G01 X26.1608 Y35.5242
G01 X26.0219 Y35.5937
G01 X26.0135 Y35.5984
G01 X26.0074 Y35.6028
G01 X26.0002 Y35.6093
G01 X25.9318 Y35.6777
G01 X25.9254 Y35.6848
G01 X25.9210 Y35.6909
G01 X25.9162 Y35.6993
G01 X25.8466 Y35.8386
G01 X25.8432 Y35.8462
G01 X25.8411 Y35.8524
G01 X25.8396 Y35.8587
G01 X25.8387 Y35.8651
G01 X25.8383 Y35.8734
G01 X25.8383 Y36.0126
G00 Z3.0000
G00 X26.1348 Y34.9648
G01 F50.00
G01 Z-0.14900
G01 F400.00
G01 X26.1478 Y34.9616
G01 X26.1611 Y34.9603
G01 X26.4230 Y34.9602
G01 X26.4318 Y34.9609
G01 X26.4426 Y34.9629
G01 X26.4530 Y34.9662
G01 X26.4611 Y34.9697
G01 X26.5168 Y34.9976
G01 X26.5263 Y35.0034
G01 X26.5366 Y35.0119
G01 X26.5538 Y35.0291
G01 X26.5596 Y35.0358
G01 X26.5647 Y35.0431
G01 X26.5691 Y35.0509
G01 X26.5969 Y35.1066
G01 X26.6010 Y35.1168
G01 X26.6033 Y35.1253
G01 X26.6048 Y35.1339
G01 X26.6054 Y35.1405
G01 X26.6055 Y35.1719
G01 X26.6042 Y35.1850
G01 X26.6010 Y35.1978
G01 X26.5969 Y35.2080
G01 X26.5691 Y35.2637
G01 X26.5623 Y35.2752
G01 X26.5538 Y35.2855
G01 X26.5366 Y35.3027
G01 X26.5281 Y35.3098
G01 X26.5188 Y35.3159
G01 X26.4328 Y35.3590
G01 X26.4207 Y35.3640
G01 X26.1559 Y35.4304
G01 X26.1386 Y35.4357
G01 X26.1228 Y35.4426
G01 X25.9802 Y35.5138
G01 X25.9646 Y35.5228
G01 X25.9509 Y35.5326
G01 X25.9383 Y35.5439
G01 X25.8665 Y35.6157
G01 X25.8552 Y35.6283
G01 X25.8458 Y35.6413
G01 X25.8364 Y35.6577
G01 X25.7651 Y35.8002
G01 X25.7589 Y35.8145
G01 X25.7545 Y35.8276
G01 X25.7511 Y35.8418
G01 X25.7490 Y35.8568
G01 X25.7483 Y35.8721
G01 X25.7483 Y36.0139
G01 X25.7490 Y36.0290
G01 X25.7511 Y36.0440
G01 X25.7545 Y36.0584
G01 X25.7592 Y36.0725
G01 X25.7655 Y36.0865
G01 X25.8364 Y36.2283
G01 X25.8453 Y36.2440
G01 X25.8552 Y36.2577
G01 X25.8665 Y36.2703
G01 X25.9383 Y36.3421
G01 X25.9509 Y36.3534
G01 X25.9638 Y36.3628
G01 X25.9795 Y36.3718
G01 X26.1228 Y36.4434
G01 X26.1361 Y36.4493
G01 X26.1504 Y36.4541
G01 X26.1646 Y36.4575
G01 X26.1783 Y36.4594
G01 X26.1939 Y36.4602
G01 X26.5507 Y36.4602
G01 X26.5684 Y36.4593
G01 X26.5853 Y36.4565
G01 X26.6025 Y36.4518
G01 X26.8157 Y36.3808
G01 X26.8318 Y36.3744
G01 X26.8448 Y36.3678
G01 X26.8572 Y36.3599
G01 X26.8704 Y36.3496
G01 X26.8825 Y36.3380
G01 X26.8920 Y36.3269
G01 X26.9004 Y36.3149
G01 X26.9087 Y36.3003
G01 X26.9154 Y36.2849
G01 X26.9199 Y36.2710
G01 X26.9231 Y36.2567
G01 X26.9252 Y36.2401
G01 X26.9256 Y36.2244
G01 X26.9245 Y36.2097
G01 X26.9216 Y36.1932
G01 X26.9171 Y36.1771
G01 X26.9117 Y36.1635
G01 X26.9051 Y36.1504
G01 X26.8962 Y36.1362
G01 X26.8858 Y36.1231
G01 X26.8756 Y36.1125
G01 X26.8645 Y36.1029
G01 X26.8506 Y36.0931
G01 X26.8371 Y36.0856
G01 X26.8237 Y36.0796
G01 X26.8078 Y36.0743
G01 X26.7925 Y36.0709
G01 X26.7779 Y36.0692
G01 X26.7602 Y36.0688
G01 X26.7455 Y36.0699
G01 X26.7311 Y36.0724
G01 X26.7152 Y36.0768
G01 X26.5392 Y36.1355
G01 X26.5306 Y36.1378
G01 X26.5218 Y36.1394
G01 X26.5107 Y36.1401
G01 X26.2532 Y36.1401
G01 X26.2422 Y36.1394
G01 X26.2336 Y36.1379
G01 X26.2251 Y36.1356
G01 X26.2149 Y36.1315
G01 X26.1592 Y36.1037
G01 X26.1514 Y36.0993
G01 X26.1441 Y36.0942
G01 X26.1374 Y36.0884
G01 X26.1202 Y36.0712
G01 X26.1144 Y36.0645
G01 X26.1092 Y36.0572
G01 X26.1049 Y36.0494
G01 X26.0770 Y35.9937
G01 X26.0730 Y35.9835
G01 X26.0702 Y35.9729
G01 X26.0687 Y35.9620
G01 X26.0686 Y35.9262
G01 X26.0695 Y35.9175
G01 X26.0707 Y35.9110
G01 X26.0723 Y35.9046
G01 X26.0753 Y35.8964
G01 X26.1081 Y35.8307
G01 X26.1144 Y35.8216
G01 X26.1217 Y35.8132
G01 X26.1407 Y35.7946
G01 X26.1477 Y35.7892
G01 X26.1533 Y35.7855
G01 X26.2412 Y35.7413
G01 X26.2533 Y35.7363
G01 X26.5181 Y35.6699
G01 X26.5354 Y35.6646
G01 X26.5512 Y35.6577
G01 X26.6938 Y35.5864
G01 X26.7094 Y35.5775
G01 X26.7231 Y35.5677
G01 X26.7357 Y35.5564
G01 X26.8081 Y35.4839
G01 X26.8188 Y35.4720
G01 X26.8282 Y35.4590
G01 X26.8376 Y35.4426
G01 X26.9088 Y35.3001
G01 X26.9151 Y35.2858
G01 X26.9195 Y35.2727
G01 X26.9228 Y35.2585
G01 X26.9249 Y35.2435
G01 X26.9256 Y35.2282
G01 X26.9256 Y35.0864
G01 X26.9250 Y35.0713
G01 X26.9229 Y35.0563
G01 X26.9195 Y35.0419
G01 X26.9147 Y35.0278
G01 X26.9085 Y35.0138
G01 X26.8376 Y34.8720
G01 X26.8287 Y34.8563
G01 X26.8188 Y34.8426
G01 X26.8075 Y34.8300
G01 X26.7357 Y34.7582
G01 X26.7231 Y34.7469
G01 X26.7101 Y34.7375
G01 X26.6938 Y34.7281
G01 X26.5512 Y34.6569
G01 X26.5379 Y34.6510
G01 X26.5247 Y34.6465
G01 X26.5091 Y34.6428
G01 X26.4947 Y34.6408
G01 X26.4793 Y34.6401
G01 X26.1233 Y34.6401
G01 X26.1056 Y34.6410
G01 X26.0886 Y34.6437
G01 X26.0715 Y34.6485
G01 X25.8583 Y34.7195
G01 X25.8432 Y34.7254
G01 X25.8301 Y34.7320
G01 X25.8159 Y34.7410
G01 X25.8044 Y34.7500
G01 X25.7915 Y34.7623
G01 X25.7820 Y34.7734
G01 X25.7730 Y34.7863
G01 X25.7653 Y34.8000
G01 X25.7590 Y34.8141
G01 X25.7540 Y34.8293
G01 X25.7506 Y34.8446
G01 X25.7488 Y34.8602
G01 X25.7484 Y34.8759
G01 X25.7496 Y34.8916
G01 X25.7523 Y34.9071
G01 X25.7566 Y34.9222
G01 X25.7623 Y34.9368
G01 X25.7694 Y34.9508
G01 X25.7778 Y34.9641
G01 X25.7875 Y34.9765
G01 X25.7984 Y34.9878
G01 X25.8103 Y34.9980
G01 X25.8231 Y35.0070
G01 X25.8368 Y35.0147
G01 X25.8510 Y35.0210
G01 X25.8672 Y35.0262
G01 X25.8815 Y35.0294
G01 X25.8971 Y35.0312
G01 X25.9138 Y35.0315
G01 X25.9284 Y35.0304
G01 X25.9437 Y35.0277
G01 X25.9596 Y35.0233
G01 X26.1348 Y34.9648
G00 Z3.0000
G00 X27.4283 Y35.6233
G01 F50.00
G01 Z-0.14900
G01 F400.00
G01 X27.4403 Y35.6055
G01 X27.4533 Y35.5890
G01 X27.4684 Y35.5728
G01 X27.4838 Y35.5586
G01 X27.5012 Y35.5450
G01 X27.5187 Y35.5335
G01 X27.5381 Y35.5228
G01 X27.5567 Y35.5144
G01 X27.5381 Y35.5060
G01 X27.5187 Y35.4954
G01 X27.5012 Y35.4838
G01 X27.4838 Y35.4702
G01 X27.4684 Y35.4561
G01 X27.4533 Y35.4399
G01 X27.4403 Y35.4234
G01 X27.4283 Y35.4055
G01 X27.4283 Y35.6233
G01 X27.4785 Y35.7645
G01 X27.4791 Y35.7502
G01 X27.4806 Y35.7370
G01 X27.4831 Y35.7240
G01 X27.4872 Y35.7091
G01 X27.4926 Y35.6946
G01 X27.4982 Y35.6826
G01 X27.5058 Y35.6691
G01 X27.5133 Y35.6582
G01 X27.5229 Y35.6461
G01 X27.5320 Y35.6365
G01 X27.5418 Y35.6275
G01 X27.5540 Y35.6180
G01 X27.5650 Y35.6107
G01 X27.5766 Y35.6042
G01 X27.5906 Y35.5978
G01 X27.6031 Y35.5933
G01 X27.6158 Y35.5896
G01 X27.6266 Y35.5874
G01 X27.6398 Y35.5855
G01 X27.6530 Y35.5846
G01 X27.9241 Y35.5845
G01 X27.9416 Y35.5857
G01 X27.9590 Y35.5886
G01 X27.9759 Y35.5932
G01 X27.9863 Y35.5968
G01 X27.9944 Y35.6002
G01 X28.0600 Y35.6330
G01 X28.0734 Y35.6409
G01 X28.0860 Y35.6501
G01 X28.0995 Y35.6618
G01 X28.1167 Y35.6789
G01 X28.1242 Y35.6871
G01 X28.1313 Y35.6957
G01 X28.1366 Y35.7029
G01 X28.1414 Y35.7104
G01 X28.1470 Y35.7200
G01 X28.1765 Y35.7787
G01 X28.1807 Y35.7876
G01 X28.1839 Y35.7958
G01 X28.1875 Y35.8062
G01 X28.1904 Y35.8168
G01 X28.1923 Y35.8253
G01 X28.1945 Y35.8405
G01 X28.1955 Y35.8559
G01 X28.1955 Y35.9554
G01 X28.1949 Y35.9697
G01 X28.1930 Y35.9849
G01 X28.1899 Y36.0000
G01 X28.1854 Y36.0147
G01 X28.1798 Y36.0289
G01 X28.1460 Y36.0965
G01 X28.1366 Y36.1117
G01 X28.1257 Y36.1258
G01 X28.1167 Y36.1356
G01 X28.0962 Y36.1559
G01 X28.0860 Y36.1645
G01 X28.0734 Y36.1736
G01 X28.0639 Y36.1795
G01 X28.0551 Y36.1842
G01 X28.0003 Y36.2116
G01 X27.9863 Y36.2177
G01 X27.9717 Y36.2227
G01 X27.9590 Y36.2260
G01 X27.9438 Y36.2286
G01 X27.9285 Y36.2299
G01 X27.6552 Y36.2300
G01 X27.6464 Y36.2297
G01 X27.6354 Y36.2286
G01 X27.6266 Y36.2272
G01 X27.6158 Y36.2249
G01 X27.6052 Y36.2220
G01 X27.5968 Y36.2192
G01 X27.5886 Y36.2159
G01 X27.5786 Y36.2113
G01 X27.5707 Y36.2072
G01 X27.5613 Y36.2016
G01 X27.5540 Y36.1966
G01 X27.5452 Y36.1899
G01 X27.5384 Y36.1842
G01 X27.5304 Y36.1766
G01 X27.5289 Y36.1750
G01 X27.5274 Y36.1734
G01 X27.5244 Y36.1701
G01 X27.5173 Y36.1617
G01 X27.5107 Y36.1528
G01 X27.5058 Y36.1454
G01 X27.5003 Y36.1359
G01 X27.4953 Y36.1260
G01 X27.4918 Y36.1179
G01 X27.4879 Y36.1076
G01 X27.4853 Y36.0991
G01 X27.4826 Y36.0884
G01 X27.4797 Y36.0710
G01 X27.4785 Y36.0534
G01 X27.4785 Y35.7645
G01 X27.5685 Y35.7645
G01 X27.5695 Y35.7513
G01 X27.5718 Y35.7405
G01 X27.5762 Y35.7280
G01 X27.5825 Y35.7164
G01 X27.5903 Y35.7057
G01 X27.5997 Y35.6964
G01 X27.6103 Y35.6885
G01 X27.6200 Y35.6831
G01 X27.6303 Y35.6791
G01 X27.6388 Y35.6767
G01 X27.6475 Y35.6752
G01 X27.6563 Y35.6745
G01 X27.9274 Y35.6747
G01 X27.9361 Y35.6758
G01 X27.9426 Y35.6772
G01 X27.9551 Y35.6813
G01 X28.0148 Y35.7109
G01 X28.0226 Y35.7153
G01 X28.0316 Y35.7218
G01 X28.0382 Y35.7277
G01 X28.0553 Y35.7450
G01 X28.0635 Y35.7555
G01 X28.0691 Y35.7652
G01 X28.0960 Y35.8189
G01 X28.0995 Y35.8270
G01 X28.1023 Y35.8353
G01 X28.1045 Y35.8461
G01 X28.1055 Y35.8570
G01 X28.1055 Y35.9576
G01 X28.1048 Y35.9664
G01 X28.1038 Y35.9729
G01 X28.1023 Y35.9793
G01 X28.0995 Y35.9876
G01 X28.0960 Y35.9956
G01 X28.0691 Y36.0494
G01 X28.0647 Y36.0572
G01 X28.0596 Y36.0645
G01 X28.0553 Y36.0696
G01 X28.0366 Y36.0884
G01 X28.0263 Y36.0969
G01 X28.0168 Y36.1027
G01 X27.9591 Y36.1315
G01 X27.9468 Y36.1362
G01 X27.9361 Y36.1388
G01 X27.9230 Y36.1400
G01 X27.6585 Y36.1401
G01 X27.6497 Y36.1396
G01 X27.6409 Y36.1383
G01 X27.6324 Y36.1362
G01 X27.6241 Y36.1332
G01 X27.6141 Y36.1284
G01 X27.6049 Y36.1224
G01 X27.5949 Y36.1137
G01 X27.5875 Y36.1054
G01 X27.5802 Y36.0944
G01 X27.5753 Y36.0845
G01 X27.5718 Y36.0741
G01 X27.5695 Y36.0633
G01 X27.5685 Y36.0501
G01 X27.5685 Y35.7645
G01 X27.5173 Y36.2802
G01 X27.5039 Y36.2715
G01 X27.4906 Y36.2616
G01 X27.4788 Y36.2516
G01 X27.4668 Y36.2402
G01 X27.4570 Y36.2297
G01 X27.4463 Y36.2171
G01 X27.4371 Y36.2046
G01 X27.4283 Y36.1912
G01 X27.4283 Y36.2802
G01 X27.5173 Y36.2802
G01 X27.3383 Y36.2980
G01 X27.3388 Y36.3070
G01 X27.3398 Y36.3138
G01 X27.3415 Y36.3205
G01 X27.3438 Y36.3269
G01 X27.3467 Y36.3331
G01 X27.3502 Y36.3390
G01 X27.3543 Y36.3445
G01 X27.3589 Y36.3496
G01 X27.3640 Y36.3542
G01 X27.3695 Y36.3583
G01 X27.3754 Y36.3619
G01 X27.3816 Y36.3648
G01 X27.3881 Y36.3671
G01 X27.3948 Y36.3688
G01 X27.4016 Y36.3698
G01 X27.4104 Y36.3702
G01 X27.9780 Y36.3702
G01 X27.9863 Y36.3698
G01 X27.9928 Y36.3689
G01 X27.9991 Y36.3674
G01 X28.0052 Y36.3654
G01 X28.0128 Y36.3620
G01 X28.1521 Y36.2924
G01 X28.1605 Y36.2876
G01 X28.1666 Y36.2832
G01 X28.1738 Y36.2768
G01 X28.2422 Y36.2084
G01 X28.2486 Y36.2012
G01 X28.2530 Y36.1951
G01 X28.2578 Y36.1867
G01 X28.3274 Y36.0474
G01 X28.3308 Y36.0398
G01 X28.3329 Y36.0337
G01 X28.3344 Y36.0273
G01 X28.3353 Y36.0209
G01 X28.3356 Y36.0126
G01 X28.3356 Y35.8020
G01 X28.3353 Y35.7937
G01 X28.3344 Y35.7872
G01 X28.3329 Y35.7809
G01 X28.3308 Y35.7748
G01 X28.3274 Y35.7672
G01 X28.2578 Y35.6279
G01 X28.2530 Y35.6195
G01 X28.2486 Y35.6134
G01 X28.2422 Y35.6062
G01 X28.1738 Y35.5378
G01 X28.1666 Y35.5314
G01 X28.1605 Y35.5270
G01 X28.1521 Y35.5222
G01 X28.0128 Y35.4526
G01 X28.0052 Y35.4492
G01 X27.9991 Y35.4471
G01 X27.9928 Y35.4456
G01 X27.9863 Y35.4447
G01 X27.9780 Y35.4444
G01 X27.6585 Y35.4444
G01 X27.6464 Y35.4439
G01 X27.6354 Y35.4429
G01 X27.6201 Y35.4402
G01 X27.6052 Y35.4363
G01 X27.5906 Y35.4311
G01 X27.5766 Y35.4246
G01 X27.5631 Y35.4170
G01 X27.5504 Y35.4083
G01 X27.5384 Y35.3985
G01 X27.5274 Y35.3877
G01 X27.5173 Y35.3760
G01 X27.5082 Y35.3634
G01 X27.5013 Y35.3521
G01 X27.4944 Y35.3383
G01 X27.4887 Y35.3240
G01 X27.4842 Y35.3092
G01 X27.4810 Y35.2940
G01 X27.4791 Y35.2787
G01 X27.4785 Y35.2644
G01 X27.4785 Y34.8021
G01 X27.4781 Y34.7933
G01 X27.4771 Y34.7865
G01 X27.4754 Y34.7798
G01 X27.4731 Y34.7734
G01 X27.4701 Y34.7672
G01 X27.4666 Y34.7613
G01 X27.4625 Y34.7558
G01 X27.4579 Y34.7507
G01 X27.4528 Y34.7461
G01 X27.4473 Y34.7420
G01 X27.4414 Y34.7384
G01 X27.4352 Y34.7355
G01 X27.4287 Y34.7332
G01 X27.4221 Y34.7315
G01 X27.4153 Y34.7305
G01 X27.4084 Y34.7302
G01 X27.4016 Y34.7305
G01 X27.3948 Y34.7315
G01 X27.3881 Y34.7332
G01 X27.3816 Y34.7355
G01 X27.3754 Y34.7384
G01 X27.3695 Y34.7420
G01 X27.3640 Y34.7461
G01 X27.3589 Y34.7507
G01 X27.3543 Y34.7558
G01 X27.3502 Y34.7613
G01 X27.3467 Y34.7672
G01 X27.3438 Y34.7734
G01 X27.3415 Y34.7798
G01 X27.3398 Y34.7865
G01 X27.3388 Y34.7933
G01 X27.3383 Y34.8021
G01 X27.3383 Y36.2980
G01 X27.2483 Y36.2996
G01 X27.2491 Y36.3158
G01 X27.2513 Y36.3303
G01 X27.2556 Y36.3476
G01 X27.2605 Y36.3614
G01 X27.2673 Y36.3756
G01 X27.2753 Y36.3891
G01 X27.2845 Y36.4015
G01 X27.2952 Y36.4133
G01 X27.3069 Y36.4239
G01 X27.3195 Y36.4332
G01 X27.3330 Y36.4413
G01 X27.3472 Y36.4480
G01 X27.3620 Y36.4533
G01 X27.3772 Y36.4571
G01 X27.3930 Y36.4595
G01 X27.4090 Y36.4602
G01 X27.9793 Y36.4602
G01 X27.9956 Y36.4594
G01 X28.0094 Y36.4575
G01 X28.0240 Y36.4540
G01 X28.0379 Y36.4493
G01 X28.0519 Y36.4431
G01 X28.1938 Y36.3722
G01 X28.2092 Y36.3634
G01 X28.2231 Y36.3534
G01 X28.2357 Y36.3421
G01 X28.3069 Y36.2709
G01 X28.3195 Y36.2568
G01 X28.3288 Y36.2438
G01 X28.3372 Y36.2291
G01 X28.4088 Y36.0858
G01 X28.4147 Y36.0725
G01 X28.4195 Y36.0582
G01 X28.4229 Y36.0440
G01 X28.4248 Y36.0302
G01 X28.4256 Y36.0147
G01 X28.4256 Y35.8007
G01 X28.4249 Y35.7853
G01 X28.4230 Y35.7716
G01 X28.4192 Y35.7553
G01 X28.4147 Y35.7421
G01 X28.4085 Y35.7281
G01 X28.3376 Y35.5862
G01 X28.3287 Y35.5706
G01 X28.3188 Y35.5569
G01 X28.3075 Y35.5443
G01 X28.2363 Y35.4731
G01 X28.2240 Y35.4620
G01 X28.2092 Y35.4512
G01 X28.1945 Y35.4428
G01 X28.0519 Y35.3715
G01 X28.0369 Y35.3649
G01 X28.0238 Y35.3605
G01 X28.0103 Y35.3573
G01 X27.9947 Y35.3551
G01 X27.9793 Y35.3544
G01 X27.6585 Y35.3544
G01 X27.6497 Y35.3539
G01 X27.6409 Y35.3526
G01 X27.6324 Y35.3505
G01 X27.6241 Y35.3475
G01 X27.6141 Y35.3427
G01 X27.6049 Y35.3366
G01 X27.5981 Y35.3310
G01 X27.5918 Y35.3248
G01 X27.5862 Y35.3180
G01 X27.5791 Y35.3068
G01 X27.5738 Y35.2947
G01 X27.5702 Y35.2819
G01 X27.5686 Y35.2688
G01 X27.5685 Y34.7999
G01 X27.5677 Y34.7845
G01 X27.5656 Y34.7699
G01 X27.5616 Y34.7537
G01 X27.5563 Y34.7389
G01 X27.5496 Y34.7247
G01 X27.5415 Y34.7112
G01 X27.5322 Y34.6986
G01 X27.5216 Y34.6870
G01 X27.5100 Y34.6764
G01 X27.4973 Y34.6671
G01 X27.4848 Y34.6595
G01 X27.4697 Y34.6523
G01 X27.4559 Y34.6473
G01 X27.4386 Y34.6430
G01 X27.4241 Y34.6409
G01 X27.4084 Y34.6401
G01 X27.3927 Y34.6409
G01 X27.3772 Y34.6432
G01 X27.3620 Y34.6470
G01 X27.3481 Y34.6519
G01 X27.3321 Y34.6595
G01 X27.3195 Y34.6671
G01 X27.3069 Y34.6764
G01 X27.2952 Y34.6870
G01 X27.2854 Y34.6978
G01 X27.2748 Y34.7121
G01 X27.2673 Y34.7247
G01 X27.2605 Y34.7389
G01 X27.2552 Y34.7537
G01 X27.2517 Y34.7679
G01 X27.2491 Y34.7847
G01 X27.2483 Y34.8007
G01 X27.2483 Y36.2996
G00 Z3.0000
G00 X28.6956 Y36.3001
G01 F50.00
G01 Z-0.14900
G01 F400.00
G01 X28.6959 Y36.3070
G01 X28.6969 Y36.3138
G01 X28.6986 Y36.3205
G01 X28.7009 Y36.3269
G01 X28.7038 Y36.3331
G01 X28.7074 Y36.3390
G01 X28.7115 Y36.3445
G01 X28.7161 Y36.3496
G01 X28.7212 Y36.3542
G01 X28.7267 Y36.3583
G01 X28.7326 Y36.3619
G01 X28.7388 Y36.3648
G01 X28.7452 Y36.3671
G01 X28.7519 Y36.3688
G01 X28.7587 Y36.3698
G01 X28.7675 Y36.3702
G01 X29.6921 Y36.3702
G01 X29.7011 Y36.3698
G01 X29.7080 Y36.3687
G01 X29.7147 Y36.3670
G01 X29.7213 Y36.3646
G01 X29.7275 Y36.3616
G01 X29.7335 Y36.3580
G01 X29.7390 Y36.3538
G01 X29.7442 Y36.3491
G01 X29.7488 Y36.3439
G01 X29.7528 Y36.3382
G01 X29.7563 Y36.3322
G01 X29.7592 Y36.3259
G01 X29.7614 Y36.3193
G01 X29.7630 Y36.3125
G01 X29.7639 Y36.3056
G01 X29.7641 Y36.2986
G01 X29.7636 Y36.2917
G01 X29.7624 Y36.2848
G01 X29.7605 Y36.2781
G01 X29.7580 Y36.2716
G01 X29.7549 Y36.2654
G01 X29.7511 Y36.2595
G01 X29.7456 Y36.2525
G01 X29.5252 Y36.0007
G01 X29.5175 Y35.9912
G01 X29.5098 Y35.9804
G01 X29.5030 Y35.9689
G01 X29.4970 Y35.9570
G01 X29.4919 Y35.9447
G01 X29.4878 Y35.9321
G01 X29.4845 Y35.9191
G01 X29.4826 Y35.9082
G01 X29.4812 Y35.8950
G01 X29.4807 Y35.8816
G01 X29.4812 Y35.8683
G01 X29.4827 Y35.8551
G01 X29.4852 Y35.8420
G01 X29.4887 Y35.8291
G01 X29.4931 Y35.8166
G01 X29.4984 Y35.8044
G01 X29.5046 Y35.7926
G01 X29.5116 Y35.7813
G01 X29.5195 Y35.7705
G01 X29.5282 Y35.7604
G01 X29.5375 Y35.7509
G01 X29.5459 Y35.7436
G01 X29.5546 Y35.7368
G01 X29.5638 Y35.7305
G01 X29.5714 Y35.7259
G01 X29.5891 Y35.7162
G01 X29.5952 Y35.7118
G01 X29.6023 Y35.7053
G01 X29.6707 Y35.6369
G01 X29.6772 Y35.6298
G01 X29.6816 Y35.6237
G01 X29.6863 Y35.6153
G01 X29.7560 Y35.4760
G01 X29.7594 Y35.4684
G01 X29.7614 Y35.4622
G01 X29.7629 Y35.4559
G01 X29.7638 Y35.4495
G01 X29.7642 Y35.4412
G01 X29.7642 Y35.0877
G01 X29.7638 Y35.0794
G01 X29.7629 Y35.0730
G01 X29.7614 Y35.0666
G01 X29.7594 Y35.0605
G01 X29.7560 Y35.0529
G01 X29.6863 Y34.9136
G01 X29.6816 Y34.9052
G01 X29.6772 Y34.8991
G01 X29.6707 Y34.8919
G01 X29.6023 Y34.8235
G01 X29.5952 Y34.8171
G01 X29.5891 Y34.8127
G01 X29.5807 Y34.8079
G01 X29.4414 Y34.7383
G01 X29.4338 Y34.7349
G01 X29.4276 Y34.7328
G01 X29.4213 Y34.7314
G01 X29.4149 Y34.7305
G01 X29.4066 Y34.7301
G01 X28.9817 Y34.7301
G01 X28.9734 Y34.7305
G01 X28.9669 Y34.7314
G01 X28.9606 Y34.7328
G01 X28.9545 Y34.7349
G01 X28.9469 Y34.7383
G01 X28.8076 Y34.8079
G01 X28.7992 Y34.8127
G01 X28.7931 Y34.8171
G01 X28.7859 Y34.8235
G01 X28.7174 Y34.8921
G01 X28.7115 Y34.8986
G01 X28.7074 Y34.9041
G01 X28.7038 Y34.9100
G01 X28.7009 Y34.9162
G01 X28.6986 Y34.9227
G01 X28.6969 Y34.9294
G01 X28.6959 Y34.9361
G01 X28.6956 Y34.9430
G01 X28.6959 Y34.9499
G01 X28.6969 Y34.9567
G01 X28.6986 Y34.9633
G01 X28.7009 Y34.9698
G01 X28.7038 Y34.9760
G01 X28.7074 Y34.9819
G01 X28.7115 Y34.9874
G01 X28.7161 Y34.9925
G01 X28.7212 Y34.9971
G01 X28.7267 Y35.0012
G01 X28.7326 Y35.0047
G01 X28.7388 Y35.0077
G01 X28.7452 Y35.0100
G01 X28.7519 Y35.0116
G01 X28.7587 Y35.0126
G01 X28.7656 Y35.0130
G01 X28.7724 Y35.0126
G01 X28.7792 Y35.0116
G01 X28.7859 Y35.0100
G01 X28.7923 Y35.0077
G01 X28.7985 Y35.0047
G01 X28.8044 Y35.0012
G01 X28.8100 Y34.9971
G01 X28.8165 Y34.9912
G01 X28.8578 Y34.9498
G01 X28.8668 Y34.9415
G01 X28.8808 Y34.9304
G01 X28.8958 Y34.9208
G01 X28.9584 Y34.8892
G01 X28.9714 Y34.8834
G01 X28.9817 Y34.8796
G01 X28.9922 Y34.8764
G01 X29.0050 Y34.8734
G01 X29.0159 Y34.8717
G01 X29.0268 Y34.8706
G01 X29.0389 Y34.8702
G01 X29.3494 Y34.8702
G01 X29.3658 Y34.8710
G01 X29.3789 Y34.8727
G01 X29.3897 Y34.8748
G01 X29.4003 Y34.8776
G01 X29.4128 Y34.8818
G01 X29.4269 Y34.8878
G01 X29.4836 Y34.9161
G01 X29.4944 Y34.9220
G01 X29.5038 Y34.9279
G01 X29.5129 Y34.9344
G01 X29.5215 Y34.9415
G01 X29.5296 Y34.9490
G01 X29.5468 Y34.9662
G01 X29.5543 Y34.9745
G01 X29.5612 Y34.9832
G01 X29.5700 Y34.9961
G01 X29.5782 Y35.0106
G01 X29.6074 Y35.0693
G01 X29.6125 Y35.0815
G01 X29.6167 Y35.0940
G01 X29.6195 Y35.1046
G01 X29.6216 Y35.1154
G01 X29.6231 Y35.1263
G01 X29.6240 Y35.1394
G01 X29.6241 Y35.3840
G01 X29.6235 Y35.3982
G01 X29.6216 Y35.4135
G01 X29.6185 Y35.4285
G01 X29.6140 Y35.4432
G01 X29.6109 Y35.4515
G01 X29.6065 Y35.4615
G01 X29.5734 Y35.5271
G01 X29.5676 Y35.5366
G01 X29.5612 Y35.5457
G01 X29.5543 Y35.5544
G01 X29.5468 Y35.5626
G01 X29.5296 Y35.5798
G01 X29.5215 Y35.5874
G01 X29.5111 Y35.5958
G01 X29.5001 Y35.6034
G01 X29.4846 Y35.6123
G01 X29.4209 Y35.6438
G01 X29.4107 Y35.6479
G01 X29.4003 Y35.6513
G01 X29.3897 Y35.6541
G01 X29.3811 Y35.6558
G01 X29.3680 Y35.6577
G01 X29.3527 Y35.6586
G01 X29.1961 Y35.6586
G01 X29.1872 Y35.6591
G01 X29.1803 Y35.6601
G01 X29.1735 Y35.6618
G01 X29.1670 Y35.6642
G01 X29.1607 Y35.6672
G01 X29.1548 Y35.6709
G01 X29.1492 Y35.6751
G01 X29.1441 Y35.6798
G01 X29.1395 Y35.6850
G01 X29.1354 Y35.6906
G01 X29.1319 Y35.6967
G01 X29.1291 Y35.7030
G01 X29.1268 Y35.7096
G01 X29.1253 Y35.7164
G01 X29.1244 Y35.7233
G01 X29.1242 Y35.7303
G01 X29.1247 Y35.7372
G01 X29.1259 Y35.7441
G01 X29.1277 Y35.7508
G01 X29.1302 Y35.7573
G01 X29.1334 Y35.7635
G01 X29.1372 Y35.7693
G01 X29.1427 Y35.7764
G01 X29.2785 Y35.9315
G01 X29.2848 Y35.9392
G01 X29.2951 Y35.9537
G01 X29.3028 Y35.9671
G01 X29.3102 Y35.9833
G01 X29.3153 Y35.9979
G01 X29.3187 Y36.0107
G01 X29.3208 Y36.0216
G01 X29.3224 Y36.0348
G01 X29.3230 Y36.0459
G01 X29.3228 Y36.0592
G01 X29.3219 Y36.0702
G01 X29.3199 Y36.0833
G01 X29.3175 Y36.0942
G01 X29.3145 Y36.1048
G01 X29.3100 Y36.1173
G01 X29.3055 Y36.1275
G01 X29.2994 Y36.1392
G01 X29.2924 Y36.1505
G01 X29.2859 Y36.1595
G01 X29.2789 Y36.1681
G01 X29.2698 Y36.1778
G01 X29.2584 Y36.1883
G01 X29.2479 Y36.1964
G01 X29.2349 Y36.2049
G01 X29.2212 Y36.2122
G01 X29.2070 Y36.2183
G01 X29.1922 Y36.2232
G01 X29.1772 Y36.2268
G01 X29.1618 Y36.2291
G01 X29.1430 Y36.2301
G01 X28.7675 Y36.2301
G01 X28.7587 Y36.2305
G01 X28.7519 Y36.2315
G01 X28.7452 Y36.2332
G01 X28.7388 Y36.2355
G01 X28.7326 Y36.2384
G01 X28.7267 Y36.2420
G01 X28.7212 Y36.2461
G01 X28.7161 Y36.2507
G01 X28.7115 Y36.2558
G01 X28.7074 Y36.2613
G01 X28.7038 Y36.2672
G01 X28.7009 Y36.2734
G01 X28.6986 Y36.2798
G01 X28.6969 Y36.2865
G01 X28.6959 Y36.2933
G01 X28.6956 Y36.3001
G01 X29.2842 Y36.2802
G01 X29.6502 Y36.2802
G01 X29.4575 Y36.0600
G01 X29.4504 Y36.0515
G01 X29.4378 Y36.0345
G01 X29.4271 Y36.0176
G01 X29.4178 Y36.0000
G01 X29.4097 Y35.9817
G01 X29.4041 Y35.9660
G01 X29.3997 Y35.9511
G01 X29.3959 Y35.9349
G01 X29.3935 Y35.9207
G01 X29.3917 Y35.9052
G01 X29.3908 Y35.8886
G01 X29.3909 Y35.8719
G01 X29.3920 Y35.8553
G01 X29.3939 Y35.8410
G01 X29.3969 Y35.8246
G01 X29.4010 Y35.8085
G01 X29.4060 Y35.7926
G01 X29.4120 Y35.7771
G01 X29.4185 Y35.7629
G01 X29.4263 Y35.7482
G01 X29.4344 Y35.7349
G01 X29.4167 Y35.7401
G01 X29.4007 Y35.7437
G01 X29.3844 Y35.7464
G01 X29.3680 Y35.7480
G01 X29.3499 Y35.7486
G01 X29.2380 Y35.7486
G01 X29.3491 Y35.8756
G01 X29.3614 Y35.8913
G01 X29.3714 Y35.9060
G01 X29.3793 Y35.9193
G01 X29.3869 Y35.9341
G01 X29.3935 Y35.9493
G01 X29.3992 Y35.9649
G01 X29.4040 Y35.9809
G01 X29.4073 Y35.9949
G01 X29.4102 Y36.0112
G01 X29.4120 Y36.0266
G01 X29.4130 Y36.0465
G01 X29.4126 Y36.0643
G01 X29.4110 Y36.0830
G01 X29.4083 Y36.1005
G01 X29.4038 Y36.1200
G01 X29.3983 Y36.1380
G01 X29.3920 Y36.1545
G01 X29.3884 Y36.1626
G01 X29.3866 Y36.1667
G01 X29.3856 Y36.1687
G01 X29.3851 Y36.1696
G01 X29.3841 Y36.1716
G01 X29.3756 Y36.1872
G01 X29.3655 Y36.2031
G01 X29.3536 Y36.2191
G01 X29.3421 Y36.2325
G01 X29.3289 Y36.2459
G01 X29.3156 Y36.2577
G01 X29.3007 Y36.2692
G01 X29.2842 Y36.2802
G01 X29.5930 Y35.9414
G01 X29.5875 Y35.9345
G01 X29.5838 Y35.9289
G01 X29.5777 Y35.9171
G01 X29.5735 Y35.9044
G01 X29.5712 Y35.8913
G01 X29.5708 Y35.8780
G01 X29.5724 Y35.8648
G01 X29.5759 Y35.8520
G01 X29.5813 Y35.8398
G01 X29.5859 Y35.8322
G01 X29.5912 Y35.8250
G01 X29.5971 Y35.8185
G01 X29.6037 Y35.8125
G01 X29.6146 Y35.8049
G01 X29.6380 Y35.7918
G01 X29.6517 Y35.7819
G01 X29.6643 Y35.7707
G01 X29.7361 Y35.6989
G01 X29.7474 Y35.6863
G01 X29.7567 Y35.6733
G01 X29.7661 Y35.6569
G01 X29.8377 Y35.5137
G01 X29.8433 Y35.5010
G01 X29.8480 Y35.4870
G01 X29.8515 Y35.4725
G01 X29.8534 Y35.4588
G01 X29.8542 Y35.4425
G01 X29.8542 Y35.0856
G01 X29.8535 Y35.0710
G01 X29.8516 Y35.0573
G01 X29.8480 Y35.0419
G01 X29.8433 Y35.0278
G01 X29.8371 Y35.0138
G01 X29.7661 Y34.8720
G01 X29.7572 Y34.8563
G01 X29.7474 Y34.8426
G01 X29.7361 Y34.8300
G01 X29.6649 Y34.7588
G01 X29.6519 Y34.7471
G01 X29.6378 Y34.7369
G01 X29.6231 Y34.7285
G01 X29.4798 Y34.6569
G01 X29.4664 Y34.6510
G01 X29.4524 Y34.6462
G01 X29.4379 Y34.6428
G01 X29.4242 Y34.6409
G01 X29.4079 Y34.6401
G01 X28.9796 Y34.6401
G01 X28.9650 Y34.6408
G01 X28.9503 Y34.6428
G01 X28.9359 Y34.6462
G01 X28.9218 Y34.6510
G01 X28.9078 Y34.6572
G01 X28.7659 Y34.7281
G01 X28.7496 Y34.7375
G01 X28.7366 Y34.7469
G01 X28.7234 Y34.7588
G01 X28.6522 Y34.8300
G01 X28.6418 Y34.8415
G01 X28.6326 Y34.8539
G01 X28.6239 Y34.8685
G01 X28.6177 Y34.8817
G01 X28.6124 Y34.8965
G01 X28.6086 Y34.9118
G01 X28.6064 Y34.9263
G01 X28.6055 Y34.9440
G01 X28.6063 Y34.9587
G01 X28.6086 Y34.9742
G01 X28.6124 Y34.9895
G01 X28.6173 Y35.0033
G01 X28.6249 Y35.0194
G01 X28.6325 Y35.0319
G01 X28.6418 Y35.0446
G01 X28.6531 Y35.0569
G01 X28.6640 Y35.0667
G01 X28.6758 Y35.0755
G01 X28.6901 Y35.0842
G01 X28.7043 Y35.0909
G01 X28.7201 Y35.0965
G01 X28.7343 Y35.1000
G01 X28.7488 Y35.1022
G01 X28.7656 Y35.1031
G01 X28.7813 Y35.1023
G01 X28.7968 Y35.1000
G01 X28.8120 Y35.0962
G01 X28.8268 Y35.0909
G01 X28.8419 Y35.0837
G01 X28.8545 Y35.0761
G01 X28.8673 Y35.0666
G01 X28.8791 Y35.0558
G01 X28.9231 Y35.0119
G01 X28.9281 Y35.0075
G01 X28.9352 Y35.0022
G01 X28.9449 Y34.9966
G01 X29.0006 Y34.9688
G01 X29.0087 Y34.9654
G01 X29.0193 Y34.9624
G01 X29.0301 Y34.9607
G01 X29.0389 Y34.9602
G01 X29.3516 Y34.9602
G01 X29.3582 Y34.9607
G01 X29.3668 Y34.9619
G01 X29.3754 Y34.9641
G01 X29.3836 Y34.9670
G01 X29.4434 Y34.9966
G01 X29.4512 Y35.0010
G01 X29.4567 Y35.0047
G01 X29.4636 Y35.0104
G01 X29.4808 Y35.0275
G01 X29.4882 Y35.0358
G01 X29.4956 Y35.0470
G01 X29.5246 Y35.1046
G01 X29.5289 Y35.1147
G01 X29.5314 Y35.1232
G01 X29.5327 Y35.1296
G01 X29.5340 Y35.1427
G01 X29.5341 Y35.3840
G01 X29.5338 Y35.3906
G01 X29.5327 Y35.3993
G01 X29.5302 Y35.4099
G01 X29.5255 Y35.4222
G01 X29.4977 Y35.4780
G01 X29.4921 Y35.4876
G01 X29.4839 Y35.4981
G01 X29.4652 Y35.5170
G01 X29.4567 Y35.5241
G01 X29.4454 Y35.5312
G01 X29.3857 Y35.5610
G01 X29.3754 Y35.5648
G01 X29.3625 Y35.5677
G01 X29.3494 Y35.5686
G01 X29.1931 Y35.5687
G01 X29.1782 Y35.5694
G01 X29.1635 Y35.5716
G01 X29.1470 Y35.5757
G01 X29.1321 Y35.5812
G01 X29.1177 Y35.5881
G01 X29.1041 Y35.5964
G01 X29.0914 Y35.6060
G01 X29.0797 Y35.6168
G01 X29.0692 Y35.6287
G01 X29.0598 Y35.6416
G01 X29.0514 Y35.6564
G01 X29.0453 Y35.6699
G01 X29.0402 Y35.6850
G01 X29.0366 Y35.7005
G01 X29.0345 Y35.7163
G01 X29.0341 Y35.7322
G01 X29.0352 Y35.7481
G01 X29.0380 Y35.7638
G01 X29.0422 Y35.7792
G01 X29.0480 Y35.7940
G01 X29.0547 Y35.8073
G01 X29.0644 Y35.8225
G01 X29.0740 Y35.8346
G01 X29.2122 Y35.9925
G01 X29.2187 Y36.0014
G01 X29.2232 Y36.0091
G01 X29.2283 Y36.0213
G01 X29.2307 Y36.0299
G01 X29.2320 Y36.0364
G01 X29.2330 Y36.0496
G01 X29.2321 Y36.0629
G01 X29.2293 Y36.0759
G01 X29.2245 Y36.0883
G01 X29.2215 Y36.0942
G01 X29.2168 Y36.1017
G01 X29.2084 Y36.1120
G01 X29.2020 Y36.1181
G01 X29.1950 Y36.1236
G01 X29.1875 Y36.1283
G01 X29.1816 Y36.1314
G01 X29.1734 Y36.1348
G01 X29.1650 Y36.1374
G01 X29.1585 Y36.1387
G01 X29.1497 Y36.1398
G01 X28.7653 Y36.1401
G01 X28.7499 Y36.1409
G01 X28.7343 Y36.1432
G01 X28.7191 Y36.1470
G01 X28.7041 Y36.1524
G01 X28.6901 Y36.1590
G01 X28.6766 Y36.1671
G01 X28.6640 Y36.1764
G01 X28.6517 Y36.1877
G01 X28.6418 Y36.1986
G01 X28.6331 Y36.2104
G01 X28.6249 Y36.2238
G01 X28.6177 Y36.2389
G01 X28.6127 Y36.2527
G01 X28.6086 Y36.2689
G01 X28.6063 Y36.2845
G01 X28.6055 Y36.3001
G01 X28.6063 Y36.3158
G01 X28.6086 Y36.3314
G01 X28.6124 Y36.3466
G01 X28.6177 Y36.3614
G01 X28.6244 Y36.3756
G01 X28.6325 Y36.3891
G01 X28.6425 Y36.4025
G01 X28.6524 Y36.4133
G01 X28.6632 Y36.4232
G01 X28.6766 Y36.4332
G01 X28.6910 Y36.4418
G01 X28.7043 Y36.4480
G01 X28.7181 Y36.4530
G01 X28.7343 Y36.4571
G01 X28.7501 Y36.4595
G01 X28.7661 Y36.4602
G01 X29.6936 Y36.4602
G01 X29.7100 Y36.4594
G01 X29.7258 Y36.4571
G01 X29.7412 Y36.4531
G01 X29.7564 Y36.4476
G01 X29.7706 Y36.4408
G01 X29.7842 Y36.4325
G01 X29.7969 Y36.4229
G01 X29.8086 Y36.4121
G01 X29.8191 Y36.4002
G01 X29.8284 Y36.3872
G01 X29.8364 Y36.3735
G01 X29.8426 Y36.3599
G01 X29.8484 Y36.3428
G01 X29.8517 Y36.3283
G01 X29.8538 Y36.3115
G01 X29.8542 Y36.2966
G01 X29.8530 Y36.2807
G01 X29.8503 Y36.2650
G01 X29.8460 Y36.2497
G01 X29.8403 Y36.2349
G01 X29.8331 Y36.2207
G01 X29.8245 Y36.2072
G01 X29.8148 Y36.1949
G01 X29.5930 Y35.9414
G00 Z3.0000
G00 X30.2234 Y36.3415
G01 F50.00
G01 Z-0.14900
G01 F400.00
G01 X30.2366 Y36.3534
G01 X30.2496 Y36.3628
G01 X30.2659 Y36.3722
G01 X30.4085 Y36.4434
G01 X30.4218 Y36.4493
G01 X30.4350 Y36.4538
G01 X30.4503 Y36.4575
G01 X30.4650 Y36.4595
G01 X30.4804 Y36.4602
G01 X30.8365 Y36.4602
G01 X30.8518 Y36.4595
G01 X30.8665 Y36.4575
G01 X30.8809 Y36.4541
G01 X30.8950 Y36.4493
G01 X30.9077 Y36.4437
G01 X31.0509 Y36.3722
G01 X31.0663 Y36.3634
G01 X31.0803 Y36.3534
G01 X31.0928 Y36.3421
G01 X31.1640 Y36.2709
G01 X31.1759 Y36.2577
G01 X31.1865 Y36.2428
G01 X31.1947 Y36.2283
G01 X31.2656 Y36.0865
G01 X31.2718 Y36.0727
G01 X31.2766 Y36.0584
G01 X31.2800 Y36.0440
G01 X31.2821 Y36.0293
G01 X31.2828 Y36.0147
G01 X31.2828 Y35.8713
G01 X31.2819 Y35.8544
G01 X31.2792 Y35.8378
G01 X31.2744 Y35.8204
G01 X31.2033 Y35.6072
G01 X31.1979 Y35.5930
G01 X31.1912 Y35.5795
G01 X31.1834 Y35.5669
G01 X31.1745 Y35.5551
G01 X31.1646 Y35.5443
G01 X30.7312 Y35.1107
G01 X30.7269 Y35.1056
G01 X30.7218 Y35.0984
G01 X30.7175 Y35.0907
G01 X30.7139 Y35.0826
G01 X30.7111 Y35.0742
G01 X30.7092 Y35.0656
G01 X30.7083 Y35.0590
G01 X30.7079 Y35.0502
G01 X30.7088 Y35.0370
G01 X30.7106 Y35.0284
G01 X30.7124 Y35.0220
G01 X30.7147 Y35.0158
G01 X30.7185 Y35.0078
G01 X30.7230 Y35.0002
G01 X30.7269 Y34.9949
G01 X30.7358 Y34.9850
G01 X30.7425 Y34.9793
G01 X30.7479 Y34.9754
G01 X30.7554 Y34.9709
G01 X30.7614 Y34.9679
G01 X30.7696 Y34.9648
G01 X30.7760 Y34.9629
G01 X30.7869 Y34.9609
G01 X30.7979 Y34.9602
G01 X31.1222 Y34.9602
G01 X31.1384 Y34.9594
G01 X31.1539 Y34.9571
G01 X31.1682 Y34.9536
G01 X31.1840 Y34.9480
G01 X31.1991 Y34.9408
G01 X31.2116 Y34.9332
G01 X31.2241 Y34.9240
G01 X31.2359 Y34.9133
G01 X31.2471 Y34.9009
G01 X31.2558 Y34.8891
G01 X31.2634 Y34.8765
G01 X31.2706 Y34.8614
G01 X31.2762 Y34.8456
G01 X31.2797 Y34.8314
G01 X31.2819 Y34.8169
G01 X31.2828 Y34.8001
G01 X31.2820 Y34.7845
G01 X31.2795 Y34.7679
G01 X31.2759 Y34.7537
G01 X31.2710 Y34.7399
G01 X31.2639 Y34.7247
G01 X31.2558 Y34.7112
G01 X31.2464 Y34.6986
G01 X31.2351 Y34.6862
G01 X31.2243 Y34.6764
G01 X31.2125 Y34.6677
G01 X31.1984 Y34.6591
G01 X31.1840 Y34.6523
G01 X31.1682 Y34.6467
G01 X31.1539 Y34.6432
G01 X31.1394 Y34.6410
G01 X31.1230 Y34.6401
G01 X30.1947 Y34.6401
G01 X30.1795 Y34.6408
G01 X30.1629 Y34.6432
G01 X30.1467 Y34.6473
G01 X30.1329 Y34.6523
G01 X30.1196 Y34.6585
G01 X30.1052 Y34.6671
G01 X30.0926 Y34.6764
G01 X30.0802 Y34.6877
G01 X30.0704 Y34.6986
G01 X30.0616 Y34.7104
G01 X30.0531 Y34.7245
G01 X30.0459 Y34.7399
G01 X30.0410 Y34.7537
G01 X30.0371 Y34.7689
G01 X30.0348 Y34.7855
G01 X30.0341 Y34.8001
G01 X30.0348 Y34.8158
G01 X30.0374 Y34.8324
G01 X30.0410 Y34.8466
G01 X30.0463 Y34.8614
G01 X30.0535 Y34.8765
G01 X30.0610 Y34.8891
G01 X30.0702 Y34.9015
G01 X30.0813 Y34.9137
G01 X30.8994 Y35.7319
G01 X30.9049 Y35.7387
G01 X30.9098 Y35.7460
G01 X30.9140 Y35.7537
G01 X30.9174 Y35.7618
G01 X30.9587 Y35.8858
G01 X30.9609 Y35.8945
G01 X30.9622 Y35.9033
G01 X30.9626 Y35.9122
G01 X30.9626 Y35.9576
G01 X30.9617 Y35.9685
G01 X30.9594 Y35.9793
G01 X30.9567 Y35.9876
G01 X30.9531 Y35.9956
G01 X30.9252 Y36.0514
G01 X30.9181 Y36.0627
G01 X30.9109 Y36.0712
G01 X30.8938 Y36.0884
G01 X30.8870 Y36.0942
G01 X30.8778 Y36.1005
G01 X30.8142 Y36.1324
G01 X30.8039 Y36.1362
G01 X30.7911 Y36.1391
G01 X30.7780 Y36.1401
G01 X30.5389 Y36.1401
G01 X30.5301 Y36.1396
G01 X30.5214 Y36.1384
G01 X30.5108 Y36.1356
G01 X30.5006 Y36.1315
G01 X30.4449 Y36.1037
G01 X30.4352 Y36.0981
G01 X30.4298 Y36.0942
G01 X30.4231 Y36.0884
G01 X30.3791 Y36.0445
G01 X30.3671 Y36.0336
G01 X30.3545 Y36.0242
G01 X30.3419 Y36.0166
G01 X30.3258 Y36.0090
G01 X30.3120 Y36.0041
G01 X30.2958 Y36.0001
G01 X30.2813 Y35.9980
G01 X30.2666 Y35.9973
G01 X30.2509 Y35.9979
G01 X30.2343 Y36.0003
G01 X30.2191 Y36.0041
G01 X30.2043 Y36.0094
G01 X30.1892 Y36.0166
G01 X30.1766 Y36.0242
G01 X30.1648 Y36.0329
G01 X30.1524 Y36.0441
G01 X30.1412 Y36.0566
G01 X30.1325 Y36.0684
G01 X30.1244 Y36.0818
G01 X30.1177 Y36.0960
G01 X30.1127 Y36.1098
G01 X30.1086 Y36.1261
G01 X30.1062 Y36.1426
G01 X30.1055 Y36.1573
G01 X30.1063 Y36.1730
G01 X30.1088 Y36.1895
G01 X30.1124 Y36.2038
G01 X30.1173 Y36.2176
G01 X30.1244 Y36.2327
G01 X30.1326 Y36.2464
G01 X30.1418 Y36.2588
G01 X30.1522 Y36.2703
G01 X30.2234 Y36.3415
G00 Z3.0000
G00 X30.4595 Y34.9101
G01 F50.00
G01 Z-0.14900
G01 F400.00
G01 X30.4663 Y34.9101
G01 X30.4643 Y34.9149
G01 X30.4595 Y34.9101
G01 X30.2422 Y34.8201
G01 X30.6567 Y34.8201
G01 X30.6388 Y34.8321
G01 X30.6224 Y34.8451
G01 X30.6062 Y34.8601
G01 X30.5927 Y34.8747
G01 X30.5797 Y34.8912
G01 X30.5674 Y34.9095
G01 X30.5572 Y34.9278
G01 X30.5488 Y34.9459
G01 X30.5412 Y34.9666
G01 X30.5354 Y34.9868
G01 X30.5311 Y35.0084
G01 X30.5288 Y35.0282
G01 X30.5279 Y35.0491
G01 X30.5287 Y35.0712
G01 X30.5311 Y35.0920
G01 X30.5353 Y35.1131
G01 X30.2422 Y34.8201
G01 X30.1242 Y34.8001
G01 X30.1245 Y34.7933
G01 X30.1255 Y34.7865
G01 X30.1272 Y34.7798
G01 X30.1295 Y34.7734
G01 X30.1324 Y34.7672
G01 X30.1359 Y34.7613
G01 X30.1400 Y34.7558
G01 X30.1447 Y34.7507
G01 X30.1497 Y34.7461
G01 X30.1553 Y34.7420
G01 X30.1611 Y34.7384
G01 X30.1674 Y34.7355
G01 X30.1738 Y34.7332
G01 X30.1805 Y34.7315
G01 X30.1873 Y34.7305
G01 X30.1961 Y34.7301
G01 X31.1207 Y34.7301
G01 X31.1296 Y34.7305
G01 X31.1364 Y34.7315
G01 X31.1430 Y34.7332
G01 X31.1495 Y34.7355
G01 X31.1557 Y34.7384
G01 X31.1616 Y34.7420
G01 X31.1671 Y34.7461
G01 X31.1722 Y34.7507
G01 X31.1768 Y34.7558
G01 X31.1809 Y34.7613
G01 X31.1844 Y34.7672
G01 X31.1874 Y34.7734
G01 X31.1897 Y34.7798
G01 X31.1913 Y34.7865
G01 X31.1923 Y34.7933
G01 X31.1927 Y34.8001
G01 X31.1923 Y34.8070
G01 X31.1913 Y34.8138
G01 X31.1897 Y34.8205
G01 X31.1874 Y34.8269
G01 X31.1844 Y34.8331
G01 X31.1809 Y34.8390
G01 X31.1768 Y34.8445
G01 X31.1722 Y34.8496
G01 X31.1671 Y34.8542
G01 X31.1616 Y34.8583
G01 X31.1557 Y34.8619
G01 X31.1495 Y34.8648
G01 X31.1430 Y34.8671
G01 X31.1364 Y34.8688
G01 X31.1296 Y34.8698
G01 X31.1207 Y34.8702
G01 X30.7923 Y34.8703
G01 X30.7769 Y34.8714
G01 X30.7617 Y34.8739
G01 X30.7467 Y34.8777
G01 X30.7300 Y34.8835
G01 X30.7199 Y34.8880
G01 X30.7101 Y34.8931
G01 X30.7006 Y34.8987
G01 X30.6915 Y34.9050
G01 X30.6828 Y34.9118
G01 X30.6746 Y34.9191
G01 X30.6667 Y34.9269
G01 X30.6594 Y34.9352
G01 X30.6526 Y34.9439
G01 X30.6464 Y34.9530
G01 X30.6407 Y34.9625
G01 X30.6356 Y34.9723
G01 X30.6312 Y34.9824
G01 X30.6273 Y34.9927
G01 X30.6241 Y35.0033
G01 X30.6215 Y35.0140
G01 X30.6197 Y35.0249
G01 X30.6186 Y35.0337
G01 X30.6180 Y35.0425
G01 X30.6179 Y35.0535
G01 X30.6183 Y35.0624
G01 X30.6194 Y35.0734
G01 X30.6211 Y35.0843
G01 X30.6230 Y35.0929
G01 X30.6259 Y35.1035
G01 X30.6288 Y35.1119
G01 X30.6329 Y35.1222
G01 X30.6366 Y35.1302
G01 X30.6418 Y35.1399
G01 X30.6464 Y35.1475
G01 X30.6526 Y35.1566
G01 X30.6580 Y35.1636
G01 X30.6706 Y35.1775
G01 X31.0995 Y35.6064
G01 X31.1051 Y35.6126
G01 X31.1090 Y35.6178
G01 X31.1125 Y35.6233
G01 X31.1153 Y35.6291
G01 X31.1183 Y35.6369
G01 X31.1885 Y35.8474
G01 X31.1911 Y35.8567
G01 X31.1923 Y35.8641
G01 X31.1928 Y35.8737
G01 X31.1928 Y36.0126
G01 X31.1924 Y36.0209
G01 X31.1915 Y36.0273
G01 X31.1900 Y36.0337
G01 X31.1879 Y36.0398
G01 X31.1846 Y36.0474
G01 X31.1149 Y36.1867
G01 X31.1101 Y36.1951
G01 X31.1058 Y36.2012
G01 X31.0993 Y36.2084
G01 X31.0309 Y36.2768
G01 X31.0237 Y36.2832
G01 X31.0177 Y36.2876
G01 X31.0093 Y36.2924
G01 X30.8700 Y36.3620
G01 X30.8624 Y36.3654
G01 X30.8562 Y36.3674
G01 X30.8499 Y36.3689
G01 X30.8435 Y36.3698
G01 X30.8351 Y36.3702
G01 X30.4817 Y36.3702
G01 X30.4734 Y36.3698
G01 X30.4669 Y36.3689
G01 X30.4606 Y36.3674
G01 X30.4545 Y36.3654
G01 X30.4469 Y36.3620
G01 X30.3076 Y36.2924
G01 X30.2992 Y36.2876
G01 X30.2931 Y36.2832
G01 X30.2858 Y36.2766
G01 X30.2174 Y36.2082
G01 X30.2115 Y36.2017
G01 X30.2074 Y36.1962
G01 X30.2038 Y36.1903
G01 X30.2009 Y36.1841
G01 X30.1986 Y36.1776
G01 X30.1969 Y36.1709
G01 X30.1959 Y36.1642
G01 X30.1956 Y36.1573
G01 X30.1959 Y36.1504
G01 X30.1969 Y36.1436
G01 X30.1986 Y36.1370
G01 X30.2009 Y36.1305
G01 X30.2038 Y36.1243
G01 X30.2074 Y36.1184
G01 X30.2115 Y36.1129
G01 X30.2161 Y36.1078
G01 X30.2212 Y36.1032
G01 X30.2267 Y36.0991
G01 X30.2326 Y36.0956
G01 X30.2388 Y36.0926
G01 X30.2452 Y36.0903
G01 X30.2519 Y36.0887
G01 X30.2587 Y36.0876
G01 X30.2656 Y36.0873
G01 X30.2724 Y36.0876
G01 X30.2792 Y36.0887
G01 X30.2859 Y36.0903
G01 X30.2923 Y36.0926
G01 X30.2985 Y36.0956
G01 X30.3044 Y36.0991
G01 X30.3100 Y36.1032
G01 X30.3165 Y36.1091
G01 X30.3651 Y36.1574
G01 X30.3772 Y36.1672
G01 X30.3920 Y36.1772
G01 X30.4036 Y36.1837
G01 X30.4633 Y36.2134
G01 X30.4796 Y36.2200
G01 X30.4965 Y36.2250
G01 X30.5072 Y36.2273
G01 X30.5159 Y36.2286
G01 X30.5268 Y36.2297
G01 X30.5356 Y36.2300
G01 X30.7813 Y36.2300
G01 X30.7966 Y36.2291
G01 X30.8096 Y36.2273
G01 X30.8225 Y36.2245
G01 X30.8351 Y36.2207
G01 X30.8454 Y36.2169
G01 X30.8555 Y36.2125
G01 X30.9122 Y36.1842
G01 X30.9230 Y36.1783
G01 X30.9342 Y36.1711
G01 X30.9432 Y36.1645
G01 X30.9517 Y36.1574
G01 X30.9730 Y36.1364
G01 X30.9843 Y36.1241
G01 X30.9950 Y36.1098
G01 X31.0009 Y36.1004
G01 X31.0052 Y36.0926
G01 X31.0351 Y36.0329
G01 X31.0411 Y36.0188
G01 X31.0459 Y36.0042
G01 X31.0498 Y35.9871
G01 X31.0512 Y35.9784
G01 X31.0522 Y35.9675
G01 X31.0526 Y35.9554
G01 X31.0523 Y35.9021
G01 X31.0516 Y35.8933
G01 X31.0501 Y35.8822
G01 X31.0479 Y35.8713
G01 X31.0451 Y35.8605
G01 X31.0016 Y35.7303
G01 X30.9957 Y35.7161
G01 X30.9875 Y35.7006
G01 X30.9791 Y35.6877
G01 X30.9697 Y35.6756
G01 X30.9600 Y35.6651
G01 X30.1460 Y34.8511
G01 X30.1400 Y34.8445
G01 X30.1359 Y34.8390
G01 X30.1324 Y34.8331
G01 X30.1295 Y34.8269
G01 X30.1272 Y34.8205
G01 X30.1255 Y34.8138
G01 X30.1245 Y34.8070
G01 X30.1242 Y34.8001
G00 Z3.0000
G00 X32.7669 Y35.6548
G01 F50.00
G01 Z-0.14900
G01 F400.00
G01 X32.7676 Y35.6656
G01 X32.7696 Y35.6767
G01 X32.8399 Y35.9579
G01 X32.8428 Y35.9673
G01 X32.8467 Y35.9763
G01 X32.9162 Y36.1153
G01 X32.9210 Y36.1237
G01 X32.9254 Y36.1298
G01 X32.9318 Y36.1369
G01 X33.0718 Y36.2770
G01 X33.0780 Y36.2826
G01 X33.0832 Y36.2865
G01 X33.0887 Y36.2899
G01 X33.0945 Y36.2928
G01 X33.1023 Y36.2958
G01 X33.3128 Y36.3659
G01 X33.3221 Y36.3685
G01 X33.3295 Y36.3697
G01 X33.3391 Y36.3702
G01 X33.4777 Y36.3702
G01 X33.4873 Y36.3697
G01 X33.4947 Y36.3685
G01 X33.5040 Y36.3659
G01 X33.7145 Y36.2958
G01 X33.7223 Y36.2928
G01 X33.7281 Y36.2899
G01 X33.7336 Y36.2865
G01 X33.7388 Y36.2826
G01 X33.7450 Y36.2770
G01 X33.8137 Y36.2082
G01 X33.8197 Y36.2017
G01 X33.8237 Y36.1962
G01 X33.8273 Y36.1903
G01 X33.8302 Y36.1841
G01 X33.8325 Y36.1776
G01 X33.8342 Y36.1709
G01 X33.8352 Y36.1641
G01 X33.8355 Y36.1573
G01 X33.8352 Y36.1504
G01 X33.8342 Y36.1436
G01 X33.8325 Y36.1370
G01 X33.8302 Y36.1305
G01 X33.8273 Y36.1243
G01 X33.8237 Y36.1184
G01 X33.8197 Y36.1129
G01 X33.8150 Y36.1078
G01 X33.8100 Y36.1032
G01 X33.8044 Y36.0991
G01 X33.7985 Y36.0956
G01 X33.7923 Y36.0926
G01 X33.7859 Y36.0903
G01 X33.7792 Y36.0887
G01 X33.7724 Y36.0876
G01 X33.7656 Y36.0873
G01 X33.7587 Y36.0876
G01 X33.7519 Y36.0887
G01 X33.7452 Y36.0903
G01 X33.7388 Y36.0926
G01 X33.7326 Y36.0956
G01 X33.7267 Y36.0991
G01 X33.7212 Y36.1032
G01 X33.7146 Y36.1091
G01 X33.6824 Y36.1412
G01 X33.6690 Y36.1526
G01 X33.6601 Y36.1591
G01 X33.6490 Y36.1661
G01 X33.6393 Y36.1713
G01 X33.6273 Y36.1767
G01 X33.6160 Y36.1809
G01 X33.4909 Y36.2225
G01 X33.4801 Y36.2254
G01 X33.4714 Y36.2272
G01 X33.4626 Y36.2286
G01 X33.4515 Y36.2297
G01 X33.4393 Y36.2301
G01 X33.3676 Y36.2298
G01 X33.3565 Y36.2288
G01 X33.3476 Y36.2276
G01 X33.3367 Y36.2254
G01 X33.3281 Y36.2231
G01 X33.2009 Y36.1809
G01 X33.1855 Y36.1750
G01 X33.1717 Y36.1682
G01 X33.1567 Y36.1591
G01 X33.1427 Y36.1485
G01 X33.1305 Y36.1374
G01 X33.0558 Y36.0626
G01 X33.0468 Y36.0527
G01 X33.0374 Y36.0402
G01 X33.0302 Y36.0290
G01 X33.0244 Y36.0182
G01 X32.9819 Y35.9333
G01 X32.9775 Y35.9233
G01 X32.9737 Y35.9130
G01 X32.9697 Y35.8994
G01 X32.9124 Y35.6702
G01 X32.9089 Y35.6518
G01 X32.9076 Y35.6408
G01 X32.9071 Y35.6276
G01 X32.9071 Y35.4738
G01 X32.9075 Y35.4617
G01 X32.9092 Y35.4463
G01 X32.9122 Y35.4312
G01 X32.9697 Y35.2009
G01 X32.9752 Y35.1832
G01 X32.9792 Y35.1730
G01 X32.9829 Y35.1651
G01 X33.0269 Y35.0771
G01 X33.0349 Y35.0637
G01 X33.0440 Y35.0511
G01 X33.0512 Y35.0426
G01 X33.0573 Y35.0361
G01 X33.1329 Y34.9606
G01 X33.1410 Y34.9532
G01 X33.1478 Y34.9477
G01 X33.1567 Y34.9412
G01 X33.1641 Y34.9365
G01 X33.1717 Y34.9321
G01 X33.1815 Y34.9271
G01 X33.1978 Y34.9205
G01 X33.3217 Y34.8791
G01 X33.3389 Y34.8744
G01 X33.3565 Y34.8715
G01 X33.3742 Y34.8703
G01 X33.4426 Y34.8703
G01 X33.4515 Y34.8706
G01 X33.4626 Y34.8717
G01 X33.4801 Y34.8749
G01 X33.4951 Y34.8791
G01 X33.6170 Y34.9197
G01 X33.6253 Y34.9228
G01 X33.6353 Y34.9271
G01 X33.6451 Y34.9321
G01 X33.6546 Y34.9376
G01 X33.6637 Y34.9437
G01 X33.6725 Y34.9504
G01 X33.6840 Y34.9606
G01 X33.7146 Y34.9912
G01 X33.7212 Y34.9971
G01 X33.7267 Y35.0012
G01 X33.7326 Y35.0047
G01 X33.7388 Y35.0077
G01 X33.7452 Y35.0100
G01 X33.7519 Y35.0116
G01 X33.7587 Y35.0126
G01 X33.7656 Y35.0130
G01 X33.7724 Y35.0126
G01 X33.7792 Y35.0116
G01 X33.7859 Y35.0100
G01 X33.7923 Y35.0077
G01 X33.7985 Y35.0047
G01 X33.8044 Y35.0012
G01 X33.8100 Y34.9971
G01 X33.8150 Y34.9925
G01 X33.8197 Y34.9874
G01 X33.8237 Y34.9819
G01 X33.8273 Y34.9760
G01 X33.8302 Y34.9698
G01 X33.8325 Y34.9633
G01 X33.8342 Y34.9567
G01 X33.8352 Y34.9499
G01 X33.8355 Y34.9430
G01 X33.8352 Y34.9361
G01 X33.8342 Y34.9294
G01 X33.8325 Y34.9227
G01 X33.8302 Y34.9162
G01 X33.8273 Y34.9100
G01 X33.8237 Y34.9041
G01 X33.8197 Y34.8986
G01 X33.8137 Y34.8921
G01 X33.7451 Y34.8235
G01 X33.7388 Y34.8177
G01 X33.7336 Y34.8138
G01 X33.7281 Y34.8104
G01 X33.7223 Y34.8075
G01 X33.7145 Y34.8045
G01 X33.5040 Y34.7343
G01 X33.4947 Y34.7318
G01 X33.4873 Y34.7306
G01 X33.4777 Y34.7301
G01 X33.3391 Y34.7301
G01 X33.3295 Y34.7306
G01 X33.3221 Y34.7318
G01 X33.3128 Y34.7343
G01 X33.1023 Y34.8045
G01 X33.0945 Y34.8075
G01 X33.0887 Y34.8104
G01 X33.0832 Y34.8138
G01 X33.0780 Y34.8177
G01 X33.0718 Y34.8233
G01 X32.9318 Y34.9634
G01 X32.9254 Y34.9705
G01 X32.9210 Y34.9766
G01 X32.9162 Y34.9850
G01 X32.8467 Y35.1240
G01 X32.8428 Y35.1330
G01 X32.8399 Y35.1424
G01 X32.7696 Y35.4236
G01 X32.7676 Y35.4343
G01 X32.7669 Y35.4455
G01 X32.7669 Y35.6548
G00 Z3.0000
G00 X33.8077 Y34.7588
G01 F50.00
G01 Z-0.14900
G01 F400.00
G01 X33.7964 Y34.7484
G01 X33.7845 Y34.7395
G01 X33.7719 Y34.7317
G01 X33.7577 Y34.7247
G01 X33.7443 Y34.7196
G01 X33.5310 Y34.6485
G01 X33.5139 Y34.6437
G01 X33.4970 Y34.6410
G01 X33.4801 Y34.6401
G01 X33.3367 Y34.6401
G01 X33.3199 Y34.6410
G01 X33.3040 Y34.6435
G01 X33.2866 Y34.6482
G01 X33.0712 Y34.7201
G01 X33.0582 Y34.7251
G01 X33.0450 Y34.7317
G01 X33.0323 Y34.7395
G01 X33.0205 Y34.7484
G01 X33.0091 Y34.7588
G01 X32.8671 Y34.9008
G01 X32.8550 Y34.9142
G01 X32.8452 Y34.9279
G01 X32.8368 Y34.9426
G01 X32.7651 Y35.0860
G01 X32.7583 Y35.1018
G01 X32.7530 Y35.1191
G01 X32.6819 Y35.4035
G01 X32.6781 Y35.4233
G01 X32.6769 Y35.4437
G01 X32.6769 Y35.6566
G01 X32.6781 Y35.6767
G01 X32.6816 Y35.6958
G01 X32.7530 Y35.9812
G01 X32.7582 Y35.9983
G01 X32.7655 Y36.0151
G01 X32.8372 Y36.1584
G01 X32.8452 Y36.1724
G01 X32.8545 Y36.1854
G01 X32.8665 Y36.1989
G01 X33.0091 Y36.3415
G01 X33.0205 Y36.3519
G01 X33.0323 Y36.3608
G01 X33.0450 Y36.3686
G01 X33.0580 Y36.3751
G01 X33.0726 Y36.3807
G01 X33.2858 Y36.4518
G01 X33.3032 Y36.4566
G01 X33.3199 Y36.4593
G01 X33.3376 Y36.4602
G01 X33.4801 Y36.4602
G01 X33.4970 Y36.4593
G01 X33.5137 Y36.4566
G01 X33.5310 Y36.4518
G01 X33.7443 Y36.3807
G01 X33.7586 Y36.3752
G01 X33.7721 Y36.3685
G01 X33.7853 Y36.3603
G01 X33.7964 Y36.3519
G01 X33.8066 Y36.3426
G01 X33.8789 Y36.2703
G01 X33.8893 Y36.2588
G01 X33.8987 Y36.2462
G01 X33.9067 Y36.2327
G01 X33.9130 Y36.2195
G01 X33.9187 Y36.2038
G01 X33.9226 Y36.1885
G01 X33.9249 Y36.1730
G01 X33.9256 Y36.1562
G01 X33.9249 Y36.1416
G01 X33.9227 Y36.1271
G01 X33.9190 Y36.1118
G01 X33.9134 Y36.0960
G01 X33.9067 Y36.0818
G01 X33.8987 Y36.0684
G01 X33.8893 Y36.0557
G01 X33.8787 Y36.0441
G01 X33.8663 Y36.0329
G01 X33.8545 Y36.0242
G01 X33.8419 Y36.0166
G01 X33.8278 Y36.0098
G01 X33.8120 Y36.0041
G01 X33.7968 Y36.0003
G01 X33.7813 Y35.9980
G01 X33.7666 Y35.9973
G01 X33.7499 Y35.9980
G01 X33.7343 Y36.0003
G01 X33.7201 Y36.0038
G01 X33.7043 Y36.0094
G01 X33.6892 Y36.0166
G01 X33.6766 Y36.0242
G01 X33.6642 Y36.0334
G01 X33.6526 Y36.0439
G01 X33.6179 Y36.0783
G01 X33.6091 Y36.0849
G01 X33.5997 Y36.0905
G01 X33.5875 Y36.0955
G01 X33.4677 Y36.1355
G01 X33.4591 Y36.1378
G01 X33.4526 Y36.1391
G01 X33.4415 Y36.1400
G01 X33.3753 Y36.1400
G01 X33.3665 Y36.1394
G01 X33.3577 Y36.1378
G01 X33.3491 Y36.1355
G01 X33.2273 Y36.0948
G01 X33.2172 Y36.0905
G01 X33.2095 Y36.0861
G01 X33.2007 Y36.0797
G01 X33.1942 Y36.0738
G01 X33.1217 Y36.0014
G01 X33.1144 Y35.9930
G01 X33.1092 Y35.9857
G01 X33.1059 Y35.9800
G01 X33.0629 Y35.8940
G01 X33.0596 Y35.8859
G01 X33.0571 Y35.8775
G01 X32.9998 Y35.6483
G01 X32.9984 Y35.6419
G01 X32.9973 Y35.6331
G01 X32.9971 Y35.4738
G01 X32.9975 Y35.4650
G01 X32.9992 Y35.4541
G01 X33.0589 Y35.2164
G01 X33.0639 Y35.2043
G01 X33.1059 Y35.1203
G01 X33.1117 Y35.1109
G01 X33.1187 Y35.1022
G01 X33.1957 Y35.0250
G01 X33.2041 Y35.0179
G01 X33.2133 Y35.0119
G01 X33.2211 Y35.0079
G01 X33.2293 Y35.0048
G01 X33.3512 Y34.9642
G01 X33.3621 Y34.9616
G01 X33.3753 Y34.9603
G01 X33.4415 Y34.9603
G01 X33.4482 Y34.9607
G01 X33.4570 Y34.9620
G01 X33.4677 Y34.9648
G01 X33.5916 Y35.0063
G01 X33.6035 Y35.0119
G01 X33.6091 Y35.0154
G01 X33.6162 Y35.0206
G01 X33.6227 Y35.0265
G01 X33.6531 Y35.0569
G01 X33.6640 Y35.0667
G01 X33.6764 Y35.0760
G01 X33.6901 Y35.0842
G01 X33.7034 Y35.0905
G01 X33.7193 Y35.0962
G01 X33.7343 Y35.1000
G01 X33.7499 Y35.1023
G01 X33.7656 Y35.1031
G01 X33.7813 Y35.1023
G01 X33.7968 Y35.1000
G01 X33.8120 Y35.0962
G01 X33.8268 Y35.0909
G01 X33.8408 Y35.0843
G01 X33.8553 Y35.0755
G01 X33.8671 Y35.0667
G01 X33.8787 Y35.0562
G01 X33.8893 Y35.0446
G01 X33.8980 Y35.0328
G01 X33.9067 Y35.0185
G01 X33.9138 Y35.0033
G01 X33.9187 Y34.9895
G01 X33.9226 Y34.9742
G01 X33.9249 Y34.9587
G01 X33.9256 Y34.9440
G01 X33.9249 Y34.9273
G01 X33.9223 Y34.9108
G01 X33.9187 Y34.8965
G01 X33.9138 Y34.8827
G01 X33.9067 Y34.8675
G01 X33.8985 Y34.8539
G01 X33.8893 Y34.8415
G01 X33.8789 Y34.8300
G01 X33.8077 Y34.7588
G00 Z3.0000
G00 X34.8850 Y35.5055
G01 F50.00
G01 Z-0.14900
G01 F400.00
G01 X34.8958 Y35.4998
G01 X34.9078 Y35.4942
G01 X34.9200 Y35.4893
G01 X34.9325 Y35.4849
G01 X34.9452 Y35.4811
G01 X34.9516 Y35.4795
G01 X34.9548 Y35.4787
G01 X34.9559 Y35.4785
G01 X34.9581 Y35.4780
G01 X34.9711 Y35.4755
G01 X34.9820 Y35.4739
G01 X34.9952 Y35.4726
G01 X35.0084 Y35.4719
G01 X35.0216 Y35.4719
G01 X35.0337 Y35.4724
G01 X35.0469 Y35.4737
G01 X35.0578 Y35.4752
G01 X35.0708 Y35.4776
G01 X35.0837 Y35.4806
G01 X35.0954 Y35.4839
G01 X35.1079 Y35.4881
G01 X35.1202 Y35.4930
G01 X35.1323 Y35.4984
G01 X35.1422 Y35.5034
G01 X35.1537 Y35.5099
G01 X35.1649 Y35.5169
G01 X35.1757 Y35.5245
G01 X35.1862 Y35.5326
G01 X35.1962 Y35.5412
G01 X35.2058 Y35.5503
G01 X35.2142 Y35.5591
G01 X35.2230 Y35.5690
G01 X35.2312 Y35.5794
G01 X35.2389 Y35.5902
G01 X35.2456 Y35.6007
G01 X35.2456 Y34.8752
G01 X34.8929 Y35.4924
G01 X34.8850 Y35.5055
G01 X35.0583 Y35.3844
G01 X35.0837 Y35.3883
G01 X35.1090 Y35.3942
G01 X35.1322 Y35.4013
G01 X35.1556 Y35.4102
G01 X35.1556 Y35.2141
G01 X35.0583 Y35.3844
G01 X34.5183 Y35.8862
G01 X34.6157 Y35.7159
G01 X34.5903 Y35.7119
G01 X34.5650 Y35.7061
G01 X34.5418 Y35.6990
G01 X34.5183 Y35.6901
G01 X34.5183 Y35.8862
G01 X34.4283 Y36.2251
G01 X34.7811 Y35.6079
G01 X34.7890 Y35.5948
G01 X34.7782 Y35.6005
G01 X34.7662 Y35.6061
G01 X34.7539 Y35.6110
G01 X34.7415 Y35.6154
G01 X34.7288 Y35.6192
G01 X34.7159 Y35.6223
G01 X34.7029 Y35.6248
G01 X34.6920 Y35.6264
G01 X34.6788 Y35.6277
G01 X34.6656 Y35.6284
G01 X34.6524 Y35.6284
G01 X34.6403 Y35.6279
G01 X34.6271 Y35.6266
G01 X34.6162 Y35.6251
G01 X34.6031 Y35.6227
G01 X34.5903 Y35.6197
G01 X34.5786 Y35.6164
G01 X34.5661 Y35.6122
G01 X34.5537 Y35.6073
G01 X34.5417 Y35.6019
G01 X34.5318 Y35.5969
G01 X34.5203 Y35.5904
G01 X34.5091 Y35.5834
G01 X34.4983 Y35.5758
G01 X34.4878 Y35.5677
G01 X34.4778 Y35.5591
G01 X34.4681 Y35.5500
G01 X34.4597 Y35.5412
G01 X34.4510 Y35.5313
G01 X34.4428 Y35.5209
G01 X34.4351 Y35.5101
G01 X34.4283 Y35.4996
G01 X34.4283 Y36.2251
G01 X34.3383 Y36.2980
G01 X34.3388 Y36.3070
G01 X34.3398 Y36.3137
G01 X34.3414 Y36.3203
G01 X34.3437 Y36.3267
G01 X34.3465 Y36.3328
G01 X34.3500 Y36.3387
G01 X34.3540 Y36.3441
G01 X34.3585 Y36.3492
G01 X34.3635 Y36.3538
G01 X34.3689 Y36.3579
G01 X34.3747 Y36.3615
G01 X34.3808 Y36.3645
G01 X34.3872 Y36.3668
G01 X34.3938 Y36.3686
G01 X34.4005 Y36.3697
G01 X34.4072 Y36.3701
G01 X34.4140 Y36.3699
G01 X34.4208 Y36.3690
G01 X34.4274 Y36.3675
G01 X34.4338 Y36.3653
G01 X34.4400 Y36.3626
G01 X34.4459 Y36.3592
G01 X34.4515 Y36.3553
G01 X34.4566 Y36.3509
G01 X34.4613 Y36.3459
G01 X34.4655 Y36.3406
G01 X34.4702 Y36.3332
G01 X34.8592 Y35.6525
G01 X34.8668 Y35.6404
G01 X34.8747 Y35.6297
G01 X34.8863 Y35.6165
G01 X34.8926 Y35.6103
G01 X34.9009 Y35.6030
G01 X34.9096 Y35.5963
G01 X34.9169 Y35.5912
G01 X34.9244 Y35.5866
G01 X34.9340 Y35.5813
G01 X34.9440 Y35.5766
G01 X34.9522 Y35.5733
G01 X34.9626 Y35.5698
G01 X34.9711 Y35.5674
G01 X34.9797 Y35.5654
G01 X34.9906 Y35.5636
G01 X35.0016 Y35.5624
G01 X35.0104 Y35.5619
G01 X35.0236 Y35.5620
G01 X35.0368 Y35.5631
G01 X35.0499 Y35.5651
G01 X35.0649 Y35.5687
G01 X35.0775 Y35.5728
G01 X35.0897 Y35.5778
G01 X35.1035 Y35.5848
G01 X35.1148 Y35.5917
G01 X35.1255 Y35.5994
G01 X35.1373 Y35.6093
G01 X35.1467 Y35.6187
G01 X35.1554 Y35.6286
G01 X35.1634 Y35.6392
G01 X35.1705 Y35.6504
G01 X35.1768 Y35.6620
G01 X35.1822 Y35.6741
G01 X35.1874 Y35.6886
G01 X35.1918 Y35.7057
G01 X35.1945 Y35.7231
G01 X35.1955 Y35.7385
G01 X35.1955 Y36.2982
G01 X35.1959 Y36.3070
G01 X35.1969 Y36.3138
G01 X35.1986 Y36.3205
G01 X35.2009 Y36.3269
G01 X35.2038 Y36.3331
G01 X35.2074 Y36.3390
G01 X35.2115 Y36.3445
G01 X35.2161 Y36.3496
G01 X35.2212 Y36.3542
G01 X35.2267 Y36.3583
G01 X35.2326 Y36.3619
G01 X35.2388 Y36.3648
G01 X35.2452 Y36.3671
G01 X35.2519 Y36.3688
G01 X35.2587 Y36.3698
G01 X35.2656 Y36.3701
G01 X35.2724 Y36.3698
G01 X35.2792 Y36.3688
G01 X35.2859 Y36.3671
G01 X35.2923 Y36.3648
G01 X35.2985 Y36.3619
G01 X35.3044 Y36.3583
G01 X35.3100 Y36.3542
G01 X35.3150 Y36.3496
G01 X35.3197 Y36.3445
G01 X35.3237 Y36.3390
G01 X35.3273 Y36.3331
G01 X35.3302 Y36.3269
G01 X35.3325 Y36.3205
G01 X35.3342 Y36.3138
G01 X35.3352 Y36.3070
G01 X35.3356 Y36.2982
G01 X35.3356 Y34.8021
G01 X35.3352 Y34.7934
G01 X35.3342 Y34.7866
G01 X35.3326 Y34.7800
G01 X35.3303 Y34.7736
G01 X35.3275 Y34.7675
G01 X35.3240 Y34.7616
G01 X35.3200 Y34.7562
G01 X35.3155 Y34.7511
G01 X35.3105 Y34.7465
G01 X35.3050 Y34.7424
G01 X35.2993 Y34.7388
G01 X35.2932 Y34.7358
G01 X35.2868 Y34.7335
G01 X35.2802 Y34.7317
G01 X35.2735 Y34.7306
G01 X35.2667 Y34.7302
G01 X35.2599 Y34.7304
G01 X35.2532 Y34.7313
G01 X35.2466 Y34.7328
G01 X35.2401 Y34.7349
G01 X35.2339 Y34.7377
G01 X35.2280 Y34.7411
G01 X35.2225 Y34.7450
G01 X35.2173 Y34.7494
G01 X35.2126 Y34.7544
G01 X35.2085 Y34.7597
G01 X35.2038 Y34.7671
G01 X34.8148 Y35.4478
G01 X34.8046 Y35.4635
G01 X34.7979 Y35.4723
G01 X34.7907 Y35.4806
G01 X34.7814 Y35.4900
G01 X34.7731 Y35.4973
G01 X34.7644 Y35.5040
G01 X34.7553 Y35.5102
G01 X34.7458 Y35.5159
G01 X34.7360 Y35.5209
G01 X34.7259 Y35.5254
G01 X34.7155 Y35.5292
G01 X34.7050 Y35.5324
G01 X34.6942 Y35.5349
G01 X34.6834 Y35.5367
G01 X34.6724 Y35.5379
G01 X34.6614 Y35.5384
G01 X34.6482 Y35.5382
G01 X34.6350 Y35.5369
G01 X34.6220 Y35.5347
G01 X34.6091 Y35.5316
G01 X34.5965 Y35.5275
G01 X34.5843 Y35.5225
G01 X34.5724 Y35.5166
G01 X34.5611 Y35.5098
G01 X34.5502 Y35.5022
G01 X34.5399 Y35.4939
G01 X34.5303 Y35.4848
G01 X34.5214 Y35.4751
G01 X34.5132 Y35.4647
G01 X34.5058 Y35.4537
G01 X34.4992 Y35.4422
G01 X34.4935 Y35.4303
G01 X34.4886 Y35.4180
G01 X34.4847 Y35.4054
G01 X34.4813 Y35.3903
G01 X34.4793 Y35.3750
G01 X34.4785 Y35.3618
G01 X34.4785 Y34.8021
G01 X34.4781 Y34.7933
G01 X34.4771 Y34.7865
G01 X34.4754 Y34.7798
G01 X34.4731 Y34.7734
G01 X34.4701 Y34.7672
G01 X34.4666 Y34.7613
G01 X34.4625 Y34.7558
G01 X34.4579 Y34.7507
G01 X34.4528 Y34.7461
G01 X34.4473 Y34.7420
G01 X34.4414 Y34.7384
G01 X34.4352 Y34.7355
G01 X34.4287 Y34.7332
G01 X34.4221 Y34.7315
G01 X34.4153 Y34.7305
G01 X34.4084 Y34.7302
G01 X34.4016 Y34.7305
G01 X34.3948 Y34.7315
G01 X34.3881 Y34.7332
G01 X34.3816 Y34.7355
G01 X34.3754 Y34.7384
G01 X34.3695 Y34.7420
G01 X34.3640 Y34.7461
G01 X34.3589 Y34.7507
G01 X34.3543 Y34.7558
G01 X34.3502 Y34.7613
G01 X34.3467 Y34.7672
G01 X34.3438 Y34.7734
G01 X34.3415 Y34.7798
G01 X34.3398 Y34.7865
G01 X34.3388 Y34.7933
G01 X34.3383 Y34.8021
G01 X34.3383 Y36.2980
G01 X34.2483 Y36.2996
G01 X34.2492 Y36.3167
G01 X34.2514 Y36.3310
G01 X34.2548 Y36.3451
G01 X34.2603 Y36.3608
G01 X34.2674 Y36.3758
G01 X34.2748 Y36.3882
G01 X34.2833 Y36.4000
G01 X34.2943 Y36.4124
G01 X34.3065 Y36.4236
G01 X34.3181 Y36.4323
G01 X34.3311 Y36.4403
G01 X34.3453 Y36.4473
G01 X34.3589 Y36.4523
G01 X34.3759 Y36.4569
G01 X34.3902 Y36.4592
G01 X34.4057 Y36.4602
G01 X34.4213 Y36.4597
G01 X34.4367 Y36.4577
G01 X34.4518 Y36.4542
G01 X34.4656 Y36.4496
G01 X34.4817 Y36.4424
G01 X34.4943 Y36.4353
G01 X34.5070 Y36.4263
G01 X34.5187 Y36.4161
G01 X34.5295 Y36.4049
G01 X34.5390 Y36.3927
G01 X34.5477 Y36.3791
G01 X34.9396 Y35.6934
G01 X34.9447 Y35.6862
G01 X34.9521 Y35.6780
G01 X34.9603 Y35.6707
G01 X34.9694 Y35.6645
G01 X34.9792 Y35.6594
G01 X34.9896 Y35.6556
G01 X35.0003 Y35.6531
G01 X35.0113 Y35.6519
G01 X35.0179 Y35.6519
G01 X35.0267 Y35.6525
G01 X35.0354 Y35.6540
G01 X35.0439 Y35.6564
G01 X35.0521 Y35.6596
G01 X35.0600 Y35.6636
G01 X35.0656 Y35.6671
G01 X35.0727 Y35.6723
G01 X35.0792 Y35.6783
G01 X35.0837 Y35.6831
G01 X35.0891 Y35.6901
G01 X35.0938 Y35.6975
G01 X35.0978 Y35.7054
G01 X35.1010 Y35.7136
G01 X35.1028 Y35.7200
G01 X35.1045 Y35.7286
G01 X35.1055 Y35.7418
G01 X35.1055 Y36.3004
G01 X35.1064 Y36.3169
G01 X35.1086 Y36.3314
G01 X35.1121 Y36.3456
G01 X35.1177 Y36.3614
G01 X35.1244 Y36.3756
G01 X35.1331 Y36.3899
G01 X35.1418 Y36.4017
G01 X35.1517 Y36.4126
G01 X35.1640 Y36.4239
G01 X35.1766 Y36.4332
G01 X35.1910 Y36.4418
G01 X35.2043 Y36.4480
G01 X35.2181 Y36.4530
G01 X35.2343 Y36.4571
G01 X35.2509 Y36.4595
G01 X35.2656 Y36.4602
G01 X35.2802 Y36.4595
G01 X35.2968 Y36.4571
G01 X35.3130 Y36.4530
G01 X35.3268 Y36.4480
G01 X35.3401 Y36.4418
G01 X35.3545 Y36.4332
G01 X35.3679 Y36.4232
G01 X35.3787 Y36.4133
G01 X35.3886 Y36.4025
G01 X35.3987 Y36.3891
G01 X35.4072 Y36.3747
G01 X35.4134 Y36.3614
G01 X35.4187 Y36.3466
G01 X35.4227 Y36.3303
G01 X35.4249 Y36.3158
G01 X35.4256 Y36.3004
G01 X35.4256 Y34.8007
G01 X35.4247 Y34.7836
G01 X35.4226 Y34.7692
G01 X35.4189 Y34.7542
G01 X35.4133 Y34.7386
G01 X35.4071 Y34.7254
G01 X35.3998 Y34.7129
G01 X35.3894 Y34.6987
G01 X35.3797 Y34.6879
G01 X35.3690 Y34.6781
G01 X35.3559 Y34.6680
G01 X35.3417 Y34.6594
G01 X35.3287 Y34.6530
G01 X35.3151 Y34.6480
G01 X35.2991 Y34.6436
G01 X35.2827 Y34.6410
G01 X35.2682 Y34.6401
G01 X35.2527 Y34.6406
G01 X35.2373 Y34.6426
G01 X35.2232 Y34.6458
G01 X35.2074 Y34.6510
G01 X35.1932 Y34.6574
G01 X35.1806 Y34.6645
G01 X35.1668 Y34.6742
G01 X35.1553 Y34.6842
G01 X35.1445 Y34.6954
G01 X35.1349 Y34.7076
G01 X35.1267 Y34.7205
G01 X34.7331 Y35.4087
G01 X34.7250 Y35.4191
G01 X34.7171 Y35.4268
G01 X34.7064 Y35.4347
G01 X34.6967 Y35.4399
G01 X34.6844 Y35.4447
G01 X34.6715 Y35.4475
G01 X34.6583 Y35.4485
G01 X34.6473 Y35.4478
G01 X34.6386 Y35.4462
G01 X34.6322 Y35.4446
G01 X34.6260 Y35.4424
G01 X34.6179 Y35.4388
G01 X34.6121 Y35.4356
G01 X34.6048 Y35.4307
G01 X34.5948 Y35.4220
G01 X34.5903 Y35.4172
G01 X34.5849 Y35.4102
G01 X34.5813 Y35.4047
G01 X34.5771 Y35.3969
G01 X34.5737 Y35.3888
G01 X34.5717 Y35.3824
G01 X34.5692 Y35.3695
G01 X34.5685 Y35.3585
G01 X34.5685 Y34.7999
G01 X34.5677 Y34.7845
G01 X34.5654 Y34.7689
G01 X34.5616 Y34.7537
G01 X34.5563 Y34.7389
G01 X34.5496 Y34.7247
G01 X34.5409 Y34.7104
G01 X34.5322 Y34.6986
G01 X34.5223 Y34.6877
G01 X34.5108 Y34.6771
G01 X34.4973 Y34.6671
G01 X34.4839 Y34.6590
G01 X34.4697 Y34.6523
G01 X34.4549 Y34.6470
G01 X34.4396 Y34.6432
G01 X34.4241 Y34.6409
G01 X34.4084 Y34.6401
G01 X34.3917 Y34.6410
G01 X34.3762 Y34.6434
G01 X34.3620 Y34.6470
G01 X34.3481 Y34.6519
G01 X34.3330 Y34.6590
G01 X34.3195 Y34.6671
G01 X34.3061 Y34.6771
G01 X34.2952 Y34.6870
G01 X34.2854 Y34.6978
G01 X34.2753 Y34.7112
G01 X34.2673 Y34.7247
G01 X34.2605 Y34.7389
G01 X34.2550 Y34.7547
G01 X34.2514 Y34.7689
G01 X34.2493 Y34.7834
G01 X34.2484 Y34.7991
G01 X34.2483 Y36.2996
G00 Z3.0000
G00 X35.8383 Y35.6548
G01 F50.00
G01 Z-0.14900
G01 F400.00
G01 X35.8390 Y35.6656
G01 X35.8410 Y35.6767
G01 X35.9113 Y35.9579
G01 X35.9142 Y35.9673
G01 X35.9181 Y35.9763
G01 X35.9876 Y36.1153
G01 X35.9924 Y36.1237
G01 X35.9968 Y36.1298
G01 X36.0032 Y36.1369
G01 X36.1433 Y36.2770
G01 X36.1494 Y36.2826
G01 X36.1546 Y36.2865
G01 X36.1601 Y36.2899
G01 X36.1659 Y36.2928
G01 X36.1737 Y36.2958
G01 X36.3842 Y36.3659
G01 X36.3935 Y36.3685
G01 X36.4009 Y36.3697
G01 X36.4106 Y36.3702
G01 X36.5491 Y36.3702
G01 X36.5588 Y36.3697
G01 X36.5662 Y36.3685
G01 X36.5755 Y36.3659
G01 X36.7860 Y36.2958
G01 X36.7937 Y36.2928
G01 X36.7996 Y36.2899
G01 X36.8051 Y36.2865
G01 X36.8103 Y36.2826
G01 X36.8164 Y36.2770
G01 X36.8852 Y36.2082
G01 X36.8911 Y36.2017
G01 X36.8952 Y36.1962
G01 X36.8987 Y36.1903
G01 X36.9016 Y36.1841
G01 X36.9040 Y36.1776
G01 X36.9056 Y36.1709
G01 X36.9066 Y36.1642
G01 X36.9070 Y36.1573
G01 X36.9066 Y36.1504
G01 X36.9056 Y36.1436
G01 X36.9040 Y36.1370
G01 X36.9016 Y36.1305
G01 X36.8987 Y36.1243
G01 X36.8952 Y36.1184
G01 X36.8911 Y36.1129
G01 X36.8865 Y36.1078
G01 X36.8814 Y36.1032
G01 X36.8759 Y36.0991
G01 X36.8700 Y36.0956
G01 X36.8638 Y36.0926
G01 X36.8573 Y36.0903
G01 X36.8506 Y36.0887
G01 X36.8439 Y36.0876
G01 X36.8370 Y36.0873
G01 X36.8301 Y36.0876
G01 X36.8233 Y36.0887
G01 X36.8167 Y36.0903
G01 X36.8102 Y36.0926
G01 X36.8040 Y36.0956
G01 X36.7981 Y36.0991
G01 X36.7926 Y36.1032
G01 X36.7861 Y36.1091
G01 X36.7538 Y36.1412
G01 X36.7404 Y36.1526
G01 X36.7316 Y36.1591
G01 X36.7204 Y36.1661
G01 X36.7107 Y36.1713
G01 X36.6987 Y36.1767
G01 X36.6874 Y36.1809
G01 X36.5623 Y36.2225
G01 X36.5537 Y36.2249
G01 X36.5428 Y36.2272
G01 X36.5340 Y36.2286
G01 X36.5229 Y36.2297
G01 X36.5107 Y36.2301
G01 X36.4390 Y36.2298
G01 X36.4279 Y36.2288
G01 X36.4191 Y36.2276
G01 X36.4103 Y36.2259
G01 X36.3995 Y36.2231
G01 X36.2723 Y36.1809
G01 X36.2569 Y36.1750
G01 X36.2412 Y36.1672
G01 X36.2281 Y36.1591
G01 X36.2141 Y36.1485
G01 X36.2019 Y36.1374
G01 X36.1272 Y36.0626
G01 X36.1169 Y36.0509
G01 X36.1089 Y36.0402
G01 X36.1017 Y36.0290
G01 X36.0958 Y36.0182
G01 X36.0534 Y35.9333
G01 X36.0490 Y35.9233
G01 X36.0452 Y35.9130
G01 X36.0412 Y35.8994
G01 X35.9839 Y35.6702
G01 X35.9803 Y35.6518
G01 X35.9789 Y35.6386
G01 X35.9785 Y35.6276
G01 X35.9785 Y35.4738
G01 X35.9789 Y35.4617
G01 X35.9806 Y35.4463
G01 X35.9836 Y35.4312
G01 X36.0412 Y35.2009
G01 X36.0466 Y35.1832
G01 X36.0506 Y35.1730
G01 X36.0543 Y35.1651
G01 X36.0984 Y35.0771
G01 X36.1064 Y35.0637
G01 X36.1155 Y35.0511
G01 X36.1212 Y35.0442
G01 X36.1287 Y35.0361
G01 X36.2043 Y34.9606
G01 X36.2124 Y34.9532
G01 X36.2192 Y34.9477
G01 X36.2263 Y34.9425
G01 X36.2355 Y34.9365
G01 X36.2451 Y34.9310
G01 X36.2529 Y34.9271
G01 X36.2692 Y34.9205
G01 X36.3931 Y34.8791
G01 X36.4103 Y34.8744
G01 X36.4279 Y34.8715
G01 X36.4457 Y34.8703
G01 X36.5140 Y34.8703
G01 X36.5252 Y34.8708
G01 X36.5340 Y34.8717
G01 X36.5494 Y34.8744
G01 X36.5666 Y34.8791
G01 X36.6884 Y34.9197
G01 X36.6987 Y34.9236
G01 X36.7068 Y34.9271
G01 X36.7166 Y34.9321
G01 X36.7260 Y34.9376
G01 X36.7352 Y34.9437
G01 X36.7439 Y34.9504
G01 X36.7554 Y34.9606
G01 X36.7861 Y34.9912
G01 X36.7926 Y34.9971
G01 X36.7981 Y35.0012
G01 X36.8040 Y35.0047
G01 X36.8102 Y35.0077
G01 X36.8167 Y35.0100
G01 X36.8233 Y35.0116
G01 X36.8301 Y35.0126
G01 X36.8370 Y35.0130
G01 X36.8439 Y35.0126
G01 X36.8506 Y35.0116
G01 X36.8573 Y35.0100
G01 X36.8638 Y35.0077
G01 X36.8700 Y35.0047
G01 X36.8759 Y35.0012
G01 X36.8814 Y34.9971
G01 X36.8865 Y34.9925
G01 X36.8911 Y34.9874
G01 X36.8952 Y34.9819
G01 X36.8987 Y34.9760
G01 X36.9016 Y34.9698
G01 X36.9040 Y34.9633
G01 X36.9056 Y34.9567
G01 X36.9066 Y34.9499
G01 X36.9070 Y34.9430
G01 X36.9066 Y34.9361
G01 X36.9056 Y34.9294
G01 X36.9040 Y34.9227
G01 X36.9016 Y34.9162
G01 X36.8987 Y34.9100
G01 X36.8952 Y34.9041
G01 X36.8911 Y34.8986
G01 X36.8852 Y34.8921
G01 X36.8165 Y34.8235
G01 X36.8102 Y34.8177
G01 X36.8051 Y34.8138
G01 X36.7996 Y34.8104
G01 X36.7937 Y34.8075
G01 X36.7860 Y34.8045
G01 X36.5755 Y34.7343
G01 X36.5662 Y34.7318
G01 X36.5588 Y34.7306
G01 X36.5491 Y34.7301
G01 X36.4106 Y34.7301
G01 X36.4009 Y34.7306
G01 X36.3935 Y34.7318
G01 X36.3842 Y34.7343
G01 X36.1737 Y34.8045
G01 X36.1659 Y34.8075
G01 X36.1601 Y34.8104
G01 X36.1546 Y34.8138
G01 X36.1494 Y34.8177
G01 X36.1433 Y34.8233
G01 X36.0032 Y34.9634
G01 X35.9968 Y34.9705
G01 X35.9924 Y34.9766
G01 X35.9876 Y34.9850
G01 X35.9181 Y35.1240
G01 X35.9142 Y35.1330
G01 X35.9113 Y35.1424
G01 X35.8410 Y35.4236
G01 X35.8391 Y35.4343
G01 X35.8383 Y35.4455
G01 X35.8383 Y35.6548
G00 Z3.0000
G00 X36.8791 Y34.7588
G01 F50.00
G01 Z-0.14900
G01 F400.00
G01 X36.8678 Y34.7484
G01 X36.8559 Y34.7395
G01 X36.8433 Y34.7317
G01 X36.8291 Y34.7247
G01 X36.8157 Y34.7196
G01 X36.6025 Y34.6485
G01 X36.5853 Y34.6437
G01 X36.5684 Y34.6410
G01 X36.5515 Y34.6401
G01 X36.4082 Y34.6401
G01 X36.3913 Y34.6410
G01 X36.3755 Y34.6435
G01 X36.3581 Y34.6482
G01 X36.1426 Y34.7201
G01 X36.1297 Y34.7251
G01 X36.1164 Y34.7317
G01 X36.1038 Y34.7395
G01 X36.0919 Y34.7484
G01 X36.0806 Y34.7588
G01 X35.9385 Y34.9008
G01 X35.9265 Y34.9142
G01 X35.9166 Y34.9279
G01 X35.9082 Y34.9426
G01 X35.8366 Y35.0860
G01 X35.8297 Y35.1018
G01 X35.8244 Y35.1191
G01 X35.7533 Y35.4035
G01 X35.7496 Y35.4233
G01 X35.7483 Y35.4437
G01 X35.7483 Y35.6566
G01 X35.7495 Y35.6767
G01 X35.7531 Y35.6958
G01 X35.8244 Y35.9812
G01 X35.8296 Y35.9983
G01 X35.8369 Y36.0151
G01 X35.9087 Y36.1584
G01 X35.9166 Y36.1724
G01 X35.9259 Y36.1854
G01 X35.9379 Y36.1989
G01 X36.0806 Y36.3415
G01 X36.0919 Y36.3519
G01 X36.1038 Y36.3608
G01 X36.1164 Y36.3686
G01 X36.1295 Y36.3751
G01 X36.1440 Y36.3807
G01 X36.3572 Y36.4518
G01 X36.3746 Y36.4566
G01 X36.3913 Y36.4593
G01 X36.4082 Y36.4602
G01 X36.5507 Y36.4602
G01 X36.5684 Y36.4593
G01 X36.5851 Y36.4566
G01 X36.6025 Y36.4518
G01 X36.8157 Y36.3807
G01 X36.8300 Y36.3752
G01 X36.8435 Y36.3685
G01 X36.8567 Y36.3603
G01 X36.8678 Y36.3519
G01 X36.8780 Y36.3426
G01 X36.9503 Y36.2703
G01 X36.9607 Y36.2588
G01 X36.9701 Y36.2462
G01 X36.9782 Y36.2327
G01 X36.9844 Y36.2195
G01 X36.9902 Y36.2038
G01 X36.9940 Y36.1885
G01 X36.9963 Y36.1730
G01 X36.9970 Y36.1562
G01 X36.9962 Y36.1406
G01 X36.9940 Y36.1261
G01 X36.9904 Y36.1118
G01 X36.9849 Y36.0960
G01 X36.9782 Y36.0818
G01 X36.9701 Y36.0684
G01 X36.9600 Y36.0550
G01 X36.9494 Y36.0434
G01 X36.9385 Y36.0336
G01 X36.9268 Y36.0248
G01 X36.9124 Y36.0161
G01 X36.8982 Y36.0094
G01 X36.8835 Y36.0041
G01 X36.8682 Y36.0003
G01 X36.8527 Y35.9980
G01 X36.8380 Y35.9973
G01 X36.8213 Y35.9980
G01 X36.8058 Y36.0003
G01 X36.7915 Y36.0038
G01 X36.7757 Y36.0094
G01 X36.7606 Y36.0166
G01 X36.7481 Y36.0242
G01 X36.7356 Y36.0334
G01 X36.7240 Y36.0439
G01 X36.6893 Y36.0783
G01 X36.6806 Y36.0849
G01 X36.6711 Y36.0905
G01 X36.6589 Y36.0955
G01 X36.5392 Y36.1355
G01 X36.5327 Y36.1373
G01 X36.5240 Y36.1391
G01 X36.5129 Y36.1400
G01 X36.4468 Y36.1400
G01 X36.4379 Y36.1394
G01 X36.4291 Y36.1378
G01 X36.4205 Y36.1355
G01 X36.2987 Y36.0948
G01 X36.2886 Y36.0905
G01 X36.2810 Y36.0861
G01 X36.2738 Y36.0811
G01 X36.2656 Y36.0738
G01 X36.1932 Y36.0014
G01 X36.1858 Y35.9930
G01 X36.1807 Y35.9857
G01 X36.1773 Y35.9800
G01 X36.1343 Y35.8940
G01 X36.1310 Y35.8859
G01 X36.1285 Y35.8775
G01 X36.0712 Y35.6483
G01 X36.0695 Y35.6397
G01 X36.0687 Y35.6331
G01 X36.0685 Y35.4738
G01 X36.0689 Y35.4650
G01 X36.0707 Y35.4541
G01 X36.1303 Y35.2164
G01 X36.1353 Y35.2043
G01 X36.1773 Y35.1203
G01 X36.1831 Y35.1109
G01 X36.1901 Y35.1022
G01 X36.2672 Y35.0250
G01 X36.2755 Y35.0179
G01 X36.2847 Y35.0119
G01 X36.2926 Y35.0079
G01 X36.3008 Y35.0048
G01 X36.4227 Y34.9642
G01 X36.4335 Y34.9616
G01 X36.4468 Y34.9603
G01 X36.5129 Y34.9603
G01 X36.5218 Y34.9609
G01 X36.5284 Y34.9620
G01 X36.5392 Y34.9648
G01 X36.6631 Y35.0063
G01 X36.6750 Y35.0119
G01 X36.6806 Y35.0154
G01 X36.6876 Y35.0206
G01 X36.6941 Y35.0265
G01 X36.7246 Y35.0569
G01 X36.7354 Y35.0667
G01 X36.7479 Y35.0760
G01 X36.7615 Y35.0842
G01 X36.7748 Y35.0905
G01 X36.7908 Y35.0962
G01 X36.8058 Y35.1000
G01 X36.8213 Y35.1023
G01 X36.8370 Y35.1031
G01 X36.8527 Y35.1023
G01 X36.8682 Y35.1000
G01 X36.8835 Y35.0962
G01 X36.8982 Y35.0909
G01 X36.9122 Y35.0843
G01 X36.9268 Y35.0755
G01 X36.9385 Y35.0667
G01 X36.9502 Y35.0562
G01 X36.9607 Y35.0446
G01 X36.9695 Y35.0328
G01 X36.9782 Y35.0185
G01 X36.9852 Y35.0033
G01 X36.9902 Y34.9895
G01 X36.9940 Y34.9742
G01 X36.9963 Y34.9587
G01 X36.9970 Y34.9440
G01 X36.9963 Y34.9273
G01 X36.9937 Y34.9108
G01 X36.9902 Y34.8965
G01 X36.9852 Y34.8827
G01 X36.9782 Y34.8675
G01 X36.9699 Y34.8539
G01 X36.9607 Y34.8415
G01 X36.9503 Y34.8300
G01 X36.8791 Y34.7588
G00 Z3.0000
G00 X38.7777 Y34.9648
G01 F50.00
G01 Z-0.14900
G01 F400.00
G01 X38.7906 Y34.9616
G01 X38.8039 Y34.9603
G01 X39.0659 Y34.9602
G01 X39.0746 Y34.9609
G01 X39.0854 Y34.9629
G01 X39.0959 Y34.9662
G01 X39.1039 Y34.9697
G01 X39.1597 Y34.9976
G01 X39.1691 Y35.0034
G01 X39.1795 Y35.0119
G01 X39.1967 Y35.0291
G01 X39.2025 Y35.0358
G01 X39.2076 Y35.0431
G01 X39.2120 Y35.0509
G01 X39.2398 Y35.1066
G01 X39.2439 Y35.1168
G01 X39.2462 Y35.1253
G01 X39.2474 Y35.1318
G01 X39.2482 Y35.1405
G01 X39.2483 Y35.1719
G01 X39.2470 Y35.1850
G01 X39.2439 Y35.1978
G01 X39.2398 Y35.2080
G01 X39.2120 Y35.2637
G01 X39.2051 Y35.2752
G01 X39.1967 Y35.2855
G01 X39.1795 Y35.3027
G01 X39.1710 Y35.3098
G01 X39.1616 Y35.3159
G01 X39.0757 Y35.3590
G01 X39.0635 Y35.3640
G01 X38.7988 Y35.4304
G01 X38.7815 Y35.4357
G01 X38.7657 Y35.4426
G01 X38.6231 Y35.5138
G01 X38.6074 Y35.5228
G01 X38.5937 Y35.5326
G01 X38.5811 Y35.5439
G01 X38.5093 Y35.6157
G01 X38.4981 Y35.6283
G01 X38.4887 Y35.6413
G01 X38.4793 Y35.6577
G01 X38.4080 Y35.8002
G01 X38.4018 Y35.8145
G01 X38.3974 Y35.8276
G01 X38.3940 Y35.8418
G01 X38.3919 Y35.8568
G01 X38.3912 Y35.8721
G01 X38.3912 Y36.0139
G01 X38.3919 Y36.0290
G01 X38.3940 Y36.0440
G01 X38.3974 Y36.0584
G01 X38.4021 Y36.0725
G01 X38.4083 Y36.0865
G01 X38.4793 Y36.2283
G01 X38.4882 Y36.2440
G01 X38.4981 Y36.2577
G01 X38.5093 Y36.2703
G01 X38.5811 Y36.3421
G01 X38.5937 Y36.3534
G01 X38.6067 Y36.3628
G01 X38.6223 Y36.3718
G01 X38.7656 Y36.4434
G01 X38.7790 Y36.4493
G01 X38.7933 Y36.4541
G01 X38.8075 Y36.4575
G01 X38.8212 Y36.4594
G01 X38.8368 Y36.4602
G01 X39.1935 Y36.4602
G01 X39.2113 Y36.4593
G01 X39.2282 Y36.4565
G01 X39.2453 Y36.4518
G01 X39.4585 Y36.3808
G01 X39.4746 Y36.3744
G01 X39.4877 Y36.3678
G01 X39.5001 Y36.3599
G01 X39.5133 Y36.3496
G01 X39.5253 Y36.3380
G01 X39.5349 Y36.3269
G01 X39.5433 Y36.3149
G01 X39.5516 Y36.3003
G01 X39.5583 Y36.2849
G01 X39.5628 Y36.2710
G01 X39.5660 Y36.2567
G01 X39.5681 Y36.2401
G01 X39.5684 Y36.2233
G01 X39.5672 Y36.2087
G01 X39.5645 Y36.1932
G01 X39.5599 Y36.1771
G01 X39.5546 Y36.1635
G01 X39.5480 Y36.1504
G01 X39.5390 Y36.1362
G01 X39.5286 Y36.1231
G01 X39.5185 Y36.1125
G01 X39.5074 Y36.1029
G01 X39.4935 Y36.0931
G01 X39.4800 Y36.0856
G01 X39.4666 Y36.0796
G01 X39.4507 Y36.0743
G01 X39.4354 Y36.0709
G01 X39.4208 Y36.0692
G01 X39.4030 Y36.0688
G01 X39.3884 Y36.0699
G01 X39.3740 Y36.0724
G01 X39.3580 Y36.0768
G01 X39.1820 Y36.1355
G01 X39.1734 Y36.1378
G01 X39.1647 Y36.1394
G01 X39.1536 Y36.1401
G01 X38.8960 Y36.1401
G01 X38.8851 Y36.1394
G01 X38.8764 Y36.1379
G01 X38.8659 Y36.1349
G01 X38.8578 Y36.1315
G01 X38.8020 Y36.1037
G01 X38.7943 Y36.0993
G01 X38.7870 Y36.0942
G01 X38.7802 Y36.0884
G01 X38.7630 Y36.0712
G01 X38.7572 Y36.0645
G01 X38.7521 Y36.0572
G01 X38.7477 Y36.0494
G01 X38.7199 Y35.9937
G01 X38.7158 Y35.9835
G01 X38.7131 Y35.9729
G01 X38.7116 Y35.9620
G01 X38.7115 Y35.9262
G01 X38.7120 Y35.9197
G01 X38.7135 Y35.9110
G01 X38.7158 Y35.9025
G01 X38.7181 Y35.8964
G01 X38.7509 Y35.8307
G01 X38.7572 Y35.8216
G01 X38.7646 Y35.8132
G01 X38.7835 Y35.7946
G01 X38.7887 Y35.7905
G01 X38.7962 Y35.7855
G01 X38.8840 Y35.7413
G01 X38.8961 Y35.7363
G01 X39.1609 Y35.6699
G01 X39.1782 Y35.6646
G01 X39.1940 Y35.6577
G01 X39.3366 Y35.5864
G01 X39.3523 Y35.5775
G01 X39.3660 Y35.5677
G01 X39.3786 Y35.5564
G01 X39.4510 Y35.4839
G01 X39.4616 Y35.4720
G01 X39.4710 Y35.4590
G01 X39.4804 Y35.4426
G01 X39.5517 Y35.3001
G01 X39.5579 Y35.2858
G01 X39.5623 Y35.2727
G01 X39.5657 Y35.2585
G01 X39.5678 Y35.2435
G01 X39.5685 Y35.2282
G01 X39.5685 Y35.0864
G01 X39.5678 Y35.0713
G01 X39.5657 Y35.0563
G01 X39.5623 Y35.0419
G01 X39.5576 Y35.0278
G01 X39.5514 Y35.0138
G01 X39.4804 Y34.8720
G01 X39.4715 Y34.8563
G01 X39.4616 Y34.8426
G01 X39.4504 Y34.8300
G01 X39.3786 Y34.7582
G01 X39.3660 Y34.7469
G01 X39.3530 Y34.7375
G01 X39.3366 Y34.7281
G01 X39.1941 Y34.6569
G01 X39.1807 Y34.6510
G01 X39.1676 Y34.6465
G01 X39.1520 Y34.6428
G01 X39.1375 Y34.6408
G01 X39.1222 Y34.6401
G01 X38.7662 Y34.6401
G01 X38.7484 Y34.6410
G01 X38.7315 Y34.6437
G01 X38.7144 Y34.6485
G01 X38.5012 Y34.7195
G01 X38.4860 Y34.7254
G01 X38.4729 Y34.7320
G01 X38.4588 Y34.7410
G01 X38.4472 Y34.7500
G01 X38.4344 Y34.7623
G01 X38.4248 Y34.7734
G01 X38.4158 Y34.7863
G01 X38.4081 Y34.8000
G01 X38.4019 Y34.8141
G01 X38.3969 Y34.8293
G01 X38.3935 Y34.8446
G01 X38.3916 Y34.8602
G01 X38.3913 Y34.8759
G01 X38.3925 Y34.8916
G01 X38.3952 Y34.9071
G01 X38.3994 Y34.9222
G01 X38.4051 Y34.9368
G01 X38.4122 Y34.9508
G01 X38.4207 Y34.9641
G01 X38.4304 Y34.9765
G01 X38.4412 Y34.9878
G01 X38.4531 Y34.9980
G01 X38.4660 Y35.0070
G01 X38.4797 Y35.0147
G01 X38.4938 Y35.0210
G01 X38.5100 Y35.0262
G01 X38.5243 Y35.0294
G01 X38.5399 Y35.0312
G01 X38.5567 Y35.0315
G01 X38.5713 Y35.0304
G01 X38.5865 Y35.0277
G01 X38.6024 Y35.0233
G01 X38.7777 Y34.9648
G00 Z3.0000
G00 X38.4812 Y36.0126
G01 F50.00
G01 Z-0.14900
G01 F400.00
G01 X38.4816 Y36.0209
G01 X38.4825 Y36.0273
G01 X38.4840 Y36.0337
G01 X38.4860 Y36.0398
G01 X38.4894 Y36.0474
G01 X38.5591 Y36.1867
G01 X38.5638 Y36.1951
G01 X38.5682 Y36.2012
G01 X38.5747 Y36.2084
G01 X38.6431 Y36.2768
G01 X38.6502 Y36.2832
G01 X38.6563 Y36.2876
G01 X38.6647 Y36.2924
G01 X38.8040 Y36.3620
G01 X38.8116 Y36.3654
G01 X38.8178 Y36.3674
G01 X38.8241 Y36.3689
G01 X38.8305 Y36.3698
G01 X38.8388 Y36.3702
G01 X39.1920 Y36.3702
G01 X39.2016 Y36.3697
G01 X39.2090 Y36.3685
G01 X39.2183 Y36.3659
G01 X39.4287 Y36.2958
G01 X39.4369 Y36.2926
G01 X39.4431 Y36.2895
G01 X39.4489 Y36.2858
G01 X39.4543 Y36.2816
G01 X39.4592 Y36.2768
G01 X39.4637 Y36.2716
G01 X39.4676 Y36.2660
G01 X39.4710 Y36.2600
G01 X39.4738 Y36.2537
G01 X39.4759 Y36.2472
G01 X39.4774 Y36.2405
G01 X39.4782 Y36.2337
G01 X39.4784 Y36.2268
G01 X39.4778 Y36.2200
G01 X39.4767 Y36.2132
G01 X39.4748 Y36.2066
G01 X39.4723 Y36.2002
G01 X39.4692 Y36.1941
G01 X39.4655 Y36.1883
G01 X39.4613 Y36.1829
G01 X39.4565 Y36.1779
G01 X39.4513 Y36.1734
G01 X39.4457 Y36.1695
G01 X39.4397 Y36.1661
G01 X39.4334 Y36.1634
G01 X39.4269 Y36.1612
G01 X39.4202 Y36.1597
G01 X39.4134 Y36.1589
G01 X39.4065 Y36.1588
G01 X39.3997 Y36.1593
G01 X39.3929 Y36.1605
G01 X39.3844 Y36.1629
G01 X39.2073 Y36.2219
G01 X39.1901 Y36.2263
G01 X39.1725 Y36.2291
G01 X39.1536 Y36.2301
G01 X38.8905 Y36.2300
G01 X38.8752 Y36.2289
G01 X38.8622 Y36.2269
G01 X38.8493 Y36.2239
G01 X38.8368 Y36.2200
G01 X38.8265 Y36.2161
G01 X38.8155 Y36.2111
G01 X38.7588 Y36.1827
G01 X38.7453 Y36.1748
G01 X38.7343 Y36.1672
G01 X38.7223 Y36.1574
G01 X38.7010 Y36.1364
G01 X38.6926 Y36.1275
G01 X38.6816 Y36.1135
G01 X38.6720 Y36.0985
G01 X38.6672 Y36.0897
G01 X38.6380 Y36.0309
G01 X38.6321 Y36.0167
G01 X38.6281 Y36.0042
G01 X38.6246 Y35.9892
G01 X38.6226 Y35.9762
G01 X38.6214 Y35.9609
G01 X38.6214 Y35.9306
G01 X38.6216 Y35.9207
G01 X38.6226 Y35.9098
G01 X38.6246 Y35.8968
G01 X38.6275 Y35.8839
G01 X38.6314 Y35.8713
G01 X38.6362 Y35.8591
G01 X38.6688 Y35.7934
G01 X38.6754 Y35.7818
G01 X38.6816 Y35.7725
G01 X38.6911 Y35.7602
G01 X38.7010 Y35.7496
G01 X38.7206 Y35.7301
G01 X38.7273 Y35.7243
G01 X38.7361 Y35.7174
G01 X38.7491 Y35.7088
G01 X38.7618 Y35.7018
G01 X38.8467 Y35.6594
G01 X38.8567 Y35.6550
G01 X38.8670 Y35.6512
G01 X38.8806 Y35.6472
G01 X39.1376 Y35.5829
G01 X39.1470 Y35.5800
G01 X39.1560 Y35.5761
G01 X39.2950 Y35.5066
G01 X39.3034 Y35.5019
G01 X39.3095 Y35.4975
G01 X39.3166 Y35.4910
G01 X39.3850 Y35.4226
G01 X39.3915 Y35.4155
G01 X39.3959 Y35.4094
G01 X39.4006 Y35.4010
G01 X39.4703 Y35.2617
G01 X39.4736 Y35.2541
G01 X39.4757 Y35.2479
G01 X39.4772 Y35.2416
G01 X39.4781 Y35.2352
G01 X39.4785 Y35.2269
G01 X39.4785 Y35.0877
G01 X39.4781 Y35.0794
G01 X39.4772 Y35.0730
G01 X39.4757 Y35.0666
G01 X39.4736 Y35.0605
G01 X39.4703 Y35.0529
G01 X39.4006 Y34.9136
G01 X39.3959 Y34.9052
G01 X39.3915 Y34.8991
G01 X39.3850 Y34.8919
G01 X39.3166 Y34.8235
G01 X39.3095 Y34.8171
G01 X39.3034 Y34.8127
G01 X39.2950 Y34.8079
G01 X39.1557 Y34.7383
G01 X39.1481 Y34.7349
G01 X39.1419 Y34.7328
G01 X39.1356 Y34.7314
G01 X39.1292 Y34.7305
G01 X39.1209 Y34.7301
G01 X38.7677 Y34.7301
G01 X38.7581 Y34.7306
G01 X38.7507 Y34.7318
G01 X38.7414 Y34.7343
G01 X38.5310 Y34.8045
G01 X38.5227 Y34.8077
G01 X38.5166 Y34.8108
G01 X38.5108 Y34.8145
G01 X38.5054 Y34.8187
G01 X38.5005 Y34.8235
G01 X38.4960 Y34.8287
G01 X38.4921 Y34.8343
G01 X38.4887 Y34.8403
G01 X38.4859 Y34.8466
G01 X38.4838 Y34.8531
G01 X38.4823 Y34.8598
G01 X38.4815 Y34.8666
G01 X38.4813 Y34.8735
G01 X38.4818 Y34.8803
G01 X38.4830 Y34.8871
G01 X38.4849 Y34.8937
G01 X38.4874 Y34.9001
G01 X38.4905 Y34.9062
G01 X38.4942 Y34.9120
G01 X38.4984 Y34.9174
G01 X38.5032 Y34.9224
G01 X38.5084 Y34.9269
G01 X38.5140 Y34.9308
G01 X38.5200 Y34.9342
G01 X38.5263 Y34.9369
G01 X38.5328 Y34.9391
G01 X38.5395 Y34.9406
G01 X38.5463 Y34.9414
G01 X38.5532 Y34.9415
G01 X38.5600 Y34.9410
G01 X38.5668 Y34.9398
G01 X38.5753 Y34.9374
G01 X38.7524 Y34.8784
G01 X38.7610 Y34.8760
G01 X38.7718 Y34.8735
G01 X38.7895 Y34.8710
G01 X38.8061 Y34.8702
G01 X39.0692 Y34.8703
G01 X39.0845 Y34.8714
G01 X39.0997 Y34.8739
G01 X39.1146 Y34.8776
G01 X39.1312 Y34.8834
G01 X39.1432 Y34.8887
G01 X39.2009 Y34.9176
G01 X39.2106 Y34.9231
G01 X39.2199 Y34.9292
G01 X39.2324 Y34.9386
G01 X39.2439 Y34.9490
G01 X39.2641 Y34.9695
G01 X39.2714 Y34.9779
G01 X39.2768 Y34.9850
G01 X39.2843 Y34.9961
G01 X39.2920 Y35.0096
G01 X39.3208 Y35.0674
G01 X39.3252 Y35.0774
G01 X39.3290 Y35.0877
G01 X39.3338 Y35.1046
G01 X39.3355 Y35.1132
G01 X39.3371 Y35.1241
G01 X39.3383 Y35.1394
G01 X39.3383 Y35.1708
G01 X39.3376 Y35.1861
G01 X39.3355 Y35.2014
G01 X39.3322 Y35.2164
G01 X39.3276 Y35.2310
G01 X39.3244 Y35.2392
G01 X39.3198 Y35.2492
G01 X39.2877 Y35.3128
G01 X39.2819 Y35.3223
G01 X39.2755 Y35.3314
G01 X39.2686 Y35.3401
G01 X39.2611 Y35.3483
G01 X39.2439 Y35.3655
G01 X39.2358 Y35.3731
G01 X39.2254 Y35.3815
G01 X39.2144 Y35.3891
G01 X39.1989 Y35.3980
G01 X39.1149 Y35.4400
G01 X39.1030 Y35.4453
G01 X39.0906 Y35.4498
G01 X39.0791 Y35.4531
G01 X38.8221 Y35.5173
G01 X38.8127 Y35.5203
G01 X38.8037 Y35.5242
G01 X38.6647 Y35.5937
G01 X38.6563 Y35.5984
G01 X38.6502 Y35.6028
G01 X38.6431 Y35.6093
G01 X38.5747 Y35.6777
G01 X38.5682 Y35.6848
G01 X38.5638 Y35.6909
G01 X38.5591 Y35.6993
G01 X38.4894 Y35.8386
G01 X38.4860 Y35.8462
G01 X38.4840 Y35.8524
G01 X38.4825 Y35.8587
G01 X38.4816 Y35.8651
G01 X38.4812 Y35.8734
G01 X38.4812 Y36.0126
G00 Z3.0000
G00 X39.8912 Y36.2996
G01 F50.00
G01 Z-0.14900
G01 F400.00
G01 X39.8912 Y34.7999
G01 X39.8920 Y34.7845
G01 X39.8941 Y34.7699
G01 X39.8981 Y34.7537
G01 X39.9034 Y34.7389
G01 X39.9096 Y34.7256
G01 X39.9183 Y34.7110
G01 X39.9275 Y34.6986
G01 X39.9374 Y34.6877
G01 X39.9497 Y34.6764
G01 X39.9632 Y34.6665
G01 X39.9758 Y34.6590
G01 X39.9891 Y34.6527
G01 X40.0048 Y34.6470
G01 X40.0211 Y34.6430
G01 X40.0356 Y34.6409
G01 X40.0502 Y34.6401
G01 X40.0670 Y34.6409
G01 X40.0835 Y34.6434
G01 X40.0977 Y34.6470
G01 X40.1116 Y34.6519
G01 X40.1267 Y34.6590
G01 X40.1411 Y34.6677
G01 X40.1528 Y34.6764
G01 X40.1637 Y34.6862
G01 X40.1750 Y34.6986
G01 X40.1849 Y34.7121
G01 X40.1924 Y34.7247
G01 X40.1987 Y34.7379
G01 X40.2045 Y34.7537
G01 X40.2083 Y34.7689
G01 X40.2106 Y34.7845
G01 X40.2113 Y34.7999
G01 X40.2115 Y35.3402
G01 X40.2123 Y35.3490
G01 X40.2140 Y35.3577
G01 X40.2166 Y35.3661
G01 X40.2191 Y35.3723
G01 X40.2230 Y35.3801
G01 X40.2278 Y35.3876
G01 X40.2332 Y35.3946
G01 X40.2393 Y35.4010
G01 X40.2460 Y35.4067
G01 X40.2532 Y35.4118
G01 X40.2589 Y35.4152
G01 X40.2669 Y35.4189
G01 X40.2752 Y35.4219
G01 X40.2816 Y35.4236
G01 X40.2903 Y35.4251
G01 X40.2969 Y35.4257
G01 X40.6606 Y35.4258
G01 X40.6694 Y35.4251
G01 X40.6759 Y35.4241
G01 X40.6845 Y35.4219
G01 X40.6907 Y35.4198
G01 X40.6988 Y35.4162
G01 X40.7046 Y35.4130
G01 X40.7120 Y35.4081
G01 X40.7171 Y35.4039
G01 X40.7235 Y35.3978
G01 X40.7279 Y35.3929
G01 X40.7319 Y35.3876
G01 X40.7367 Y35.3801
G01 X40.7406 Y35.3723
G01 X40.7438 Y35.3640
G01 X40.7462 Y35.3555
G01 X40.7474 Y35.3490
G01 X40.7483 Y35.3358
G01 X40.7484 Y34.7999
G01 X40.7491 Y34.7845
G01 X40.7517 Y34.7679
G01 X40.7552 Y34.7537
G01 X40.7602 Y34.7399
G01 X40.7671 Y34.7249
G01 X40.7753 Y34.7112
G01 X40.7854 Y34.6978
G01 X40.7960 Y34.6862
G01 X40.8069 Y34.6764
G01 X40.8186 Y34.6677
G01 X40.8330 Y34.6590
G01 X40.8472 Y34.6523
G01 X40.8620 Y34.6470
G01 X40.8782 Y34.6430
G01 X40.8927 Y34.6409
G01 X40.9074 Y34.6401
G01 X40.9231 Y34.6408
G01 X40.9396 Y34.6432
G01 X40.9549 Y34.6470
G01 X40.9697 Y34.6523
G01 X40.9848 Y34.6595
G01 X40.9973 Y34.6671
G01 X41.0091 Y34.6758
G01 X41.0214 Y34.6868
G01 X41.0322 Y34.6986
G01 X41.0415 Y34.7112
G01 X41.0496 Y34.7247
G01 X41.0563 Y34.7389
G01 X41.0616 Y34.7537
G01 X41.0654 Y34.7689
G01 X41.0677 Y34.7845
G01 X41.0685 Y34.8007
G01 X41.0685 Y36.3004
G01 X41.0677 Y36.3158
G01 X41.0654 Y36.3314
G01 X41.0616 Y36.3466
G01 X41.0563 Y36.3614
G01 X41.0496 Y36.3756
G01 X41.0415 Y36.3891
G01 X41.0322 Y36.4017
G01 X41.0218 Y36.4132
G01 X41.0100 Y36.4239
G01 X40.9965 Y36.4338
G01 X40.9829 Y36.4418
G01 X40.9697 Y36.4480
G01 X40.9559 Y36.4530
G01 X40.9396 Y36.4571
G01 X40.9241 Y36.4594
G01 X40.9084 Y36.4602
G01 X40.8917 Y36.4593
G01 X40.8762 Y36.4569
G01 X40.8620 Y36.4533
G01 X40.8481 Y36.4484
G01 X40.8330 Y36.4413
G01 X40.8195 Y36.4332
G01 X40.8069 Y36.4239
G01 X40.7945 Y36.4126
G01 X40.7847 Y36.4017
G01 X40.7759 Y36.3899
G01 X40.7673 Y36.3756
G01 X40.7605 Y36.3614
G01 X40.7550 Y36.3456
G01 X40.7514 Y36.3314
G01 X40.7493 Y36.3169
G01 X40.7484 Y36.3004
G01 X40.7483 Y35.8359
G01 X40.7474 Y35.8227
G01 X40.7456 Y35.8141
G01 X40.7438 Y35.8077
G01 X40.7415 Y35.8015
G01 X40.7377 Y35.7935
G01 X40.7332 Y35.7859
G01 X40.7293 Y35.7806
G01 X40.7204 Y35.7708
G01 X40.7102 Y35.7624
G01 X40.7027 Y35.7576
G01 X40.6968 Y35.7546
G01 X40.6907 Y35.7520
G01 X40.6823 Y35.7492
G01 X40.6759 Y35.7477
G01 X40.6672 Y35.7464
G01 X40.6583 Y35.7459
G01 X40.2947 Y35.7462
G01 X40.2860 Y35.7473
G01 X40.2752 Y35.7498
G01 X40.2669 Y35.7528
G01 X40.2589 Y35.7566
G01 X40.2514 Y35.7611
G01 X40.2443 Y35.7664
G01 X40.2362 Y35.7739
G01 X40.2304 Y35.7806
G01 X40.2253 Y35.7878
G01 X40.2220 Y35.7935
G01 X40.2166 Y35.8056
G01 X40.2131 Y35.8184
G01 X40.2115 Y35.8315
G01 X40.2114 Y36.2996
G01 X40.2104 Y36.3169
G01 X40.2083 Y36.3314
G01 X40.2047 Y36.3456
G01 X40.1995 Y36.3604
G01 X40.1924 Y36.3756
G01 X40.1849 Y36.3882
G01 X40.1750 Y36.4017
G01 X40.1645 Y36.4133
G01 X40.1528 Y36.4239
G01 X40.1404 Y36.4331
G01 X40.1258 Y36.4418
G01 X40.1125 Y36.4480
G01 X40.0987 Y36.4530
G01 X40.0825 Y36.4571
G01 X40.0659 Y36.4595
G01 X40.0513 Y36.4602
G01 X40.0366 Y36.4595
G01 X40.0200 Y36.4571
G01 X40.0038 Y36.4530
G01 X39.9900 Y36.4480
G01 X39.9758 Y36.4413
G01 X39.9615 Y36.4326
G01 X39.9497 Y36.4239
G01 X39.9389 Y36.4140
G01 X39.9275 Y36.4017
G01 X39.9176 Y36.3882
G01 X39.9101 Y36.3756
G01 X39.9038 Y36.3624
G01 X39.8981 Y36.3466
G01 X39.8941 Y36.3303
G01 X39.8920 Y36.3158
G01 X39.8912 Y36.3012
G01 X39.8912 Y36.2996
G01 X39.9812 Y36.2980
G01 X39.9812 Y34.8021
G01 X39.9816 Y34.7933
G01 X39.9826 Y34.7865
G01 X39.9843 Y34.7798
G01 X39.9866 Y34.7734
G01 X39.9896 Y34.7672
G01 X39.9931 Y34.7613
G01 X39.9972 Y34.7558
G01 X40.0018 Y34.7507
G01 X40.0069 Y34.7461
G01 X40.0124 Y34.7420
G01 X40.0183 Y34.7384
G01 X40.0245 Y34.7355
G01 X40.0310 Y34.7332
G01 X40.0376 Y34.7315
G01 X40.0444 Y34.7305
G01 X40.0513 Y34.7302
G01 X40.0581 Y34.7305
G01 X40.0649 Y34.7315
G01 X40.0716 Y34.7332
G01 X40.0781 Y34.7355
G01 X40.0843 Y34.7384
G01 X40.0902 Y34.7420
G01 X40.0957 Y34.7461
G01 X40.1008 Y34.7507
G01 X40.1054 Y34.7558
G01 X40.1095 Y34.7613
G01 X40.1130 Y34.7672
G01 X40.1159 Y34.7734
G01 X40.1182 Y34.7798
G01 X40.1199 Y34.7865
G01 X40.1209 Y34.7933
G01 X40.1214 Y34.8021
G01 X40.1214 Y35.3358
G01 X40.1218 Y35.3479
G01 X40.1235 Y35.3633
G01 X40.1265 Y35.3785
G01 X40.1301 Y35.3912
G01 X40.1355 Y35.4057
G01 X40.1411 Y35.4177
G01 X40.1487 Y35.4311
G01 X40.1574 Y35.4439
G01 X40.1672 Y35.4558
G01 X40.1780 Y35.4669
G01 X40.1897 Y35.4770
G01 X40.2041 Y35.4873
G01 X40.2175 Y35.4950
G01 X40.2315 Y35.5017
G01 X40.2480 Y35.5077
G01 X40.2652 Y35.5121
G01 X40.2804 Y35.5146
G01 X40.2914 Y35.5155
G01 X40.3014 Y35.5158
G01 X40.6617 Y35.5158
G01 X40.6749 Y35.5150
G01 X40.6880 Y35.5133
G01 X40.7010 Y35.5107
G01 X40.7138 Y35.5070
G01 X40.7262 Y35.5025
G01 X40.7383 Y35.4971
G01 X40.7499 Y35.4907
G01 X40.7611 Y35.4836
G01 X40.7717 Y35.4756
G01 X40.7833 Y35.4654
G01 X40.7925 Y35.4558
G01 X40.8009 Y35.4457
G01 X40.8086 Y35.4349
G01 X40.8155 Y35.4235
G01 X40.8215 Y35.4117
