( Generated by Carbide Copper )
( ESP32 CNC SHIELD V1.0)
( Material Size )
( X= 80.000, Y= 75.000, Z= 1.400 )
()
G17
G21
G54
G90
M05
(  )
T502 M06
( Contour V30ª)
G0  Z3
M03 S10000
G0  X19.495 Y70.992
G0   Z0
G01 F30 Z-0.100
G01 F400 X19.382 Y70.968
X19.310 Y70.936
X0.849 Y70.936
X0.812 Y70.929
X0.778 Y70.913
X0.748 Y70.892
X0.724 Y70.864
X0.705 Y70.832
X0.694 Y70.797
X0.690 Y70.763
X0.690 Y56.800
X0.694 Y56.766
X0.705 Y56.731
X0.724 Y56.699
X0.748 Y56.671
X0.778 Y56.649
X0.812 Y56.634
X0.849 Y56.626
X0.886 Y56.626
X0.922 Y56.634
X0.956 Y56.649
X0.985 Y56.670
X1.465 Y57.151
X1.484 Y57.172
X1.520 Y57.216
X1.742 Y57.398
X1.996 Y57.534
X2.270 Y57.617
X2.494 Y57.639
X2.552 Y57.645
X2.586 Y57.652
X2.620 Y57.667
X2.650 Y57.689
X2.674 Y57.716
X2.693 Y57.748
X2.703 Y57.779
X2.726 Y57.855
X2.769 Y57.936
X2.826 Y58.005
X2.896 Y58.063
X2.976 Y58.105
X3.062 Y58.131
X3.168 Y58.142
X6.136 Y58.142
X6.242 Y58.131
X6.329 Y58.105
X6.408 Y58.063
X6.478 Y58.005
X6.535 Y57.936
X6.578 Y57.855
X6.604 Y57.769
X6.613 Y57.677
X6.613 Y54.683
X6.604 Y54.591
X6.578 Y54.505
X6.535 Y54.425
X6.478 Y54.355
X6.408 Y54.297
X6.329 Y54.255
X6.242 Y54.229
X6.136 Y54.218
X3.433 Y54.218
X3.397 Y54.211
X3.363 Y54.196
X3.333 Y54.174
X3.309 Y54.146
X3.290 Y54.114
X3.279 Y54.079
X3.275 Y54.044
X3.275 Y29.995
X3.279 Y29.960
X3.290 Y29.925
X3.309 Y29.893
X3.333 Y29.865
X3.363 Y29.844
X3.397 Y29.829
X3.433 Y29.821
X4.239 Y29.821
X4.345 Y29.810
X4.431 Y29.784
X4.511 Y29.742
X4.581 Y29.684
X4.638 Y29.615
X4.681 Y29.534
X4.707 Y29.449
X4.716 Y29.356
X4.716 Y27.902
X4.721 Y27.859
X4.716 Y27.812
X4.716 Y26.362
X4.707 Y26.270
X4.681 Y26.183
X4.638 Y26.104
X4.581 Y26.034
X4.511 Y25.976
X4.431 Y25.934
X4.345 Y25.908
X4.239 Y25.897
X3.433 Y25.897
X3.397 Y25.890
X3.363 Y25.875
X3.333 Y25.853
X3.309 Y25.825
X3.290 Y25.793
X3.279 Y25.758
X3.275 Y25.724
X3.275 Y17.168
X3.279 Y17.133
X3.290 Y17.098
X3.309 Y17.066
X3.331 Y17.041
X5.331 Y15.041
X5.360 Y15.020
X5.394 Y15.005
X5.431 Y14.997
X5.464 Y14.997
X5.842 Y14.922
X6.199 Y14.774
X6.520 Y14.559
X6.793 Y14.287
X7.007 Y13.966
X7.155 Y13.609
X7.230 Y13.231
X7.230 Y12.846
X7.155 Y12.467
X7.007 Y12.111
X6.777 Y11.770
X6.760 Y11.741
X6.749 Y11.706
X6.745 Y11.672
X6.745 Y10.719
X6.748 Y10.687
X6.748 Y7.957
X6.752 Y7.922
X6.763 Y7.887
X6.782 Y7.855
X6.804 Y7.830
X8.173 Y6.461
X8.229 Y6.416
X8.411 Y6.194
X8.546 Y5.940
X8.557 Y5.905
X8.567 Y5.874
X8.585 Y5.842
X8.610 Y5.814
X8.640 Y5.792
X8.674 Y5.777
X8.710 Y5.769
X8.748 Y5.769
X8.784 Y5.777
X8.818 Y5.792
X8.848 Y5.814
X8.872 Y5.842
X8.891 Y5.874
X8.902 Y5.909
X8.906 Y5.943
X8.906 Y6.242
X8.909 Y6.274
X8.909 Y9.767
X8.930 Y9.976
X9.013 Y10.250
X9.148 Y10.504
X9.331 Y10.726
X9.553 Y10.908
X9.806 Y11.044
X10.081 Y11.127
X10.367 Y11.155
X10.653 Y11.127
X10.928 Y11.044
X11.181 Y10.908
X11.404 Y10.726
X11.496 Y10.613
X11.518 Y10.588
X11.548 Y10.566
X11.582 Y10.551
X11.619 Y10.543
X11.655 Y10.543
X11.692 Y10.551
X11.726 Y10.566
X11.756 Y10.588
X11.778 Y10.613
X11.871 Y10.726
X12.093 Y10.908
X12.346 Y11.044
X12.621 Y11.127
X12.907 Y11.155
X13.193 Y11.127
X13.468 Y11.044
X13.721 Y10.908
X13.944 Y10.726
X14.036 Y10.613
X14.058 Y10.588
X14.088 Y10.566
X14.122 Y10.551
X14.159 Y10.543
X14.196 Y10.543
X14.232 Y10.551
X14.266 Y10.566
X14.296 Y10.588
X14.318 Y10.613
X14.411 Y10.726
X14.633 Y10.908
X14.886 Y11.044
X15.161 Y11.127
X15.447 Y11.155
X15.733 Y11.127
X16.008 Y11.044
X16.261 Y10.908
X16.484 Y10.726
X16.576 Y10.613
X16.598 Y10.588
X16.628 Y10.566
X16.662 Y10.551
X16.698 Y10.543
X16.736 Y10.543
X16.772 Y10.551
X16.806 Y10.566
X16.836 Y10.588
X16.858 Y10.613
X16.951 Y10.726
X17.173 Y10.908
X17.426 Y11.044
X17.701 Y11.127
X17.987 Y11.155
X18.273 Y11.127
X18.548 Y11.044
X18.801 Y10.908
X19.024 Y10.726
X19.116 Y10.613
X19.138 Y10.588
X19.168 Y10.566
X19.202 Y10.551
X19.239 Y10.543
X19.276 Y10.543
X19.312 Y10.551
X19.346 Y10.566
X19.376 Y10.588
X19.398 Y10.613
X19.491 Y10.726
X19.612 Y10.825
X19.635 Y10.851
X19.654 Y10.884
X19.665 Y10.919
X19.669 Y10.953
X19.669 Y12.334
X19.672 Y12.365
X19.669 Y12.396
X19.669 Y14.508
X19.665 Y14.542
X19.654 Y14.577
X19.635 Y14.609
X19.611 Y14.637
X19.581 Y14.659
X19.547 Y14.674
X19.511 Y14.681
X11.672 Y14.681
X11.637 Y14.678
X11.604 Y14.681
X11.468 Y14.695
X11.307 Y14.743
X11.158 Y14.823
X11.027 Y14.931
X11.010 Y14.951
X10.991 Y14.973
X7.250 Y18.714
X7.217 Y18.741
X7.201 Y18.761
X7.110 Y18.871
X7.057 Y18.969
X7.030 Y19.021
X6.981 Y19.182
X6.969 Y19.303
X6.966 Y19.372
X6.969 Y19.398
X6.969 Y20.007
X6.965 Y20.041
X6.954 Y20.076
X6.935 Y20.109
X6.911 Y20.136
X6.881 Y20.158
X6.847 Y20.173
X6.811 Y20.181
X6.774 Y20.181
X6.737 Y20.173
X6.703 Y20.158
X6.673 Y20.136
X6.651 Y20.112
X6.613 Y20.065
X6.543 Y20.008
X6.464 Y19.965
X6.377 Y19.939
X6.271 Y19.928
X4.303 Y19.928
X4.197 Y19.939
X4.111 Y19.965
X4.031 Y20.008
X3.961 Y20.065
X3.904 Y20.134
X3.861 Y20.214
X3.835 Y20.301
X3.826 Y20.393
X3.826 Y23.387
X3.835 Y23.479
X3.861 Y23.566
X3.904 Y23.645
X3.961 Y23.715
X4.031 Y23.773
X4.111 Y23.815
X4.197 Y23.841
X4.303 Y23.852
X5.761 Y23.852
X5.797 Y23.860
X5.831 Y23.875
X5.860 Y23.895
X8.570 Y26.431
X8.602 Y26.464
X8.622 Y26.481
X8.640 Y26.496
X8.662 Y26.514
X8.719 Y26.557
X8.779 Y26.587
X8.845 Y26.620
X8.907 Y26.636
X8.978 Y26.656
X9.041 Y26.660
X9.083 Y26.663
X18.458 Y26.663
X18.494 Y26.670
X18.528 Y26.686
X18.558 Y26.707
X18.583 Y26.735
X18.602 Y26.767
X18.613 Y26.802
X18.617 Y26.839
X18.613 Y26.876
X18.602 Y26.908
X18.490 Y27.180
X18.434 Y27.461
X18.434 Y27.749
X18.490 Y28.030
X18.600 Y28.296
X18.760 Y28.535
X18.963 Y28.738
X19.202 Y28.898
X19.467 Y29.008
X19.749 Y29.064
X20.061 Y29.064
X20.097 Y29.071
X20.131 Y29.087
X20.161 Y29.108
X20.184 Y29.133
X23.741 Y33.710
X23.787 Y33.766
X23.815 Y33.800
X23.834 Y33.823
X23.852 Y33.838
X23.872 Y33.859
X23.893 Y33.874
X23.914 Y33.889
X23.963 Y33.924
X23.986 Y33.940
X24.008 Y33.949
X24.032 Y33.960
X24.087 Y33.984
X24.112 Y33.995
X24.161 Y34.007
X24.220 Y34.020
X24.248 Y34.026
X24.309 Y34.029
X37.520 Y34.029
X37.549 Y34.032
X37.616 Y34.025
X37.688 Y34.017
X37.750 Y33.998
X37.821 Y33.976
X37.877 Y33.945
X37.944 Y33.909
X37.991 Y33.870
X38.051 Y33.820
X38.088 Y33.775
X38.148 Y33.695
X38.161 Y33.672
X40.146 Y30.663
X40.182 Y30.611
X40.199 Y30.580
X40.236 Y30.510
X40.253 Y30.451
X40.276 Y30.374
X40.281 Y30.320
X40.285 Y30.276
X40.289 Y30.235
X40.285 Y30.197
X40.285 Y30.118
X40.289 Y30.084
X40.300 Y30.049
X40.319 Y30.017
X40.345 Y29.988
X40.390 Y29.959
X40.614 Y29.776
X40.706 Y29.663
X40.728 Y29.638
X40.758 Y29.616
X40.792 Y29.601
X40.829 Y29.594
X40.866 Y29.594
X40.902 Y29.601
X40.936 Y29.616
X40.966 Y29.638
X40.988 Y29.663
X41.081 Y29.776
X41.303 Y29.958
X41.556 Y30.094
X41.831 Y30.177
X42.117 Y30.205
X42.403 Y30.177
X42.678 Y30.094
X42.931 Y29.958
X43.154 Y29.776
X43.246 Y29.663
X43.268 Y29.638
X43.298 Y29.616
X43.332 Y29.601
X43.369 Y29.594
X43.406 Y29.594
X43.442 Y29.601
X43.476 Y29.616
X43.506 Y29.638
X43.528 Y29.663
X43.621 Y29.776
X43.843 Y29.958
X44.096 Y30.094
X44.371 Y30.177
X44.657 Y30.205
X44.943 Y30.177
X45.218 Y30.094
X45.471 Y29.958
X45.694 Y29.776
X45.786 Y29.663
X45.808 Y29.638
X45.838 Y29.616
X45.872 Y29.601
X45.909 Y29.594
X45.946 Y29.594
X45.982 Y29.601
X46.016 Y29.616
X46.046 Y29.638
X46.068 Y29.663
X46.161 Y29.776
X46.383 Y29.958
X46.636 Y30.094
X46.911 Y30.177
X47.197 Y30.205
X47.483 Y30.177
X47.758 Y30.094
X48.011 Y29.958
X48.234 Y29.776
X48.326 Y29.663
X48.348 Y29.638
X48.378 Y29.616
X48.412 Y29.601
X48.449 Y29.594
X48.486 Y29.594
X48.522 Y29.601
X48.556 Y29.616
X48.586 Y29.638
X48.608 Y29.663
X48.701 Y29.776
X48.923 Y29.958
X49.176 Y30.094
X49.451 Y30.177
X49.737 Y30.205
X50.023 Y30.177
X50.298 Y30.094
X50.551 Y29.958
X50.774 Y29.776
X50.866 Y29.663
X50.888 Y29.638
X50.918 Y29.616
X50.952 Y29.601
X50.989 Y29.594
X51.026 Y29.594
X51.062 Y29.601
X51.096 Y29.616
X51.126 Y29.638
X51.148 Y29.663
X51.241 Y29.776
X51.463 Y29.958
X51.716 Y30.094
X52.011 Y30.183
X52.043 Y30.197
X52.073 Y30.219
X52.098 Y30.247
X52.117 Y30.279
X52.128 Y30.314
X52.132 Y30.351
X52.128 Y30.388
X52.117 Y30.423
X52.098 Y30.455
X52.076 Y30.480
X37.923 Y44.633
X37.894 Y44.654
X37.860 Y44.669
X37.824 Y44.676
X23.730 Y44.676
X23.702 Y44.674
X23.677 Y44.676
X23.563 Y44.687
X23.430 Y44.728
X23.309 Y44.792
X23.184 Y44.900
X23.167 Y44.919
X20.052 Y48.034
X20.010 Y48.074
X19.935 Y48.165
X19.869 Y48.288
X19.829 Y48.422
X19.819 Y48.521
X19.815 Y48.560
X19.819 Y48.601
X19.819 Y59.282
X19.815 Y59.323
X19.819 Y59.362
X19.829 Y59.462
X19.869 Y59.595
X19.935 Y59.718
X20.024 Y59.826
X20.051 Y59.848
X20.151 Y59.949
X20.183 Y59.985
X20.290 Y60.073
X20.414 Y60.139
X20.547 Y60.180
X20.661 Y60.191
X20.686 Y60.193
X20.714 Y60.191
X21.024 Y60.191
X21.060 Y60.198
X21.094 Y60.214
X21.125 Y60.235
X21.149 Y60.263
X21.372 Y60.446
X21.625 Y60.582
X21.900 Y60.665
X22.122 Y60.687
X23.250 Y60.687
X23.472 Y60.665
X23.747 Y60.582
X24.000 Y60.446
X24.229 Y60.256
X24.248 Y60.235
X24.278 Y60.214
X24.312 Y60.198
X24.348 Y60.191
X26.214 Y60.191
X26.242 Y60.193
X26.267 Y60.191
X26.379 Y60.180
X26.533 Y60.130
X26.560 Y60.118
X26.596 Y60.110
X26.633 Y60.110
X26.939 Y60.171
X27.323 Y60.171
X27.702 Y60.096
X28.058 Y59.948
X28.379 Y59.733
X28.652 Y59.461
X28.866 Y59.140
X29.014 Y58.783
X29.089 Y58.405
X29.089 Y58.019
X29.014 Y57.641
X28.866 Y57.285
X28.652 Y56.964
X28.379 Y56.691
X28.058 Y56.476
X27.702 Y56.329
X27.323 Y56.253
X26.939 Y56.253
X26.561 Y56.329
X26.204 Y56.476
X25.883 Y56.691
X25.610 Y56.964
X25.396 Y57.285
X25.248 Y57.641
X25.173 Y58.019
X25.173 Y58.405
X25.204 Y58.563
X25.208 Y58.597
X25.204 Y58.634
X25.193 Y58.669
X25.174 Y58.701
X25.149 Y58.729
X25.119 Y58.751
X25.085 Y58.766
X25.049 Y58.773
X24.684 Y58.773
X24.648 Y58.766
X24.614 Y58.751
X24.584 Y58.729
X24.559 Y58.701
X24.543 Y58.673
X24.405 Y58.414
X24.223 Y58.192
X24.000 Y58.010
X23.747 Y57.874
X23.473 Y57.791
X23.250 Y57.769
X22.122 Y57.769
X21.900 Y57.791
X21.625 Y57.874
X21.498 Y57.943
X21.467 Y57.956
X21.431 Y57.964
X21.393 Y57.964
X21.357 Y57.956
X21.323 Y57.941
X21.293 Y57.919
X21.269 Y57.892
X21.250 Y57.860
X21.239 Y57.825
X21.235 Y57.790
X21.235 Y48.924
X21.239 Y48.890
X21.250 Y48.855
X21.269 Y48.822
X21.291 Y48.798
X23.951 Y46.138
X23.980 Y46.117
X24.014 Y46.101
X24.050 Y46.094
X37.594 Y46.094
X37.630 Y46.101
X37.664 Y46.117
X37.694 Y46.138
X37.719 Y46.166
X37.737 Y46.198
X37.749 Y46.233
X37.753 Y46.270
X37.749 Y46.307
X37.737 Y46.342
X37.719 Y46.374
X37.697 Y46.399
X32.425 Y51.670
X32.396 Y51.691
X32.362 Y51.706
X32.326 Y51.714
X32.288 Y51.714
X32.245 Y51.703
X31.957 Y51.675
X31.671 Y51.703
X31.396 Y51.786
X31.143 Y51.922
X30.921 Y52.104
X30.828 Y52.218
X30.806 Y52.242
X30.776 Y52.264
X30.742 Y52.279
X30.706 Y52.287
X30.669 Y52.287
X30.632 Y52.279
X30.598 Y52.264
X30.568 Y52.242
X30.546 Y52.218
X30.454 Y52.104
X30.231 Y51.922
X29.978 Y51.786
X29.704 Y51.703
X29.417 Y51.675
X29.131 Y51.703
X28.856 Y51.786
X28.603 Y51.922
X28.381 Y52.104
X28.288 Y52.218
X28.266 Y52.242
X28.236 Y52.264
X28.202 Y52.279
X28.166 Y52.287
X28.129 Y52.287
X28.092 Y52.279
X28.058 Y52.264
X28.028 Y52.242
X28.006 Y52.218
X27.913 Y52.104
X27.692 Y51.922
X27.438 Y51.786
X27.163 Y51.703
X26.877 Y51.675
X26.591 Y51.703
X26.316 Y51.786
X26.063 Y51.922
X26.008 Y51.967
X25.981 Y51.986
X25.948 Y52.001
X25.911 Y52.009
X25.874 Y52.009
X25.838 Y52.001
X25.804 Y51.986
X25.774 Y51.964
X25.749 Y51.937
X25.733 Y51.908
X25.720 Y51.884
X25.663 Y51.815
X25.593 Y51.758
X25.513 Y51.715
X25.427 Y51.689
X25.321 Y51.678
X23.353 Y51.678
X23.247 Y51.689
X23.161 Y51.715
X23.081 Y51.758
X23.011 Y51.815
X22.954 Y51.885
X22.911 Y51.964
X22.885 Y52.051
X22.876 Y52.143
X22.876 Y55.137
X22.885 Y55.229
X22.911 Y55.316
X22.954 Y55.396
X23.011 Y55.465
X23.081 Y55.523
X23.161 Y55.565
X23.247 Y55.591
X23.353 Y55.602
X25.321 Y55.602
X25.427 Y55.591
X25.513 Y55.565
X25.593 Y55.523
X25.663 Y55.465
X25.720 Y55.395
X25.733 Y55.371
X25.749 Y55.343
X25.774 Y55.316
X25.804 Y55.294
X25.838 Y55.279
X25.874 Y55.271
X25.911 Y55.271
X25.948 Y55.279
X25.981 Y55.294
X26.008 Y55.313
X26.063 Y55.358
X26.316 Y55.494
X26.591 Y55.577
X26.877 Y55.605
X27.163 Y55.577
X27.438 Y55.494
X27.691 Y55.358
X27.914 Y55.175
X28.006 Y55.063
X28.028 Y55.038
X28.058 Y55.016
X28.092 Y55.001
X28.129 Y54.994
X28.166 Y54.994
X28.202 Y55.001
X28.236 Y55.016
X28.266 Y55.038
X28.288 Y55.063
X28.381 Y55.176
X28.603 Y55.358
X28.856 Y55.494
X29.131 Y55.577
X29.417 Y55.605
X29.703 Y55.577
X29.978 Y55.494
X30.231 Y55.358
X30.454 Y55.175
X30.546 Y55.063
X30.568 Y55.038
X30.598 Y55.016
X30.632 Y55.001
X30.669 Y54.994
X30.706 Y54.994
X30.742 Y55.001
X30.776 Y55.016
X30.806 Y55.038
X30.828 Y55.063
X30.921 Y55.176
X31.143 Y55.358
X31.396 Y55.494
X31.671 Y55.577
X31.957 Y55.605
X32.243 Y55.577
X32.518 Y55.494
X32.771 Y55.358
X32.994 Y55.175
X33.086 Y55.063
X33.108 Y55.038
X33.138 Y55.016
X33.172 Y55.001
X33.209 Y54.994
X33.245 Y54.994
X33.282 Y55.001
X33.316 Y55.016
X33.346 Y55.038
X33.368 Y55.063
X33.461 Y55.176
X33.683 Y55.358
X33.936 Y55.494
X34.211 Y55.577
X34.497 Y55.605
X34.783 Y55.577
X35.058 Y55.494
X35.311 Y55.358
X35.534 Y55.175
X35.626 Y55.063
X35.648 Y55.038
X35.678 Y55.016
X35.712 Y55.001
X35.748 Y54.994
X35.785 Y54.994
X35.822 Y55.001
X35.856 Y55.016
X35.886 Y55.038
X35.908 Y55.063
X36.001 Y55.176
X36.223 Y55.358
X36.476 Y55.494
X36.751 Y55.577
X37.037 Y55.605
X37.323 Y55.577
X37.598 Y55.494
X37.851 Y55.358
X38.074 Y55.175
X38.166 Y55.063
X38.188 Y55.038
X38.218 Y55.016
X38.252 Y55.001
X38.288 Y54.994
X38.326 Y54.994
X38.362 Y55.001
X38.396 Y55.016
X38.426 Y55.038
X38.448 Y55.063
X38.541 Y55.176
X38.671 Y55.283
X38.695 Y55.309
X38.714 Y55.342
X38.725 Y55.377
X38.729 Y55.414
X38.725 Y55.451
X38.714 Y55.486
X38.695 Y55.518
X38.673 Y55.543
X37.068 Y57.147
X37.042 Y57.168
X37.015 Y57.201
X36.993 Y57.226
X36.963 Y57.247
X36.929 Y57.263
X36.895 Y57.270
X36.759 Y57.283
X36.484 Y57.366
X36.231 Y57.502
X36.009 Y57.684
X35.822 Y57.915
X35.808 Y57.939
X35.783 Y57.967
X35.753 Y57.989
X35.719 Y58.004
X35.683 Y58.011
X35.310 Y58.011
X35.274 Y58.004
X35.240 Y57.989
X35.210 Y57.967
X35.185 Y57.939
X35.167 Y57.907
X35.156 Y57.874
X35.110 Y57.641
X34.962 Y57.285
X34.748 Y56.964
X34.475 Y56.691
X34.154 Y56.476
X33.797 Y56.329
X33.419 Y56.253
X33.035 Y56.253
X32.657 Y56.329
X32.300 Y56.476
X31.979 Y56.691
X31.706 Y56.964
X31.492 Y57.285
X31.344 Y57.641
X31.269 Y58.019
X31.269 Y58.405
X31.344 Y58.783
X31.492 Y59.140
X31.706 Y59.460
X31.979 Y59.733
X32.300 Y59.948
X32.657 Y60.096
X33.035 Y60.171
X33.419 Y60.171
X33.797 Y60.096
X34.154 Y59.948
X34.475 Y59.733
X34.736 Y59.473
X34.765 Y59.452
X34.799 Y59.436
X34.835 Y59.429
X35.683 Y59.429
X35.719 Y59.436
X35.753 Y59.452
X35.783 Y59.473
X35.808 Y59.501
X35.826 Y59.533
X36.009 Y59.756
X36.231 Y59.938
X36.484 Y60.074
X36.759 Y60.157
X36.981 Y60.179
X38.109 Y60.179
X38.331 Y60.157
X38.606 Y60.074
X38.859 Y59.938
X39.082 Y59.756
X39.264 Y59.534
X39.399 Y59.280
X39.483 Y59.006
X39.511 Y58.720
X39.483 Y58.434
X39.399 Y58.160
X39.264 Y57.906
X39.081 Y57.684
X38.924 Y57.555
X38.901 Y57.529
X38.882 Y57.497
X38.870 Y57.462
X38.867 Y57.425
X38.870 Y57.388
X38.882 Y57.353
X38.901 Y57.321
X38.923 Y57.296
X40.052 Y56.166
X40.094 Y56.126
X40.169 Y56.035
X40.235 Y55.912
X40.275 Y55.779
X40.289 Y55.640
X40.285 Y55.599
X40.285 Y55.518
X40.289 Y55.484
X40.300 Y55.449
X40.319 Y55.417
X40.345 Y55.388
X40.390 Y55.359
X40.614 Y55.175
X40.706 Y55.063
X40.728 Y55.038
X40.758 Y55.016
X40.792 Y55.001
X40.829 Y54.994
X40.866 Y54.994
X40.902 Y55.001
X40.936 Y55.016
X40.966 Y55.038
X40.988 Y55.063
X41.080 Y55.175
X41.325 Y55.370
X41.351 Y55.389
X41.375 Y55.417
X41.394 Y55.449
X41.405 Y55.484
X41.409 Y55.518
X41.409 Y56.270
X41.405 Y56.305
X41.394 Y56.340
X41.375 Y56.372
X41.351 Y56.399
X41.321 Y56.421
X41.291 Y56.434
X41.190 Y56.476
X40.869 Y56.691
X40.596 Y56.964
X40.382 Y57.285
X40.234 Y57.641
X40.159 Y58.019
X40.159 Y58.405
X40.234 Y58.783
X40.382 Y59.140
X40.596 Y59.460
X40.869 Y59.733
X41.190 Y59.948
X41.547 Y60.096
X41.925 Y60.171
X42.309 Y60.171
X42.688 Y60.096
X42.885 Y60.014
X42.920 Y60.006
X42.958 Y60.006
X42.991 Y60.013
X43.121 Y60.053
X43.235 Y60.064
X43.260 Y60.066
X43.288 Y60.064
X44.919 Y60.064
X44.955 Y60.071
X44.989 Y60.087
X45.016 Y60.106
X45.121 Y60.192
X45.374 Y60.328
X45.649 Y60.411
X45.871 Y60.433
X46.999 Y60.433
X47.221 Y60.411
X47.496 Y60.328
X47.749 Y60.192
X47.972 Y60.010
X48.125 Y59.822
X48.147 Y59.798
X48.177 Y59.776
X48.211 Y59.761
X48.248 Y59.753
X48.285 Y59.753
X48.321 Y59.761
X48.355 Y59.776
X48.385 Y59.798
X48.409 Y59.825
X48.426 Y59.854
X48.526 Y60.042
X48.709 Y60.264
X48.931 Y60.446
X49.184 Y60.582
X49.459 Y60.665
X49.681 Y60.687
X50.809 Y60.687
X51.031 Y60.665
X51.306 Y60.582
X51.560 Y60.446
X51.781 Y60.264
X51.968 Y60.033
X51.982 Y60.009
X52.007 Y59.981
X52.037 Y59.960
X52.071 Y59.944
X52.107 Y59.937
X54.408 Y59.937
X54.436 Y59.939
X54.461 Y59.937
X54.575 Y59.926
X54.722 Y59.881
X54.755 Y59.874
X54.792 Y59.874
X55.006 Y59.917
X55.390 Y59.917
X55.769 Y59.842
X56.125 Y59.694
X56.446 Y59.479
X56.719 Y59.206
X56.933 Y58.886
X57.078 Y58.536
X57.064 Y57.346
X56.933 Y57.031
X56.719 Y56.710
X56.467 Y56.458
X55.958 Y56.153
X55.769 Y56.075
X55.390 Y55.999
X55.006 Y55.999
X54.628 Y56.075
X54.271 Y56.222
X53.950 Y56.437
X53.677 Y56.710
X53.463 Y57.031
X53.315 Y57.387
X53.240 Y57.765
X53.240 Y58.151
X53.272 Y58.309
X53.275 Y58.343
X53.271 Y58.380
X53.260 Y58.415
X53.241 Y58.447
X53.216 Y58.475
X53.186 Y58.497
X53.153 Y58.512
X53.116 Y58.519
X52.107 Y58.519
X52.071 Y58.512
X52.037 Y58.497
X52.007 Y58.475
X51.982 Y58.447
X51.964 Y58.414
X51.781 Y58.192
X51.560 Y58.010
X51.306 Y57.874
X51.068 Y57.803
X51.037 Y57.788
X51.007 Y57.767
X50.982 Y57.739
X50.963 Y57.707
X50.952 Y57.672
X50.948 Y57.639
X50.946 Y57.613
X50.943 Y57.590
X50.930 Y57.545
X50.930 Y57.545
X50.903 Y57.457
X50.837 Y57.333
X50.748 Y57.225
X50.721 Y57.203
X49.867 Y56.349
X49.848 Y56.328
X49.834 Y56.311
X49.810 Y56.291
X49.810 Y56.291
X49.727 Y56.224
X49.605 Y56.158
X49.504 Y56.127
X49.462 Y56.116
X49.357 Y56.106
X49.332 Y56.104
X49.304 Y56.106
X46.180 Y56.106
X46.144 Y56.099
X46.110 Y56.084
X46.081 Y56.063
X45.561 Y55.543
X45.539 Y55.518
X45.520 Y55.486
X45.509 Y55.451
X45.505 Y55.414
X45.509 Y55.377
X45.520 Y55.342
X45.539 Y55.309
X45.563 Y55.283
X45.694 Y55.175
X45.786 Y55.063
X45.808 Y55.038
X45.838 Y55.016
X45.872 Y55.001
X45.909 Y54.994
X45.946 Y54.994
X45.982 Y55.001
X46.016 Y55.016
X46.046 Y55.038
X46.068 Y55.063
X46.161 Y55.176
X46.383 Y55.358
X46.636 Y55.494
X46.911 Y55.577
X47.197 Y55.605
X47.483 Y55.577
X47.758 Y55.494
X48.011 Y55.358
X48.234 Y55.175
X48.326 Y55.063
X48.348 Y55.038
X48.378 Y55.016
X48.412 Y55.001
X48.449 Y54.994
X48.486 Y54.994
X48.522 Y55.001
X48.556 Y55.016
X48.586 Y55.038
X48.608 Y55.063
X48.701 Y55.176
X48.923 Y55.358
X49.176 Y55.494
X49.451 Y55.577
X49.737 Y55.605
X50.023 Y55.577
X50.298 Y55.494
X50.551 Y55.358
X50.774 Y55.175
X50.866 Y55.063
X50.888 Y55.038
X50.918 Y55.016
X50.952 Y55.001
X50.989 Y54.994
X51.026 Y54.994
X51.062 Y55.001
X51.096 Y55.016
X51.126 Y55.038
X51.148 Y55.063
X51.241 Y55.176
X51.463 Y55.358
X51.716 Y55.494
X51.991 Y55.577
X52.277 Y55.605
X52.563 Y55.577
X52.838 Y55.494
X53.091 Y55.358
X53.314 Y55.175
X53.495 Y54.954
X53.631 Y54.700
X53.715 Y54.426
X53.735 Y54.217
X53.735 Y53.063
X53.715 Y52.854
X53.631 Y52.580
X53.496 Y52.326
X53.314 Y52.104
X53.183 Y51.997
X53.159 Y51.971
X53.140 Y51.938
X53.129 Y51.903
X53.125 Y51.866
X53.129 Y51.830
X53.140 Y51.794
X53.159 Y51.762
X53.181 Y51.738
X56.876 Y48.043
X56.905 Y48.022
X56.939 Y48.006
X56.975 Y47.999
X60.575 Y47.999
X60.611 Y48.006
X60.645 Y48.022
X60.675 Y48.043
X60.700 Y48.071
X60.718 Y48.103
X60.901 Y48.326
X61.027 Y48.429
X61.051 Y48.456
X61.069 Y48.488
X61.081 Y48.523
X61.085 Y48.560
X61.081 Y48.597
X61.069 Y48.632
X61.051 Y48.664
X61.027 Y48.691
X60.901 Y48.794
X60.718 Y49.017
X60.583 Y49.270
X60.500 Y49.544
X60.471 Y49.830
X60.500 Y50.116
X60.583 Y50.390
X60.718 Y50.644
X60.901 Y50.866
X61.123 Y51.048
X61.376 Y51.184
X61.651 Y51.267
X61.873 Y51.289
X63.001 Y51.289
X63.223 Y51.267
X63.498 Y51.184
X63.751 Y51.048
X63.974 Y50.866
X64.156 Y50.644
X64.291 Y50.390
X64.374 Y50.116
X64.403 Y49.830
X64.374 Y49.544
X64.291 Y49.270
X64.156 Y49.016
X63.974 Y48.794
X63.847 Y48.691
X63.823 Y48.664
X63.805 Y48.632
X63.793 Y48.597
X63.790 Y48.560
X63.793 Y48.523
X63.805 Y48.488
X63.823 Y48.456
X63.847 Y48.429
X63.974 Y48.326
X64.156 Y48.104
X64.291 Y47.850
X64.308 Y47.794
X64.318 Y47.763
X64.337 Y47.731
X64.362 Y47.704
X64.392 Y47.682
X64.425 Y47.667
X64.462 Y47.659
X64.499 Y47.659
X64.535 Y47.667
X64.569 Y47.682
X64.598 Y47.703
X64.683 Y47.788
X64.922 Y47.948
X65.187 Y48.058
X65.469 Y48.114
X65.755 Y48.114
X65.940 Y48.077
X65.977 Y48.077
X66.013 Y48.085
X66.047 Y48.100
X66.076 Y48.121
X66.753 Y48.798
X66.775 Y48.822
X66.794 Y48.855
X66.805 Y48.890
X66.809 Y48.924
X66.809 Y51.762
X66.805 Y51.796
X66.794 Y51.831
X66.775 Y51.863
X66.749 Y51.892
X66.704 Y51.921
X66.481 Y52.104
X66.388 Y52.218
X66.366 Y52.242
X66.336 Y52.264
X66.302 Y52.279
X66.266 Y52.287
X66.228 Y52.287
X66.192 Y52.279
X66.158 Y52.264
X66.128 Y52.242
X66.106 Y52.218
X66.014 Y52.105
X65.791 Y51.922
X65.538 Y51.786
X65.264 Y51.703
X64.977 Y51.675
X64.691 Y51.703
X64.416 Y51.786
X64.163 Y51.922
X63.941 Y52.104
X63.848 Y52.218
X63.826 Y52.242
X63.796 Y52.264
X63.762 Y52.279
X63.726 Y52.287
X63.689 Y52.287
X63.652 Y52.279
X63.618 Y52.264
X63.588 Y52.242
X63.566 Y52.218
X63.474 Y52.104
X63.251 Y51.922
X62.998 Y51.786
X62.723 Y51.703
X62.437 Y51.675
X62.151 Y51.703
X61.876 Y51.786
X61.623 Y51.922
X61.401 Y52.104
X61.308 Y52.218
X61.286 Y52.242
X61.256 Y52.264
X61.222 Y52.279
X61.186 Y52.287
X61.149 Y52.287
X61.112 Y52.279
X61.078 Y52.264
X61.048 Y52.242
X61.026 Y52.218
X60.934 Y52.105
X60.711 Y51.922
X60.458 Y51.786
X60.184 Y51.703
X59.897 Y51.675
X59.611 Y51.703
X59.336 Y51.786
X59.083 Y51.922
X58.861 Y52.104
X58.768 Y52.218
X58.746 Y52.242
X58.716 Y52.264
X58.682 Y52.279
X58.646 Y52.287
X58.608 Y52.287
X58.572 Y52.279
X58.538 Y52.264
X58.508 Y52.242
X58.486 Y52.218
X58.394 Y52.104
X58.171 Y51.922
X57.918 Y51.786
X57.643 Y51.703
X57.357 Y51.675
X57.071 Y51.703
X56.796 Y51.786
X56.543 Y51.922
X56.321 Y52.104
X56.138 Y52.327
X56.003 Y52.580
X55.919 Y52.854
X55.899 Y53.063
X55.899 Y54.217
X55.919 Y54.426
X56.003 Y54.700
X56.138 Y54.954
X56.180 Y55.004
X57.150 Y55.585
X57.357 Y55.605
X57.597 Y55.581
X57.632 Y55.581
X57.668 Y55.589
X57.702 Y55.604
X57.732 Y55.626
X57.756 Y55.653
X58.103 Y56.221
X58.119 Y56.249
X58.131 Y56.285
X58.134 Y56.316
X58.134 Y56.316
X58.142 Y56.388
X58.153 Y56.494
X58.222 Y62.179
X58.210 Y62.291
X58.175 Y62.401
X58.149 Y62.445
X58.149 Y66.484
X58.145 Y66.518
X58.134 Y66.553
X58.115 Y66.586
X58.093 Y66.610
X57.843 Y66.861
X57.814 Y66.882
X57.780 Y66.897
X57.744 Y66.905
X57.707 Y66.905
X57.670 Y66.897
X57.636 Y66.882
X57.607 Y66.860
X57.582 Y66.833
X57.563 Y66.800
X57.552 Y66.765
X57.548 Y66.731
X57.548 Y66.621
X57.539 Y66.529
X57.513 Y66.442
X57.470 Y66.362
X57.413 Y66.293
X57.343 Y66.236
X57.264 Y66.193
X57.177 Y66.167
X57.071 Y66.156
X55.103 Y66.156
X54.997 Y66.167
X54.911 Y66.193
X54.831 Y66.236
X54.761 Y66.293
X54.704 Y66.362
X54.661 Y66.442
X54.635 Y66.529
X54.626 Y66.621
X54.626 Y69.615
X54.629 Y69.643
X54.757 Y69.771
X57.522 Y69.763
X57.539 Y69.708
X57.548 Y69.615
X57.548 Y68.991
X57.552 Y68.957
X57.563 Y68.922
X57.582 Y68.889
X57.607 Y68.862
X57.636 Y68.840
X57.672 Y68.825
X57.724 Y68.816
X57.860 Y68.775
X57.983 Y68.709
X58.063 Y68.643
X58.104 Y68.604
X58.122 Y68.584
X59.030 Y67.676
X59.059 Y67.655
X59.093 Y67.640
X59.129 Y67.632
X59.167 Y67.632
X59.203 Y67.640
X59.237 Y67.655
X59.267 Y67.677
X59.291 Y67.705
X59.310 Y67.737
X59.321 Y67.772
X59.325 Y67.806
X59.325 Y69.615
X59.334 Y69.707
X59.354 Y69.771
X61.989 Y69.771
X62.247 Y69.513
X62.247 Y66.621
X62.238 Y66.529
X62.212 Y66.443
X62.169 Y66.362
X62.112 Y66.293
X62.042 Y66.235
X61.962 Y66.193
X61.876 Y66.167
X61.770 Y66.156
X61.653 Y66.156
X61.616 Y66.148
X61.582 Y66.133
X61.552 Y66.112
X61.528 Y66.084
X61.509 Y66.052
X61.498 Y66.017
X61.494 Y65.983
X61.494 Y63.275
X61.498 Y63.241
X61.509 Y63.206
X61.528 Y63.173
X61.550 Y63.149
X65.452 Y59.246
X65.494 Y59.206
X65.569 Y59.115
X65.635 Y58.992
X65.675 Y58.858
X65.689 Y58.720
X65.685 Y58.679
X65.685 Y55.518
X65.689 Y55.484
X65.700 Y55.449
X65.719 Y55.417
X65.745 Y55.388
X65.790 Y55.359
X66.014 Y55.175
X66.106 Y55.063
X66.128 Y55.038
X66.158 Y55.016
X66.192 Y55.001
X66.228 Y54.994
X66.266 Y54.994
X66.302 Y55.001
X66.336 Y55.016
X66.366 Y55.038
X66.388 Y55.063
X66.481 Y55.176
X66.703 Y55.358
X66.956 Y55.494
X67.231 Y55.577
X67.517 Y55.605
X67.803 Y55.577
X68.078 Y55.494
X68.331 Y55.358
X68.554 Y55.175
X68.736 Y54.954
X68.871 Y54.700
X68.955 Y54.426
X68.975 Y54.217
X68.975 Y53.063
X68.955 Y52.854
X68.871 Y52.580
X68.735 Y52.326
X68.554 Y52.105
X68.309 Y51.910
X68.283 Y51.891
X68.259 Y51.863
X68.240 Y51.831
X68.229 Y51.796
X68.225 Y51.762
X68.225 Y48.601
X68.229 Y48.560
X68.215 Y48.422
X68.175 Y48.288
X68.109 Y48.165
X68.033 Y48.072
X68.019 Y48.056
X67.993 Y48.035
X67.089 Y47.130
X67.067 Y47.106
X67.048 Y47.074
X67.037 Y47.038
X67.033 Y47.002
X67.036 Y46.968
X67.070 Y46.799
X67.070 Y46.511
X67.014 Y46.230
X66.904 Y45.964
X66.744 Y45.725
X66.541 Y45.522
X66.302 Y45.362
X66.150 Y45.299
X65.073 Y45.300
X64.922 Y45.362
X64.683 Y45.522
X64.480 Y45.725
X64.320 Y45.964
X64.231 Y46.179
X64.214 Y46.209
X64.189 Y46.237
X64.159 Y46.258
X64.125 Y46.274
X64.089 Y46.281
X64.052 Y46.281
X64.015 Y46.274
X63.982 Y46.258
X63.955 Y46.239
X63.751 Y46.072
X63.498 Y45.936
X63.224 Y45.853
X63.001 Y45.831
X61.873 Y45.831
X61.651 Y45.853
X61.376 Y45.936
X61.122 Y46.072
X60.901 Y46.254
X60.714 Y46.485
X60.700 Y46.509
X60.675 Y46.537
X60.645 Y46.559
X60.611 Y46.574
X60.575 Y46.581
X56.655 Y46.581
X56.627 Y46.579
X56.602 Y46.581
X56.488 Y46.592
X56.355 Y46.633
X56.234 Y46.697
X56.109 Y46.805
X56.092 Y46.824
X51.801 Y51.115
X51.774 Y51.137
X51.685 Y51.245
X51.619 Y51.369
X51.579 Y51.502
X51.569 Y51.601
X51.565 Y51.640
X51.569 Y51.681
X51.569 Y51.762
X51.565 Y51.796
X51.554 Y51.831
X51.535 Y51.863
X51.510 Y51.892
X51.464 Y51.921
X51.241 Y52.104
X51.148 Y52.218
X51.126 Y52.242
X51.096 Y52.264
X51.062 Y52.279
X51.026 Y52.287
X50.989 Y52.287
X50.952 Y52.279
X50.918 Y52.264
X50.888 Y52.242
X50.866 Y52.218
X50.774 Y52.105
X50.643 Y51.997
X50.619 Y51.971
X50.600 Y51.938
X50.589 Y51.903
X50.585 Y51.866
X50.589 Y51.830
X50.600 Y51.794
X50.619 Y51.762
X50.641 Y51.738
X59.416 Y42.962
X59.445 Y42.942
X59.479 Y42.926
X59.515 Y42.919
X60.575 Y42.919
X60.611 Y42.926
X60.645 Y42.942
X60.675 Y42.963
X60.700 Y42.991
X60.718 Y43.023
X60.901 Y43.246
X61.123 Y43.428
X61.376 Y43.564
X61.651 Y43.647
X61.873 Y43.669
X63.001 Y43.669
X63.223 Y43.647
X63.498 Y43.564
X63.751 Y43.428
X63.974 Y43.245
X64.156 Y43.024
X64.291 Y42.770
X64.374 Y42.496
X64.403 Y42.210
X64.374 Y41.924
X64.291 Y41.650
X64.156 Y41.396
X63.974 Y41.174
X63.847 Y41.071
X63.823 Y41.044
X63.805 Y41.012
X63.793 Y40.977
X63.790 Y40.940
X63.793 Y40.903
X63.805 Y40.868
X63.823 Y40.836
X63.847 Y40.809
X63.974 Y40.706
X64.062 Y40.598
X64.084 Y40.573
X64.114 Y40.552
X64.148 Y40.536
X64.184 Y40.529
X64.702 Y40.529
X64.737 Y40.532
X64.770 Y40.529
X64.906 Y40.516
X65.036 Y40.476
X65.067 Y40.466
X65.216 Y40.387
X65.316 Y40.305
X65.347 Y40.279
X65.364 Y40.259
X65.383 Y40.237
X73.089 Y32.531
X73.118 Y32.510
X73.152 Y32.495
X73.189 Y32.487
X73.225 Y32.487
X73.262 Y32.495
X73.296 Y32.510
X73.326 Y32.532
X73.350 Y32.559
X73.369 Y32.592
X73.380 Y32.627
X73.384 Y32.661
X73.384 Y34.538
X73.447 Y34.608
X73.556 Y34.798
X73.624 Y35.007
X73.647 Y35.225
X73.624 Y35.443
X73.556 Y35.652
X73.447 Y35.842
X73.384 Y35.912
X73.384 Y70.763
X73.380 Y70.797
X73.369 Y70.832
X73.350 Y70.864
X73.326 Y70.892
X73.296 Y70.913
X73.262 Y70.929
X73.225 Y70.936
X47.343 Y70.936
X47.271 Y70.968
X47.158 Y70.992
X42.636 Y70.992
X42.524 Y70.968
X42.452 Y70.936
X38.900 Y70.936
X38.828 Y70.968
X38.716 Y70.992
X37.001 Y70.992
X36.889 Y70.968
X36.817 Y70.936
X31.265 Y70.936
X31.193 Y70.968
X31.080 Y70.992
X29.351 Y70.992
X29.238 Y70.968
X29.166 Y70.936
X24.470 Y70.936
X24.398 Y70.968
X24.286 Y70.992
X19.495 Y70.992
G0 Z3.000
G0  X3.317 Y70.204
G0  Z3.000
G0   Z0
G01 F30 Z-0.100
G01 F400 X3.701 Y70.204
X4.080 Y70.129
X4.436 Y69.981
X4.757 Y69.766
X5.030 Y69.493
X5.244 Y69.172
X5.392 Y68.816
X5.467 Y68.438
X5.467 Y68.052
X5.392 Y67.674
X5.244 Y67.318
X5.030 Y66.997
X4.757 Y66.724
X4.436 Y66.509
X4.080 Y66.362
X3.701 Y66.286
X3.317 Y66.286
X2.939 Y66.362
X2.582 Y66.509
X2.261 Y66.724
X1.988 Y66.997
X1.774 Y67.318
X1.626 Y67.674
X1.551 Y68.052
X1.551 Y68.438
X1.626 Y68.816
X1.774 Y69.172
X1.988 Y69.493
X2.261 Y69.766
X2.582 Y69.981
X2.939 Y70.129
X3.317 Y70.204
G0 Z3.000
G0  X70.246 Y69.950
G0  Z3.000
G0   Z0
G01 F30 Z-0.100
G01 F400 X70.630 Y69.950
X71.008 Y69.874
X71.365 Y69.727
X71.686 Y69.512
X71.959 Y69.239
X72.173 Y68.919
X72.321 Y68.562
X72.396 Y68.184
X72.396 Y67.798
X72.321 Y67.420
X72.173 Y67.064
X71.959 Y66.743
X71.686 Y66.470
X71.365 Y66.255
X71.008 Y66.108
X70.630 Y66.032
X70.246 Y66.032
X69.868 Y66.108
X69.511 Y66.255
X69.190 Y66.470
X68.917 Y66.743
X68.703 Y67.064
X68.555 Y67.420
X68.480 Y67.798
X68.480 Y68.184
X68.555 Y68.562
X68.703 Y68.919
X68.917 Y69.239
X69.190 Y69.512
X69.511 Y69.727
X69.868 Y69.874
X70.246 Y69.950
G0 Z3.000
G0  X37.288 Y69.898
G0  Z3.000
G0   Z0
G01 F30 Z-0.100
G01 F400 X38.429 Y69.898
X39.402 Y68.924
X39.412 Y68.823
X39.412 Y67.667
X39.391 Y67.459
X39.308 Y67.185
X39.272 Y67.117
X39.260 Y67.082
X39.257 Y67.045
X39.260 Y67.008
X39.272 Y66.973
X39.290 Y66.942
X39.353 Y66.864
X39.375 Y66.839
X39.405 Y66.818
X39.440 Y66.802
X39.444 Y66.801
X39.444 Y66.695
X41.544 Y66.695
X41.544 Y66.795
X43.921 Y66.795
X43.958 Y66.802
X43.992 Y66.818
X44.022 Y66.839
X44.046 Y66.867
X44.065 Y66.899
X44.076 Y66.934
X44.080 Y66.968
X44.080 Y69.742
X44.089 Y69.834
X44.109 Y69.898
X46.871 Y69.898
X46.999 Y69.770
X47.002 Y69.742
X47.002 Y67.113
X47.006 Y67.079
X47.017 Y67.043
X47.036 Y67.011
X47.059 Y66.985
X47.230 Y66.837
X47.258 Y66.818
X47.291 Y66.802
X47.328 Y66.795
X47.647 Y66.795
X47.756 Y66.746
X47.971 Y66.701
X48.191 Y66.701
X48.410 Y66.752
X48.451 Y66.738
X48.477 Y66.727
X48.520 Y66.701
X48.571 Y66.672
X48.597 Y66.654
X48.632 Y66.621
X48.672 Y66.588
X48.701 Y66.553
X49.353 Y65.818
X49.374 Y65.794
X49.404 Y65.773
X49.438 Y65.758
X49.474 Y65.750
X49.509 Y65.750
X49.681 Y65.767
X50.809 Y65.767
X51.031 Y65.745
X51.306 Y65.662
X51.559 Y65.526
X51.782 Y65.344
X51.964 Y65.122
X52.099 Y64.868
X52.183 Y64.594
X52.211 Y64.308
X52.183 Y64.022
X52.099 Y63.748
X51.964 Y63.494
X51.781 Y63.272
X51.559 Y63.090
X51.306 Y62.954
X51.032 Y62.871
X50.809 Y62.849
X49.681 Y62.849
X49.459 Y62.871
X49.184 Y62.954
X48.931 Y63.090
X48.709 Y63.272
X48.555 Y63.460
X48.533 Y63.484
X48.503 Y63.506
X48.469 Y63.521
X48.433 Y63.529
X48.396 Y63.529
X48.359 Y63.521
X48.325 Y63.506
X48.295 Y63.484
X48.271 Y63.457
X48.254 Y63.428
X48.154 Y63.240
X47.972 Y63.019
X47.749 Y62.836
X47.496 Y62.700
X47.222 Y62.617
X46.999 Y62.595
X45.871 Y62.595
X45.649 Y62.617
X45.374 Y62.700
X45.121 Y62.836
X44.899 Y63.018
X44.716 Y63.241
X44.581 Y63.494
X44.498 Y63.768
X44.469 Y64.054
X44.498 Y64.340
X44.581 Y64.614
X44.716 Y64.868
X44.741 Y64.897
X44.758 Y64.928
X44.770 Y64.963
X44.774 Y65.000
X44.770 Y65.037
X44.758 Y65.072
X44.740 Y65.105
X44.717 Y65.130
X44.485 Y65.335
X44.457 Y65.355
X44.423 Y65.370
X44.387 Y65.377
X44.355 Y65.377
X39.160 Y65.376
X39.078 Y65.377
X39.035 Y65.378
X38.991 Y65.378
X38.955 Y65.386
X38.930 Y65.388
X38.901 Y65.397
X38.856 Y65.407
X38.819 Y65.407
X38.783 Y65.399
X38.749 Y65.384
X38.746 Y65.382
X38.746 Y65.385
X38.735 Y65.421
X38.716 Y65.453
X38.692 Y65.479
X38.653 Y65.511
X38.630 Y65.528
X38.612 Y65.540
X38.589 Y65.564
X38.565 Y65.584
X38.546 Y65.607
X38.524 Y65.634
X38.469 Y65.702
X38.059 Y66.213
X38.037 Y66.237
X38.007 Y66.259
X37.973 Y66.274
X37.939 Y66.281
X37.668 Y66.308
X37.393 Y66.391
X37.140 Y66.527
X36.918 Y66.709
X36.735 Y66.931
X36.600 Y67.185
X36.517 Y67.459
X36.496 Y67.668
X36.496 Y68.822
X36.517 Y69.031
X36.558 Y69.167
X37.288 Y69.898
G0 Z3.000
G0  X29.638 Y69.898
G0  Z3.000
G0   Z0
G01 F30 Z-0.100
G01 F400 X30.793 Y69.898
X31.767 Y68.924
X31.777 Y68.822
X31.777 Y67.668
X31.756 Y67.459
X31.673 Y67.185
X31.641 Y67.125
X31.630 Y67.090
X31.626 Y67.053
X31.630 Y67.016
X31.641 Y66.981
X31.659 Y66.950
X31.729 Y66.864
X31.751 Y66.839
X31.781 Y66.818
X31.809 Y66.805
X31.809 Y66.695
X33.909 Y66.695
X33.909 Y66.795
X35.502 Y66.795
X35.541 Y66.797
X35.597 Y66.789
X35.677 Y66.779
X35.732 Y66.759
X35.788 Y66.742
X35.809 Y66.734
X35.857 Y66.705
X35.928 Y66.665
X35.971 Y66.627
X36.017 Y66.589
X36.040 Y66.560
X36.059 Y66.539
X37.200 Y65.303
X37.230 Y65.282
X37.264 Y65.266
X37.300 Y65.259
X38.109 Y65.259
X38.331 Y65.237
X38.521 Y65.179
X38.554 Y65.172
X38.591 Y65.172
X38.627 Y65.180
X38.661 Y65.195
X38.664 Y65.197
X38.664 Y65.194
X38.675 Y65.158
X38.694 Y65.126
X38.719 Y65.099
X38.747 Y65.078
X38.859 Y65.018
X39.082 Y64.835
X39.264 Y64.614
X39.399 Y64.360
X39.483 Y64.086
X39.511 Y63.800
X39.483 Y63.514
X39.399 Y63.240
X39.264 Y62.986
X39.081 Y62.764
X38.859 Y62.582
X38.606 Y62.446
X38.331 Y62.363
X38.109 Y62.341
X36.981 Y62.341
X36.759 Y62.363
X36.484 Y62.446
X36.231 Y62.582
X36.009 Y62.764
X35.826 Y62.986
X35.691 Y63.240
X35.608 Y63.514
X35.579 Y63.800
X35.608 Y64.086
X35.663 Y64.267
X35.691 Y64.360
X35.803 Y64.571
X35.815 Y64.605
X35.819 Y64.642
X35.815 Y64.679
X35.803 Y64.714
X35.785 Y64.746
X35.763 Y64.770
X35.244 Y65.333
X35.214 Y65.355
X35.180 Y65.370
X35.144 Y65.377
X31.521 Y65.377
X31.417 Y65.377
X31.365 Y65.380
X31.338 Y65.386
X31.310 Y65.388
X31.284 Y65.396
X31.258 Y65.402
X31.232 Y65.409
X31.205 Y65.420
X31.177 Y65.429
X31.154 Y65.441
X31.129 Y65.452
X31.108 Y65.462
X31.081 Y65.480
X31.053 Y65.495
X31.035 Y65.509
X31.012 Y65.526
X30.994 Y65.539
X30.971 Y65.562
X30.945 Y65.584
X30.931 Y65.600
X30.905 Y65.632
X30.850 Y65.700
X30.434 Y66.212
X30.412 Y66.236
X30.382 Y66.258
X30.348 Y66.273
X30.314 Y66.280
X30.032 Y66.308
X29.758 Y66.391
X29.505 Y66.527
X29.282 Y66.709
X29.100 Y66.931
X28.964 Y67.185
X28.881 Y67.459
X28.861 Y67.668
X28.861 Y68.822
X28.881 Y69.031
X28.929 Y69.189
X29.638 Y69.898
G0 Z3.000
G0  X21.237 Y69.898
G0  Z3.000
G0   Z0
G01 F30 Z-0.100
G01 F400 X23.999 Y69.898
X24.127 Y69.770
X24.129 Y69.742
X24.129 Y66.748
X24.120 Y66.656
X24.094 Y66.570
X24.051 Y66.490
X23.994 Y66.420
X23.924 Y66.362
X23.845 Y66.320
X23.758 Y66.294
X23.652 Y66.283
X23.535 Y66.283
X23.498 Y66.276
X23.465 Y66.261
X23.435 Y66.239
X23.410 Y66.211
X23.391 Y66.179
X23.380 Y66.144
X23.376 Y66.109
X23.376 Y65.903
X23.380 Y65.868
X23.391 Y65.833
X23.410 Y65.801
X23.435 Y65.773
X23.465 Y65.752
X23.497 Y65.737
X23.747 Y65.662
X24.000 Y65.526
X24.223 Y65.344
X24.405 Y65.122
X24.540 Y64.868
X24.623 Y64.594
X24.652 Y64.308
X24.623 Y64.022
X24.540 Y63.748
X24.405 Y63.494
X24.223 Y63.272
X24.000 Y63.090
X23.747 Y62.954
X23.472 Y62.871
X23.250 Y62.849
X22.122 Y62.849
X21.900 Y62.871
X21.625 Y62.954
X21.372 Y63.090
X21.150 Y63.272
X20.967 Y63.495
X20.832 Y63.748
X20.748 Y64.022
X20.720 Y64.308
X20.748 Y64.594
X20.832 Y64.868
X20.967 Y65.121
X21.150 Y65.344
X21.372 Y65.526
X21.625 Y65.662
X21.840 Y65.727
X21.872 Y65.741
X21.902 Y65.763
X21.927 Y65.790
X21.945 Y65.822
X21.957 Y65.858
X21.960 Y65.892
X21.960 Y66.109
X21.957 Y66.144
X21.945 Y66.179
X21.927 Y66.211
X21.902 Y66.239
X21.872 Y66.261
X21.838 Y66.276
X21.802 Y66.283
X21.684 Y66.283
X21.578 Y66.294
X21.492 Y66.320
X21.412 Y66.362
X21.342 Y66.420
X21.285 Y66.489
X21.242 Y66.569
X21.216 Y66.656
X21.207 Y66.748
X21.207 Y69.742
X21.216 Y69.834
X21.237 Y69.898
G0 Z3.000
G0  X44.491 Y69.795
G0  Z3.000
G0   Z0
G01 F30 Z-0.100
G01 F400 X44.491 Y66.695
X45.853 Y66.695
X46.819 Y65.861
X46.867 Y65.826
X46.924 Y65.800
X46.986 Y65.787
X48.033 Y65.787
X48.855 Y64.861
X48.835 Y64.833
X48.746 Y64.633
X48.701 Y64.418
X48.701 Y64.198
X48.746 Y63.983
X48.835 Y63.783
X48.965 Y63.605
X49.128 Y63.458
X49.318 Y63.349
X49.527 Y63.281
X49.742 Y63.258
X50.748 Y63.258
X50.963 Y63.281
X51.172 Y63.349
X51.362 Y63.458
X51.526 Y63.605
X51.655 Y63.783
X51.744 Y63.983
X51.790 Y64.198
X51.790 Y64.418
X51.744 Y64.633
X51.655 Y64.833
X51.526 Y65.011
X51.362 Y65.158
X51.172 Y65.267
X50.963 Y65.335
X50.748 Y65.358
X49.742 Y65.358
X49.527 Y65.335
X49.318 Y65.267
X49.302 Y65.258
X48.407 Y66.266
X48.369 Y66.309
X48.318 Y66.346
X48.261 Y66.372
X48.199 Y66.385
X47.130 Y66.385
X46.591 Y66.850
X46.591 Y69.795
X44.491 Y69.795
G0 Z3.000
G0  X21.618 Y69.795
G0  Z3.000
G0   Z0
G01 F30 Z-0.100
G01 F400 X21.618 Y66.695
X22.368 Y66.695
X22.368 Y65.358
X22.183 Y65.358
X21.968 Y65.335
X21.759 Y65.267
X21.569 Y65.158
X21.405 Y65.011
X21.276 Y64.833
X21.187 Y64.633
X21.142 Y64.418
X21.142 Y64.198
X21.187 Y63.983
X21.276 Y63.783
X21.405 Y63.605
X21.569 Y63.458
X21.759 Y63.349
X21.968 Y63.281
X22.183 Y63.258
X23.189 Y63.258
X23.404 Y63.281
X23.613 Y63.349
X23.803 Y63.458
X23.966 Y63.605
X24.096 Y63.783
X24.185 Y63.983
X24.231 Y64.198
X24.231 Y64.418
X24.185 Y64.633
X24.096 Y64.833
X23.966 Y65.011
X23.803 Y65.158
X23.613 Y65.267
X23.404 Y65.335
X23.189 Y65.358
X22.968 Y65.358
X22.968 Y66.695
X23.718 Y66.695
X23.718 Y69.795
X21.618 Y69.795
G0 Z3.000
G0  X37.844 Y69.790
G0  Z3.000
G0   Z0
G01 F30 Z-0.100
G01 F400 X37.629 Y69.744
X37.429 Y69.655
X37.251 Y69.526
X37.104 Y69.362
X36.995 Y69.172
X36.927 Y68.963
X36.904 Y68.748
X36.904 Y67.742
X36.927 Y67.527
X36.995 Y67.318
X37.104 Y67.128
X37.251 Y66.965
X37.429 Y66.835
X37.629 Y66.746
X37.844 Y66.701
X38.064 Y66.701
X38.173 Y66.724
X38.829 Y65.907
X38.868 Y65.863
X38.919 Y65.826
X38.976 Y65.800
X39.038 Y65.787
X44.587 Y65.787
X45.478 Y64.996
X45.318 Y64.904
X45.154 Y64.757
X45.025 Y64.579
X44.936 Y64.379
X44.891 Y64.164
X44.891 Y63.944
X44.936 Y63.729
X45.025 Y63.529
X45.154 Y63.351
X45.318 Y63.204
X45.508 Y63.095
X45.717 Y63.027
X45.932 Y63.004
X46.938 Y63.004
X47.153 Y63.027
X47.362 Y63.095
X47.552 Y63.204
X47.716 Y63.351
X47.845 Y63.529
X47.934 Y63.729
X47.980 Y63.944
X47.980 Y64.164
X47.934 Y64.379
X47.845 Y64.579
X47.716 Y64.757
X47.552 Y64.904
X47.362 Y65.014
X47.153 Y65.081
X46.938 Y65.104
X46.273 Y65.104
X44.901 Y66.311
X44.852 Y66.346
X44.795 Y66.372
X44.733 Y66.385
X39.214 Y66.385
X38.705 Y67.018
X38.804 Y67.128
X38.913 Y67.318
X38.981 Y67.527
X39.004 Y67.742
X39.004 Y68.748
X38.981 Y68.963
X38.913 Y69.172
X38.804 Y69.362
X38.657 Y69.526
X38.479 Y69.655
X38.279 Y69.744
X38.064 Y69.790
X37.844 Y69.790
G0 Z3.000
G0  X30.209 Y69.790
G0  Z3.000
G0   Z0
G01 F30 Z-0.100
G01 F400 X29.994 Y69.744
X29.794 Y69.655
X29.616 Y69.526
X29.469 Y69.362
X29.359 Y69.172
X29.291 Y68.963
X29.269 Y68.748
X29.269 Y67.742
X29.291 Y67.527
X29.359 Y67.318
X29.469 Y67.128
X29.616 Y66.965
X29.794 Y66.835
X29.994 Y66.746
X30.209 Y66.701
X30.429 Y66.701
X30.543 Y66.725
X31.209 Y65.907
X31.248 Y65.863
X31.299 Y65.826
X31.356 Y65.800
X31.418 Y65.787
X35.382 Y65.787
X36.431 Y64.651
X36.428 Y64.650
X36.265 Y64.503
X36.135 Y64.325
X36.046 Y64.125
X36.001 Y63.910
X36.001 Y63.690
X36.046 Y63.475
X36.135 Y63.275
X36.265 Y63.097
X36.428 Y62.950
X36.618 Y62.841
X36.827 Y62.773
X37.042 Y62.750
X38.048 Y62.750
X38.263 Y62.773
X38.472 Y62.841
X38.662 Y62.950
X38.826 Y63.097
X38.955 Y63.275
X39.044 Y63.475
X39.090 Y63.690
X39.090 Y63.910
X39.044 Y64.125
X38.955 Y64.325
X38.826 Y64.503
X38.662 Y64.650
X38.472 Y64.760
X38.263 Y64.827
X38.048 Y64.850
X37.061 Y64.849
X35.714 Y66.309
X35.663 Y66.346
X35.606 Y66.372
X35.544 Y66.385
X31.592 Y66.385
X31.074 Y67.022
X31.168 Y67.128
X31.278 Y67.318
X31.346 Y67.527
X31.369 Y67.742
X31.369 Y68.748
X31.346 Y68.963
X31.278 Y69.172
X31.168 Y69.362
X31.022 Y69.526
X30.844 Y69.655
X30.643 Y69.744
X30.429 Y69.790
X30.209 Y69.790
G0 Z3.000
G0  X59.736 Y69.668
G0  Z3.000
G0   Z0
G01 F30 Z-0.100
G01 F400 X59.736 Y66.568
X60.486 Y66.568
X60.486 Y62.908
X60.492 Y62.849
X60.512 Y62.789
X60.543 Y62.735
X60.582 Y62.691
X64.677 Y58.596
X64.677 Y55.144
X64.652 Y55.139
X64.452 Y55.050
X64.274 Y54.921
X64.127 Y54.757
X64.017 Y54.567
X63.950 Y54.358
X63.927 Y54.143
X63.927 Y53.137
X63.950 Y52.922
X64.017 Y52.713
X64.127 Y52.523
X64.274 Y52.360
X64.452 Y52.230
X64.652 Y52.141
X64.867 Y52.096
X65.087 Y52.096
X65.302 Y52.141
X65.502 Y52.230
X65.680 Y52.360
X65.827 Y52.523
X65.937 Y52.713
X66.004 Y52.922
X66.027 Y53.137
X66.027 Y54.143
X66.004 Y54.358
X65.937 Y54.567
X65.827 Y54.757
X65.680 Y54.921
X65.502 Y55.050
X65.302 Y55.139
X65.277 Y55.144
X65.277 Y58.723
X65.271 Y58.782
X65.251 Y58.842
X65.220 Y58.897
X65.181 Y58.940
X61.086 Y63.035
X61.086 Y66.568
X61.836 Y66.568
X61.836 Y69.668
X59.736 Y69.668
G0 Z3.000
G0  X55.037 Y69.668
G0  Z3.000
G0   Z0
G01 F30 Z-0.100
G01 F400 X55.037 Y66.568
X57.137 Y66.568
X57.137 Y67.819
X57.462 Y67.819
X58.557 Y66.724
X58.557 Y57.141
X58.539 Y56.151
X57.870 Y55.055
X57.682 Y55.139
X57.467 Y55.184
X57.247 Y55.184
X57.032 Y55.139
X56.832 Y55.050
X56.654 Y54.921
X56.507 Y54.757
X56.398 Y54.567
X56.330 Y54.358
X56.307 Y54.143
X56.307 Y53.137
X56.330 Y52.922
X56.398 Y52.713
X56.507 Y52.523
X56.654 Y52.360
X56.832 Y52.230
X57.032 Y52.141
X57.247 Y52.096
X57.467 Y52.096
X57.682 Y52.141
X57.882 Y52.230
X58.060 Y52.360
X58.207 Y52.523
X58.317 Y52.713
X58.384 Y52.922
X58.407 Y53.137
X58.407 Y54.143
X58.384 Y54.358
X58.317 Y54.567
X58.296 Y54.603
X59.083 Y55.893
X59.112 Y55.943
X59.132 Y56.003
X59.138 Y56.062
X59.157 Y57.140
X59.157 Y66.851
X59.151 Y66.910
X59.131 Y66.970
X59.100 Y67.025
X59.061 Y67.068
X57.787 Y68.342
X57.737 Y68.378
X57.680 Y68.404
X57.618 Y68.417
X57.137 Y68.417
X57.137 Y69.668
X55.037 Y69.668
G0 Z3.000
G0  X49.742 Y60.278
G0  Z3.000
G0   Z0
G01 F30 Z-0.100
G01 F400 X49.527 Y60.255
X49.318 Y60.188
X49.128 Y60.078
X48.965 Y59.931
X48.835 Y59.753
X48.746 Y59.553
X48.701 Y59.338
X48.701 Y59.118
X48.746 Y58.903
X48.835 Y58.703
X48.965 Y58.525
X49.128 Y58.378
X49.318 Y58.269
X49.527 Y58.201
X49.742 Y58.178
X49.945 Y58.178
X49.945 Y57.852
X49.207 Y57.114
X45.801 Y57.114
X45.739 Y57.101
X45.682 Y57.075
X45.632 Y57.039
X44.453 Y55.860
X44.414 Y55.817
X44.383 Y55.762
X44.363 Y55.702
X44.357 Y55.643
X44.357 Y55.144
X44.332 Y55.139
X44.132 Y55.050
X43.954 Y54.921
X43.807 Y54.757
X43.698 Y54.567
X43.630 Y54.358
X43.607 Y54.143
X43.607 Y53.137
X43.630 Y52.922
X43.698 Y52.713
X43.807 Y52.523
X43.954 Y52.360
X44.132 Y52.230
X44.332 Y52.141
X44.547 Y52.096
X44.767 Y52.096
X44.982 Y52.141
X45.182 Y52.230
X45.360 Y52.360
X45.507 Y52.523
X45.617 Y52.713
X45.684 Y52.922
X45.707 Y53.137
X45.707 Y54.143
X45.684 Y54.358
X45.617 Y54.567
X45.507 Y54.757
X45.360 Y54.921
X45.182 Y55.050
X44.982 Y55.139
X44.957 Y55.144
X44.957 Y55.516
X45.957 Y56.516
X49.363 Y56.516
X49.425 Y56.529
X49.482 Y56.555
X49.532 Y56.591
X50.449 Y57.508
X50.488 Y57.552
X50.519 Y57.606
X50.539 Y57.666
X50.545 Y57.725
X50.545 Y58.178
X50.748 Y58.178
X50.963 Y58.201
X51.172 Y58.269
X51.362 Y58.378
X51.526 Y58.525
X51.655 Y58.703
X51.744 Y58.903
X51.749 Y58.929
X53.998 Y58.929
X53.944 Y58.869
X53.782 Y58.589
X53.682 Y58.280
X53.648 Y57.958
X53.682 Y57.636
X53.782 Y57.327
X53.944 Y57.047
X54.161 Y56.806
X54.423 Y56.615
X54.719 Y56.484
X55.036 Y56.416
X55.360 Y56.416
X55.677 Y56.484
X55.973 Y56.615
X56.235 Y56.806
X56.452 Y57.047
X56.614 Y57.327
X56.714 Y57.636
X56.748 Y57.958
X56.714 Y58.280
X56.614 Y58.589
X56.452 Y58.869
X56.235 Y59.110
X55.973 Y59.301
X55.677 Y59.432
X55.360 Y59.500
X55.036 Y59.500
X54.719 Y59.432
X54.675 Y59.413
X54.636 Y59.452
X54.586 Y59.488
X54.529 Y59.514
X54.467 Y59.527
X51.749 Y59.527
X51.744 Y59.553
X51.655 Y59.753
X51.526 Y59.931
X51.362 Y60.078
X51.172 Y60.188
X50.963 Y60.255
X50.748 Y60.278
X49.742 Y60.278
G0 Z3.000
G0  X22.183 Y60.278
G0  Z3.000
G0   Z0
G01 F30 Z-0.100
G01 F400 X21.968 Y60.255
X21.759 Y60.188
X21.569 Y60.078
X21.405 Y59.931
X21.296 Y59.781
X20.655 Y59.781
X20.593 Y59.768
X20.536 Y59.742
X20.486 Y59.706
X20.323 Y59.543
X20.284 Y59.500
X20.253 Y59.445
X20.233 Y59.385
X20.227 Y59.326
X20.227 Y48.557
X20.233 Y48.498
X20.253 Y48.438
X20.284 Y48.384
X20.323 Y48.340
X23.502 Y45.161
X23.552 Y45.125
X23.609 Y45.099
X23.671 Y45.086
X38.047 Y45.086
X53.897 Y29.236
X53.858 Y29.167
X53.790 Y28.958
X53.767 Y28.743
X53.767 Y27.737
X53.790 Y27.522
X53.858 Y27.313
X53.967 Y27.123
X54.114 Y26.960
X54.292 Y26.830
X54.492 Y26.741
X54.707 Y26.696
X54.927 Y26.696
X55.142 Y26.741
X55.342 Y26.830
X55.520 Y26.960
X55.667 Y27.123
X55.777 Y27.313
X55.844 Y27.522
X55.867 Y27.737
X55.867 Y28.743
X55.844 Y28.958
X55.777 Y29.167
X55.667 Y29.357
X55.520 Y29.521
X55.342 Y29.650
X55.142 Y29.739
X54.927 Y29.785
X54.707 Y29.785
X54.492 Y29.739
X54.320 Y29.661
X38.372 Y45.609
X38.322 Y45.645
X38.265 Y45.671
X38.203 Y45.684
X23.827 Y45.684
X20.827 Y48.684
X20.840 Y59.183
X21.142 Y59.183
X21.142 Y59.118
X21.187 Y58.903
X21.276 Y58.703
X21.405 Y58.525
X21.569 Y58.378
X21.759 Y58.269
X21.968 Y58.201
X22.183 Y58.178
X23.189 Y58.178
X23.404 Y58.201
X23.613 Y58.269
X23.803 Y58.378
X23.966 Y58.525
X24.096 Y58.703
X24.185 Y58.903
X24.231 Y59.118
X24.231 Y59.183
X25.931 Y59.183
X25.877 Y59.123
X25.715 Y58.843
X25.615 Y58.534
X25.581 Y58.212
X25.615 Y57.890
X25.715 Y57.581
X25.877 Y57.301
X26.094 Y57.060
X26.356 Y56.869
X26.652 Y56.738
X26.969 Y56.670
X27.293 Y56.670
X27.610 Y56.738
X27.906 Y56.869
X28.168 Y57.060
X28.385 Y57.301
X28.547 Y57.581
X28.647 Y57.890
X28.681 Y58.212
X28.647 Y58.534
X28.547 Y58.843
X28.385 Y59.123
X28.168 Y59.364
X27.906 Y59.555
X27.610 Y59.686
X27.293 Y59.754
X26.969 Y59.754
X26.652 Y59.686
X26.520 Y59.628
X26.442 Y59.706
X26.392 Y59.742
X26.335 Y59.768
X26.273 Y59.781
X24.076 Y59.781
X23.966 Y59.931
X23.803 Y60.078
X23.613 Y60.188
X23.404 Y60.255
X23.189 Y60.278
X22.183 Y60.278
G0 Z3.000
G0  X45.932 Y60.024
G0  Z3.000
G0   Z0
G01 F30 Z-0.100
G01 F400 X45.717 Y60.001
X45.508 Y59.934
X45.318 Y59.824
X45.154 Y59.677
X45.138 Y59.654
X43.229 Y59.654
X43.167 Y59.641
X43.110 Y59.615
X43.060 Y59.579
X42.975 Y59.494
X42.892 Y59.555
X42.596 Y59.686
X42.279 Y59.754
X41.955 Y59.754
X41.638 Y59.686
X41.342 Y59.555
X41.080 Y59.364
X40.863 Y59.123
X40.701 Y58.843
X40.601 Y58.534
X40.567 Y58.212
X40.601 Y57.890
X40.701 Y57.581
X40.863 Y57.301
X41.080 Y57.060
X41.342 Y56.869
X41.638 Y56.738
X41.817 Y56.700
X41.817 Y55.144
X41.792 Y55.139
X41.592 Y55.050
X41.414 Y54.921
X41.267 Y54.757
X41.157 Y54.567
X41.090 Y54.358
X41.067 Y54.143
X41.067 Y53.137
X41.090 Y52.922
X41.157 Y52.713
X41.267 Y52.523
X41.414 Y52.360
X41.592 Y52.230
X41.792 Y52.141
X42.007 Y52.096
X42.227 Y52.096
X42.442 Y52.141
X42.642 Y52.230
X42.820 Y52.360
X42.967 Y52.523
X43.077 Y52.713
X43.144 Y52.922
X43.167 Y53.137
X43.167 Y54.143
X43.144 Y54.358
X43.077 Y54.567
X42.967 Y54.757
X42.820 Y54.921
X42.642 Y55.050
X42.442 Y55.139
X42.417 Y55.144
X42.417 Y56.700
X42.596 Y56.738
X42.892 Y56.869
X43.154 Y57.060
X43.371 Y57.301
X43.533 Y57.581
X43.633 Y57.890
X43.667 Y58.212
X43.633 Y58.534
X43.533 Y58.843
X43.410 Y59.056
X44.891 Y59.056
X44.891 Y58.864
X44.936 Y58.649
X45.025 Y58.449
X45.154 Y58.271
X45.318 Y58.124
X45.508 Y58.015
X45.717 Y57.947
X45.932 Y57.924
X46.938 Y57.924
X47.153 Y57.947
X47.362 Y58.015
X47.552 Y58.124
X47.716 Y58.271
X47.845 Y58.449
X47.934 Y58.649
X47.980 Y58.864
X47.980 Y59.084
X47.934 Y59.299
X47.845 Y59.499
X47.716 Y59.677
X47.552 Y59.824
X47.362 Y59.934
X47.153 Y60.001
X46.938 Y60.024
X45.932 Y60.024
G0 Z3.000
G0  X37.042 Y59.770
G0  Z3.000
G0   Z0
G01 F30 Z-0.100
G01 F400 X36.827 Y59.747
X36.618 Y59.680
X36.428 Y59.570
X36.265 Y59.423
X36.135 Y59.245
X36.046 Y59.044
X36.041 Y59.019
X34.542 Y59.019
X34.481 Y59.123
X34.264 Y59.364
X34.002 Y59.555
X33.706 Y59.686
X33.389 Y59.754
X33.065 Y59.754
X32.748 Y59.686
X32.452 Y59.555
X32.190 Y59.364
X31.973 Y59.123
X31.811 Y58.843
X31.711 Y58.534
X31.677 Y58.212
X31.711 Y57.890
X31.811 Y57.581
X31.973 Y57.301
X32.190 Y57.060
X32.452 Y56.869
X32.748 Y56.738
X33.065 Y56.670
X33.389 Y56.670
X33.706 Y56.738
X34.002 Y56.869
X34.264 Y57.060
X34.481 Y57.301
X34.643 Y57.581
X34.743 Y57.890
X34.777 Y58.212
X34.755 Y58.421
X36.041 Y58.421
X36.046 Y58.395
X36.135 Y58.195
X36.265 Y58.017
X36.428 Y57.870
X36.618 Y57.761
X36.827 Y57.693
X37.042 Y57.670
X37.245 Y57.670
X37.245 Y57.669
X37.251 Y57.610
X37.271 Y57.550
X37.302 Y57.495
X37.341 Y57.452
X39.277 Y55.516
X39.277 Y55.144
X39.252 Y55.139
X39.052 Y55.050
X38.874 Y54.921
X38.727 Y54.757
X38.617 Y54.567
X38.550 Y54.358
X38.527 Y54.143
X38.527 Y53.137
X38.550 Y52.922
X38.617 Y52.713
X38.727 Y52.523
X38.874 Y52.360
X39.052 Y52.230
X39.252 Y52.141
X39.467 Y52.096
X39.687 Y52.096
X39.902 Y52.141
X40.102 Y52.230
X40.280 Y52.360
X40.427 Y52.523
X40.537 Y52.713
X40.604 Y52.922
X40.627 Y53.137
X40.627 Y54.143
X40.604 Y54.358
X40.537 Y54.567
X40.427 Y54.757
X40.280 Y54.921
X40.102 Y55.050
X39.902 Y55.139
X39.877 Y55.144
X39.877 Y55.643
X39.871 Y55.702
X39.851 Y55.762
X39.820 Y55.817
X39.781 Y55.860
X37.971 Y57.670
X38.048 Y57.670
X38.263 Y57.693
X38.472 Y57.761
X38.662 Y57.870
X38.826 Y58.017
X38.955 Y58.195
X39.044 Y58.395
X39.090 Y58.610
X39.090 Y58.830
X39.044 Y59.045
X38.955 Y59.245
X38.826 Y59.423
X38.662 Y59.570
X38.472 Y59.680
X38.263 Y59.747
X38.048 Y59.770
X37.042 Y59.770
G0 Z3.000
G0  X3.102 Y57.730
G0  Z3.000
G0   Z0
G01 F30 Z-0.100
G01 F400 X3.102 Y57.225
X2.447 Y57.225
X2.232 Y57.179
X2.031 Y57.090
X1.855 Y56.961
X1.112 Y56.218
X0.967 Y56.058
X0.858 Y55.868
X0.790 Y55.659
X0.767 Y55.443
X0.767 Y16.490
X0.790 Y16.274
X0.858 Y16.066
X0.967 Y15.876
X1.112 Y15.715
X3.728 Y13.099
X3.722 Y13.038
X3.755 Y12.716
X3.856 Y12.408
X4.018 Y12.127
X4.237 Y11.890
X4.237 Y7.282
X4.260 Y7.067
X4.328 Y6.858
X4.437 Y6.668
X4.582 Y6.507
X6.142 Y4.947
X6.142 Y2.837
X6.165 Y2.622
X6.232 Y2.413
X6.342 Y2.223
X6.487 Y2.062
X7.760 Y0.789
X7.937 Y0.660
X8.137 Y0.571
X8.352 Y0.526
X48.267 Y0.526
X48.482 Y0.571
X48.682 Y0.660
X48.859 Y0.789
X52.982 Y4.912
X53.127 Y5.073
X53.236 Y5.263
X53.304 Y5.472
X53.327 Y5.687
X53.331 Y11.866
X53.531 Y12.089
X53.693 Y12.369
X53.793 Y12.678
X53.827 Y13.000
X53.793 Y13.322
X53.693 Y13.631
X53.531 Y13.911
X53.314 Y14.152
X53.052 Y14.343
X52.756 Y14.474
X52.439 Y14.542
X52.115 Y14.542
X51.798 Y14.474
X51.502 Y14.343
X51.240 Y14.152
X51.023 Y13.911
X50.861 Y13.631
X50.761 Y13.322
X50.727 Y13.000
X50.761 Y12.678
X50.861 Y12.369
X51.023 Y12.089
X51.227 Y11.863
X51.227 Y6.123
X47.718 Y2.615
X30.467 Y2.615
X30.467 Y9.190
X30.473 Y11.866
X30.674 Y12.089
X30.836 Y12.369
X30.936 Y12.678
X30.970 Y13.000
X30.936 Y13.322
X30.836 Y13.631
X30.674 Y13.911
X30.457 Y14.152
X30.195 Y14.343
X29.899 Y14.474
X29.582 Y14.542
X29.258 Y14.542
X28.941 Y14.474
X28.644 Y14.343
X28.382 Y14.152
X28.165 Y13.911
X28.003 Y13.631
X27.903 Y13.322
X27.869 Y13.000
X27.903 Y12.678
X28.003 Y12.369
X28.165 Y12.089
X28.367 Y11.865
X28.367 Y2.615
X8.901 Y2.615
X8.242 Y3.273
X8.242 Y5.383
X8.219 Y5.598
X8.152 Y5.807
X8.042 Y5.997
X7.897 Y6.158
X6.337 Y7.718
X6.337 Y11.917
X6.526 Y12.127
X6.688 Y12.408
X6.788 Y12.716
X6.822 Y13.038
X6.788 Y13.360
X6.688 Y13.669
X6.526 Y13.949
X6.309 Y14.190
X6.047 Y14.381
X5.751 Y14.513
X5.434 Y14.580
X5.213 Y14.580
X2.867 Y16.926
X2.867 Y26.309
X4.305 Y26.309
X4.305 Y29.409
X2.867 Y29.409
X2.867 Y55.007
X2.995 Y55.136
X3.102 Y55.136
X3.102 Y54.630
X6.202 Y54.630
X6.202 Y57.730
X3.102 Y57.730
G0 Z3.000
G0  X23.287 Y55.190
G0  Z3.000
G0   Z0
G01 F30 Z-0.100
G01 F400 X23.287 Y52.090
X25.387 Y52.090
X25.387 Y55.190
X23.287 Y55.190
G0 Z3.000
G0  X34.387 Y55.184
G0  Z3.000
G0   Z0
G01 F30 Z-0.100
G01 F400 X34.172 Y55.139
X33.972 Y55.050
X33.794 Y54.921
X33.647 Y54.757
X33.538 Y54.567
X33.470 Y54.358
X33.447 Y54.143
X33.447 Y53.137
X33.470 Y52.922
X33.538 Y52.713
X33.647 Y52.523
X33.794 Y52.360
X33.972 Y52.230
X34.172 Y52.141
X34.387 Y52.096
X34.607 Y52.096
X34.822 Y52.141
X35.022 Y52.230
X35.200 Y52.360
X35.347 Y52.523
X35.456 Y52.713
X35.524 Y52.922
X35.547 Y53.137
X35.547 Y54.143
X35.524 Y54.358
X35.456 Y54.567
X35.347 Y54.757
X35.200 Y54.921
X35.022 Y55.050
X34.822 Y55.139
X34.607 Y55.184
X34.387 Y55.184
G0 Z3.000
G0  X36.927 Y55.184
G0  Z3.000
G0   Z0
G01 F30 Z-0.100
G01 F400 X36.712 Y55.139
X36.512 Y55.050
X36.334 Y54.921
X36.187 Y54.757
X36.078 Y54.567
X36.010 Y54.358
X35.987 Y54.143
X35.987 Y53.137
X36.010 Y52.922
X36.078 Y52.713
X36.187 Y52.523
X36.334 Y52.360
X36.512 Y52.230
X36.712 Y52.141
X36.927 Y52.096
X37.147 Y52.096
X37.362 Y52.141
X37.562 Y52.230
X37.740 Y52.360
X37.887 Y52.523
X37.997 Y52.713
X38.064 Y52.922
X38.087 Y53.137
X38.087 Y54.143
X38.064 Y54.358
X37.997 Y54.567
X37.887 Y54.757
X37.740 Y54.921
X37.562 Y55.050
X37.362 Y55.139
X37.147 Y55.184
X36.927 Y55.184
G0 Z3.000
G0  X29.307 Y55.184
G0  Z3.000
G0   Z0
G01 F30 Z-0.100
G01 F400 X29.092 Y55.139
X28.892 Y55.050
X28.714 Y54.921
X28.567 Y54.757
X28.458 Y54.567
X28.390 Y54.358
X28.367 Y54.143
X28.367 Y53.137
X28.390 Y52.922
X28.458 Y52.713
X28.567 Y52.523
X28.714 Y52.360
X28.892 Y52.230
X29.092 Y52.141
X29.307 Y52.096
X29.527 Y52.096
X29.742 Y52.141
X29.942 Y52.230
X30.120 Y52.360
X30.267 Y52.523
X30.377 Y52.713
X30.444 Y52.922
X30.467 Y53.137
X30.467 Y54.143
X30.444 Y54.358
X30.377 Y54.567
X30.267 Y54.757
X30.120 Y54.921
X29.942 Y55.050
X29.742 Y55.139
X29.527 Y55.184
X29.307 Y55.184
G0 Z3.000
G0  X31.847 Y55.184
G0  Z3.000
G0   Z0
G01 F30 Z-0.100
G01 F400 X31.632 Y55.139
X31.432 Y55.050
X31.254 Y54.921
X31.107 Y54.757
X30.998 Y54.567
X30.930 Y54.358
X30.907 Y54.143
X30.907 Y53.137
X30.930 Y52.922
X30.998 Y52.713
X31.107 Y52.523
X31.254 Y52.360
X31.432 Y52.230
X31.632 Y52.141
X31.847 Y52.096
X32.067 Y52.096
X32.282 Y52.141
X32.454 Y52.220
X54.482 Y30.191
X54.532 Y30.155
X54.589 Y30.129
X54.651 Y30.116
X69.723 Y30.116
X69.785 Y30.129
X69.842 Y30.155
X69.892 Y30.191
X70.202 Y30.490
X70.367 Y30.416
X70.582 Y30.370
X70.802 Y30.370
X71.017 Y30.416
X71.217 Y30.505
X71.395 Y30.635
X71.542 Y30.798
X71.651 Y30.988
X71.719 Y31.197
X71.742 Y31.415
X71.719 Y31.633
X71.651 Y31.842
X71.542 Y32.032
X71.395 Y32.196
X71.217 Y32.325
X71.017 Y32.414
X70.802 Y32.459
X70.582 Y32.459
X70.367 Y32.414
X70.167 Y32.325
X69.989 Y32.196
X69.842 Y32.032
X69.733 Y31.842
X69.665 Y31.633
X69.642 Y31.415
X69.665 Y31.197
X69.733 Y30.988
X69.772 Y30.919
X69.567 Y30.714
X54.807 Y30.714
X32.877 Y52.644
X32.916 Y52.713
X32.984 Y52.922
X33.007 Y53.137
X33.007 Y54.143
X32.984 Y54.358
X32.916 Y54.567
X32.807 Y54.757
X32.660 Y54.921
X32.482 Y55.050
X32.282 Y55.139
X32.067 Y55.184
X31.847 Y55.184
G0 Z3.000
G0  X47.087 Y55.184
G0  Z3.000
G0   Z0
G01 F30 Z-0.100
G01 F400 X46.872 Y55.139
X46.672 Y55.050
X46.494 Y54.921
X46.347 Y54.757
X46.238 Y54.567
X46.170 Y54.358
X46.147 Y54.143
X46.147 Y53.137
X46.170 Y52.922
X46.238 Y52.713
X46.347 Y52.523
X46.494 Y52.360
X46.672 Y52.230
X46.872 Y52.141
X46.897 Y52.136
X46.897 Y47.827
X46.903 Y47.768
X46.923 Y47.708
X46.954 Y47.654
X46.993 Y47.610
X60.237 Y34.366
X60.287 Y34.330
X60.344 Y34.304
X60.406 Y34.291
X60.933 Y34.291
X60.938 Y34.265
X61.027 Y34.065
X61.157 Y33.887
X61.320 Y33.740
X61.510 Y33.631
X61.719 Y33.563
X61.934 Y33.540
X62.940 Y33.540
X63.155 Y33.563
X63.364 Y33.631
X63.554 Y33.740
X63.718 Y33.887
X63.847 Y34.065
X63.936 Y34.265
X63.982 Y34.480
X63.982 Y34.700
X63.936 Y34.915
X63.847 Y35.115
X63.718 Y35.293
X63.554 Y35.440
X63.364 Y35.550
X63.155 Y35.617
X62.940 Y35.640
X61.934 Y35.640
X61.719 Y35.617
X61.510 Y35.550
X61.320 Y35.440
X61.157 Y35.293
X61.027 Y35.115
X60.938 Y34.915
X60.933 Y34.889
X60.562 Y34.889
X47.497 Y47.954
X47.497 Y52.136
X47.522 Y52.141
X47.722 Y52.230
X47.900 Y52.360
X48.047 Y52.523
X48.157 Y52.713
X48.224 Y52.922
X48.247 Y53.137
X48.247 Y54.143
X48.224 Y54.358
X48.157 Y54.567
X48.047 Y54.757
X47.900 Y54.921
X47.722 Y55.050
X47.522 Y55.139
X47.307 Y55.184
X47.087 Y55.184
G0 Z3.000
G0  X26.767 Y55.184
G0  Z3.000
G0   Z0
G01 F30 Z-0.100
G01 F400 X26.552 Y55.139
X26.352 Y55.050
X26.174 Y54.921
X26.027 Y54.757
X25.918 Y54.567
X25.850 Y54.358
X25.827 Y54.143
X25.827 Y53.137
X25.850 Y52.922
X25.918 Y52.713
X26.027 Y52.523
X26.174 Y52.360
X26.352 Y52.230
X26.552 Y52.141
X26.767 Y52.096
X26.987 Y52.096
X27.202 Y52.141
X27.402 Y52.230
X27.580 Y52.360
X27.727 Y52.523
X27.837 Y52.713
X27.904 Y52.922
X27.927 Y53.137
X27.927 Y54.143
X27.904 Y54.358
X27.837 Y54.567
X27.727 Y54.757
X27.580 Y54.921
X27.402 Y55.050
X27.202 Y55.139
X26.987 Y55.184
X26.767 Y55.184
G0 Z3.000
G0  X49.627 Y55.184
G0  Z3.000
G0   Z0
G01 F30 Z-0.100
G01 F400 X49.412 Y55.139
X49.212 Y55.050
X49.034 Y54.921
X48.887 Y54.757
X48.778 Y54.567
X48.710 Y54.358
X48.687 Y54.143
X48.687 Y53.137
X48.710 Y52.922
X48.778 Y52.713
X48.887 Y52.523
X49.034 Y52.360
X49.212 Y52.230
X49.412 Y52.141
X49.437 Y52.136
X49.437 Y51.637
X49.443 Y51.578
X49.463 Y51.518
X49.494 Y51.464
X49.533 Y51.420
X58.967 Y41.986
X59.017 Y41.950
X59.074 Y41.924
X59.136 Y41.911
X60.933 Y41.911
X60.938 Y41.885
X61.027 Y41.685
X61.157 Y41.507
X61.320 Y41.360
X61.510 Y41.251
X61.719 Y41.183
X61.934 Y41.160
X62.940 Y41.160
X63.155 Y41.183
X63.364 Y41.251
X63.554 Y41.360
X63.718 Y41.507
X63.847 Y41.685
X63.936 Y41.885
X63.982 Y42.100
X63.982 Y42.320
X63.936 Y42.535
X63.847 Y42.735
X63.718 Y42.913
X63.554 Y43.060
X63.364 Y43.169
X63.155 Y43.237
X62.940 Y43.260
X61.934 Y43.260
X61.719 Y43.237
X61.510 Y43.169
X61.320 Y43.060
X61.157 Y42.913
X61.027 Y42.735
X60.938 Y42.535
X60.933 Y42.509
X59.292 Y42.509
X50.037 Y51.764
X50.037 Y52.136
X50.062 Y52.141
X50.262 Y52.230
X50.440 Y52.360
X50.587 Y52.523
X50.697 Y52.713
X50.764 Y52.922
X50.787 Y53.137
X50.787 Y54.143
X50.764 Y54.358
X50.697 Y54.567
X50.587 Y54.757
X50.440 Y54.921
X50.262 Y55.050
X50.062 Y55.139
X49.847 Y55.184
X49.627 Y55.184
G0 Z3.000
G0  X52.167 Y55.184
G0  Z3.000
G0   Z0
G01 F30 Z-0.100
G01 F400 X51.952 Y55.139
X51.752 Y55.050
X51.574 Y54.921
X51.427 Y54.757
X51.318 Y54.567
X51.250 Y54.358
X51.227 Y54.143
X51.227 Y53.137
X51.250 Y52.922
X51.318 Y52.713
X51.427 Y52.523
X51.574 Y52.360
X51.752 Y52.230
X51.952 Y52.141
X51.977 Y52.136
X51.977 Y51.637
X51.983 Y51.578
X52.003 Y51.518
X52.034 Y51.464
X52.073 Y51.420
X56.427 Y47.066
X56.477 Y47.030
X56.534 Y47.004
X56.596 Y46.991
X60.933 Y46.991
X60.938 Y46.965
X61.027 Y46.765
X61.157 Y46.587
X61.320 Y46.440
X61.510 Y46.331
X61.719 Y46.263
X61.934 Y46.240
X62.940 Y46.240
X63.155 Y46.263
X63.364 Y46.331
X63.554 Y46.440
X63.718 Y46.587
X63.847 Y46.765
X63.936 Y46.965
X63.982 Y47.180
X63.982 Y47.400
X63.936 Y47.615
X63.847 Y47.815
X63.718 Y47.993
X63.554 Y48.140
X63.364 Y48.250
X63.155 Y48.317
X62.940 Y48.340
X61.934 Y48.340
X61.719 Y48.317
X61.510 Y48.250
X61.320 Y48.140
X61.157 Y47.993
X61.027 Y47.815
X60.938 Y47.614
X60.933 Y47.589
X56.752 Y47.589
X52.577 Y51.764
X52.577 Y52.136
X52.602 Y52.141
X52.802 Y52.230
X52.980 Y52.360
X53.127 Y52.523
X53.236 Y52.713
X53.304 Y52.922
X53.327 Y53.137
X53.327 Y54.143
X53.304 Y54.358
X53.236 Y54.567
X53.127 Y54.757
X52.980 Y54.921
X52.802 Y55.050
X52.602 Y55.139
X52.387 Y55.184
X52.167 Y55.184
G0 Z3.000
G0  X67.407 Y55.184
G0  Z3.000
G0   Z0
G01 F30 Z-0.100
G01 F400 X67.192 Y55.139
X66.992 Y55.050
X66.814 Y54.921
X66.667 Y54.757
X66.558 Y54.567
X66.490 Y54.358
X66.467 Y54.143
X66.467 Y53.137
X66.490 Y52.922
X66.558 Y52.713
X66.667 Y52.523
X66.814 Y52.360
X66.992 Y52.230
X67.192 Y52.141
X67.217 Y52.136
X67.217 Y48.684
X66.101 Y47.581
X65.937 Y47.654
X65.722 Y47.700
X65.502 Y47.700
X65.287 Y47.654
X65.087 Y47.565
X64.909 Y47.436
X64.762 Y47.272
X64.653 Y47.082
X64.585 Y46.873
X64.562 Y46.655
X64.585 Y46.437
X64.653 Y46.228
X64.762 Y46.038
X64.909 Y45.875
X65.087 Y45.745
X65.287 Y45.656
X65.502 Y45.611
X65.722 Y45.611
X65.937 Y45.656
X66.137 Y45.745
X66.315 Y45.875
X66.462 Y46.038
X66.572 Y46.228
X66.639 Y46.437
X66.662 Y46.655
X66.639 Y46.873
X66.572 Y47.082
X66.532 Y47.151
X67.721 Y48.340
X67.760 Y48.384
X67.791 Y48.438
X67.811 Y48.498
X67.817 Y48.557
X67.817 Y52.136
X67.842 Y52.141
X68.042 Y52.230
X68.220 Y52.360
X68.367 Y52.523
X68.477 Y52.713
X68.544 Y52.922
X68.567 Y53.137
X68.567 Y54.143
X68.544 Y54.358
X68.477 Y54.567
X68.367 Y54.757
X68.220 Y54.921
X68.042 Y55.050
X67.842 Y55.139
X67.627 Y55.184
X67.407 Y55.184
G0 Z3.000
G0  X59.787 Y55.184
G0  Z3.000
G0   Z0
G01 F30 Z-0.100
G01 F400 X59.572 Y55.139
X59.372 Y55.050
X59.194 Y54.921
X59.047 Y54.757
X58.938 Y54.567
X58.870 Y54.358
X58.847 Y54.143
X58.847 Y53.137
X58.870 Y52.922
X58.938 Y52.713
X59.047 Y52.523
X59.194 Y52.360
X59.372 Y52.230
X59.572 Y52.141
X59.787 Y52.096
X60.007 Y52.096
X60.222 Y52.141
X60.422 Y52.230
X60.600 Y52.360
X60.747 Y52.523
X60.857 Y52.713
X60.924 Y52.922
X60.947 Y53.137
X60.947 Y54.143
X60.924 Y54.358
X60.857 Y54.567
X60.747 Y54.757
X60.600 Y54.921
X60.422 Y55.050
X60.222 Y55.139
X60.007 Y55.184
X59.787 Y55.184
G0 Z3.000
G0  X62.327 Y55.184
G0  Z3.000
G0   Z0
G01 F30 Z-0.100
G01 F400 X62.112 Y55.139
X61.912 Y55.050
X61.734 Y54.921
X61.587 Y54.757
X61.478 Y54.567
X61.410 Y54.358
X61.387 Y54.143
X61.387 Y53.137
X61.410 Y52.922
X61.478 Y52.713
X61.587 Y52.523
X61.734 Y52.360
X61.912 Y52.230
X62.112 Y52.141
X62.327 Y52.096
X62.547 Y52.096
X62.762 Y52.141
X62.962 Y52.230
X63.140 Y52.360
X63.287 Y52.523
X63.397 Y52.713
X63.464 Y52.922
X63.487 Y53.137
X63.487 Y54.143
X63.464 Y54.358
X63.397 Y54.567
X63.287 Y54.757
X63.140 Y54.921
X62.962 Y55.050
X62.762 Y55.139
X62.547 Y55.184
X62.327 Y55.184
G0 Z3.000
G0  X61.934 Y50.880
G0  Z3.000
G0   Z0
G01 F30 Z-0.100
G01 F400 X61.719 Y50.857
X61.510 Y50.790
X61.320 Y50.680
X61.157 Y50.533
X61.027 Y50.355
X60.938 Y50.155
X60.893 Y49.940
X60.893 Y49.720
X60.938 Y49.505
X61.027 Y49.305
X61.157 Y49.127
X61.320 Y48.980
X61.510 Y48.870
X61.719 Y48.803
X61.934 Y48.780
X62.940 Y48.780
X63.155 Y48.803
X63.364 Y48.870
X63.554 Y48.980
X63.718 Y49.127
X63.847 Y49.305
X63.936 Y49.505
X63.982 Y49.720
X63.982 Y49.940
X63.936 Y50.155
X63.847 Y50.355
X63.718 Y50.533
X63.554 Y50.680
X63.364 Y50.790
X63.155 Y50.857
X62.940 Y50.880
X61.934 Y50.880
G0 Z3.000
G0  X61.934 Y40.720
G0  Z3.000
G0   Z0
G01 F30 Z-0.100
G01 F400 X61.719 Y40.697
X61.510 Y40.630
X61.320 Y40.520
X61.157 Y40.373
X61.027 Y40.195
X60.938 Y39.995
X60.893 Y39.780
X60.893 Y39.560
X60.938 Y39.345
X61.027 Y39.145
X61.157 Y38.967
X61.320 Y38.820
X61.510 Y38.711
X61.719 Y38.643
X61.934 Y38.620
X62.940 Y38.620
X63.155 Y38.643
X63.364 Y38.711
X63.554 Y38.820
X63.718 Y38.967
X63.847 Y39.145
X63.881 Y39.222
X64.549 Y39.222
X72.147 Y31.624
X72.147 Y28.688
X71.107 Y28.688
X71.107 Y28.743
X71.084 Y28.958
X71.017 Y29.167
X70.907 Y29.357
X70.760 Y29.521
X70.582 Y29.650
X70.382 Y29.739
X70.167 Y29.785
X69.947 Y29.785
X69.732 Y29.739
X69.532 Y29.650
X69.354 Y29.521
X69.207 Y29.357
X69.097 Y29.167
X69.030 Y28.958
X69.007 Y28.743
X69.007 Y27.737
X69.030 Y27.522
X69.097 Y27.313
X69.207 Y27.123
X69.354 Y26.960
X69.532 Y26.830
X69.732 Y26.741
X69.947 Y26.696
X70.167 Y26.696
X70.382 Y26.741
X70.582 Y26.830
X70.760 Y26.960
X70.907 Y27.123
X71.017 Y27.313
X71.084 Y27.522
X71.107 Y27.737
X71.107 Y27.792
X72.147 Y27.792
X72.147 Y18.774
X66.821 Y13.448
X66.667 Y13.448
X63.765 Y15.877
X63.692 Y15.930
X63.606 Y15.968
X63.514 Y15.988
X55.267 Y15.988
X55.267 Y20.447
X55.342 Y20.480
X55.520 Y20.610
X55.667 Y20.773
X55.777 Y20.963
X55.844 Y21.172
X55.867 Y21.387
X55.867 Y22.393
X55.844 Y22.608
X55.777 Y22.817
X55.667 Y23.007
X55.520 Y23.171
X55.342 Y23.300
X55.142 Y23.389
X54.927 Y23.434
X54.707 Y23.434
X54.492 Y23.389
X54.292 Y23.300
X54.114 Y23.171
X53.967 Y23.007
X53.858 Y22.817
X53.790 Y22.608
X53.767 Y22.393
X53.767 Y21.387
X53.790 Y21.172
X53.858 Y20.963
X53.967 Y20.773
X54.114 Y20.610
X54.292 Y20.480
X54.367 Y20.447
X54.367 Y15.988
X32.407 Y15.988
X32.407 Y20.447
X32.482 Y20.480
X32.660 Y20.610
X32.807 Y20.773
X32.916 Y20.963
X32.984 Y21.172
X33.007 Y21.387
X33.007 Y22.393
X32.984 Y22.608
X32.916 Y22.817
X32.807 Y23.007
X32.660 Y23.171
X32.482 Y23.300
X32.282 Y23.389
X32.067 Y23.434
X31.847 Y23.434
X31.632 Y23.389
X31.432 Y23.300
X31.254 Y23.171
X31.107 Y23.007
X30.998 Y22.817
X30.930 Y22.608
X30.907 Y22.393
X30.907 Y21.387
X30.930 Y21.172
X30.998 Y20.963
X31.107 Y20.773
X31.254 Y20.610
X31.432 Y20.480
X31.507 Y20.447
X31.507 Y15.988
X11.825 Y15.988
X8.277 Y19.536
X8.277 Y20.447
X8.352 Y20.480
X8.530 Y20.610
X8.677 Y20.773
X8.787 Y20.963
X8.854 Y21.172
X8.877 Y21.387
X8.877 Y22.393
X8.854 Y22.608
X8.787 Y22.817
X8.677 Y23.007
X8.530 Y23.171
X8.352 Y23.300
X8.152 Y23.389
X7.937 Y23.434
X7.717 Y23.434
X7.502 Y23.389
X7.302 Y23.300
X7.124 Y23.171
X6.977 Y23.007
X6.868 Y22.817
X6.800 Y22.608
X6.777 Y22.393
X6.777 Y21.387
X6.800 Y21.172
X6.868 Y20.963
X6.977 Y20.773
X7.124 Y20.610
X7.302 Y20.480
X7.377 Y20.447
X7.377 Y19.347
X7.387 Y19.256
X7.416 Y19.167
X7.463 Y19.085
X7.523 Y19.018
X11.337 Y15.205
X11.412 Y15.150
X11.498 Y15.112
X11.590 Y15.092
X20.077 Y15.092
X20.077 Y10.633
X20.002 Y10.600
X19.824 Y10.471
X19.677 Y10.307
X19.568 Y10.117
X19.500 Y9.908
X19.477 Y9.693
X19.477 Y8.687
X19.500 Y8.472
X19.568 Y8.263
X19.677 Y8.073
X19.824 Y7.910
X20.002 Y7.780
X20.202 Y7.691
X20.417 Y7.646
X20.637 Y7.646
X20.852 Y7.691
X21.052 Y7.780
X21.230 Y7.910
X21.377 Y8.073
X21.486 Y8.263
X21.554 Y8.472
X21.577 Y8.687
X21.577 Y9.693
X21.554 Y9.908
X21.486 Y10.117
X21.377 Y10.307
X21.230 Y10.471
X21.052 Y10.600
X20.977 Y10.633
X20.977 Y15.092
X44.207 Y15.092
X44.207 Y10.633
X44.132 Y10.600
X43.954 Y10.471
X43.807 Y10.307
X43.698 Y10.117
X43.630 Y9.908
X43.607 Y9.693
X43.607 Y8.687
X43.630 Y8.472
X43.698 Y8.263
X43.807 Y8.073
X43.954 Y7.910
X44.132 Y7.780
X44.332 Y7.691
X44.547 Y7.646
X44.767 Y7.646
X44.982 Y7.691
X45.182 Y7.780
X45.360 Y7.910
X45.507 Y8.073
X45.617 Y8.263
X45.684 Y8.472
X45.707 Y8.687
X45.707 Y9.693
X45.684 Y9.908
X45.617 Y10.117
X45.507 Y10.307
X45.360 Y10.471
X45.182 Y10.600
X45.107 Y10.633
X45.107 Y15.092
X63.301 Y15.092
X66.179 Y12.683
X67.067 Y11.573
X67.067 Y10.633
X66.992 Y10.600
X66.814 Y10.471
X66.667 Y10.307
X66.558 Y10.117
X66.490 Y9.908
X66.467 Y9.693
X66.467 Y8.687
X66.490 Y8.472
X66.558 Y8.263
X66.667 Y8.073
X66.814 Y7.910
X66.992 Y7.780
X67.192 Y7.691
X67.407 Y7.646
X67.627 Y7.646
X67.842 Y7.691
X68.042 Y7.780
X68.220 Y7.910
X68.367 Y8.073
X68.477 Y8.263
X68.544 Y8.472
X68.567 Y8.687
X68.567 Y9.693
X68.544 Y9.908
X68.477 Y10.117
X68.367 Y10.307
X68.220 Y10.471
X68.042 Y10.600
X67.967 Y10.633
X67.967 Y11.733
X67.957 Y11.824
X67.928 Y11.913
X67.882 Y11.993
X67.343 Y12.698
X72.901 Y18.256
X72.961 Y18.323
X73.008 Y18.405
X73.037 Y18.494
X73.047 Y18.585
X73.047 Y31.813
X73.037 Y31.904
X73.008 Y31.993
X72.961 Y32.075
X72.901 Y32.142
X65.037 Y40.005
X64.962 Y40.060
X64.876 Y40.098
X64.784 Y40.118
X63.881 Y40.118
X63.847 Y40.195
X63.718 Y40.373
X63.554 Y40.520
X63.364 Y40.630
X63.155 Y40.697
X62.940 Y40.720
X61.934 Y40.720
G0 Z3.000
G0  X61.934 Y38.180
G0  Z3.000
G0   Z0
G01 F30 Z-0.100
G01 F400 X61.719 Y38.157
X61.510 Y38.090
X61.320 Y37.980
X61.157 Y37.833
X61.027 Y37.655
X60.938 Y37.455
X60.893 Y37.240
X60.893 Y37.020
X60.938 Y36.805
X61.027 Y36.605
X61.157 Y36.427
X61.320 Y36.280
X61.510 Y36.171
X61.719 Y36.103
X61.934 Y36.080
X62.940 Y36.080
X63.155 Y36.103
X63.364 Y36.171
X63.554 Y36.280
X63.718 Y36.427
X63.847 Y36.605
X63.936 Y36.805
X63.941 Y36.831
X64.263 Y36.831
X64.263 Y36.831
X64.286 Y36.613
X64.354 Y36.404
X64.463 Y36.214
X64.610 Y36.051
X64.788 Y35.922
X64.989 Y35.832
X65.203 Y35.787
X65.423 Y35.787
X65.638 Y35.832
X65.838 Y35.922
X66.016 Y36.051
X66.163 Y36.214
X66.273 Y36.404
X66.340 Y36.613
X66.363 Y36.831
X66.340 Y37.050
X66.273 Y37.258
X66.163 Y37.449
X66.016 Y37.612
X65.838 Y37.741
X65.638 Y37.830
X65.423 Y37.876
X65.203 Y37.876
X64.989 Y37.830
X64.788 Y37.741
X64.610 Y37.612
X64.463 Y37.449
X64.452 Y37.429
X63.941 Y37.429
X63.936 Y37.455
X63.847 Y37.655
X63.718 Y37.833
X63.554 Y37.980
X63.364 Y38.090
X63.155 Y38.157
X62.940 Y38.180
X61.934 Y38.180
G0 Z3.000
G0  X24.306 Y33.619
G0  Z3.000
G0   Z0
G01 F30 Z-0.100
G01 F400 X24.244 Y33.606
X24.187 Y33.580
X24.136 Y33.543
X24.096 Y33.499
X20.270 Y28.580
X20.217 Y28.604
X20.002 Y28.649
X19.782 Y28.649
X19.567 Y28.604
X19.367 Y28.515
X19.189 Y28.386
X19.042 Y28.222
X18.933 Y28.032
X18.865 Y27.823
X18.842 Y27.605
X18.865 Y27.387
X18.933 Y27.178
X19.042 Y26.988
X19.189 Y26.825
X19.367 Y26.695
X19.567 Y26.606
X19.782 Y26.561
X20.002 Y26.561
X20.217 Y26.606
X20.417 Y26.695
X20.595 Y26.825
X20.742 Y26.988
X20.852 Y27.178
X20.919 Y27.387
X20.942 Y27.605
X20.919 Y27.823
X20.852 Y28.032
X20.746 Y28.215
X24.485 Y33.021
X37.383 Y33.021
X39.277 Y30.151
X39.277 Y29.744
X39.252 Y29.739
X39.052 Y29.650
X38.874 Y29.521
X38.727 Y29.357
X38.617 Y29.167
X38.550 Y28.958
X38.527 Y28.743
X38.527 Y27.737
X38.550 Y27.522
X38.617 Y27.313
X38.727 Y27.123
X38.874 Y26.960
X39.052 Y26.830
X39.252 Y26.741
X39.467 Y26.696
X39.687 Y26.696
X39.902 Y26.741
X40.102 Y26.830
X40.280 Y26.960
X40.427 Y27.123
X40.537 Y27.313
X40.604 Y27.522
X40.627 Y27.737
X40.627 Y28.743
X40.604 Y28.958
X40.537 Y29.167
X40.427 Y29.357
X40.280 Y29.521
X40.102 Y29.650
X39.902 Y29.739
X39.877 Y29.744
X39.877 Y30.243
X39.871 Y30.302
X39.851 Y30.362
X39.822 Y30.413
X37.787 Y33.498
X37.746 Y33.543
X37.695 Y33.580
X37.638 Y33.606
X37.576 Y33.619
X24.306 Y33.619
G0 Z3.000
G0  X60.887 Y33.100
G0  Z3.000
G0   Z0
G01 F30 Z-0.100
G01 F400 X60.887 Y31.000
X63.987 Y31.000
X63.987 Y33.100
X60.887 Y33.100
G0 Z3.000
G0  X25.751 Y32.840
G0  Z3.000
G0   Z0
G01 F30 Z-0.100
G01 F400 X25.536 Y32.795
X25.336 Y32.706
X25.206 Y32.611
X24.751 Y32.611
X24.715 Y32.604
X24.681 Y32.589
X24.651 Y32.567
X24.629 Y32.542
X23.000 Y30.448
X22.983 Y30.417
X22.971 Y30.382
X22.967 Y30.345
X22.971 Y30.308
X22.983 Y30.273
X23.001 Y30.241
X23.026 Y30.213
X23.056 Y30.192
X23.090 Y30.177
X23.126 Y30.169
X23.163 Y30.169
X23.196 Y30.176
X23.247 Y30.191
X23.353 Y30.202
X25.321 Y30.202
X25.427 Y30.191
X25.514 Y30.165
X25.593 Y30.123
X25.663 Y30.065
X25.720 Y29.995
X25.733 Y29.971
X25.749 Y29.943
X25.774 Y29.916
X25.804 Y29.894
X25.838 Y29.879
X25.874 Y29.871
X25.911 Y29.871
X25.948 Y29.879
X25.981 Y29.894
X26.008 Y29.913
X26.063 Y29.958
X26.316 Y30.094
X26.591 Y30.177
X26.877 Y30.205
X27.163 Y30.177
X27.438 Y30.094
X27.691 Y29.958
X27.914 Y29.776
X28.006 Y29.663
X28.028 Y29.638
X28.058 Y29.616
X28.092 Y29.601
X28.129 Y29.594
X28.166 Y29.594
X28.202 Y29.601
X28.236 Y29.616
X28.266 Y29.638
X28.288 Y29.663
X28.381 Y29.776
X28.603 Y29.958
X28.856 Y30.094
X29.131 Y30.177
X29.417 Y30.205
X29.703 Y30.177
X29.978 Y30.094
X30.231 Y29.958
X30.454 Y29.776
X30.546 Y29.663
X30.568 Y29.638
X30.598 Y29.616
X30.632 Y29.601
X30.669 Y29.594
X30.706 Y29.594
X30.742 Y29.601
X30.776 Y29.616
X30.806 Y29.638
X30.828 Y29.663
X30.921 Y29.776
X31.143 Y29.958
X31.396 Y30.094
X31.671 Y30.177
X31.957 Y30.205
X32.243 Y30.177
X32.518 Y30.094
X32.771 Y29.958
X32.994 Y29.776
X33.086 Y29.663
X33.108 Y29.638
X33.138 Y29.616
X33.172 Y29.601
X33.209 Y29.594
X33.245 Y29.594
X33.282 Y29.601
X33.316 Y29.616
X33.346 Y29.638
X33.368 Y29.663
X33.461 Y29.776
X33.683 Y29.958
X33.936 Y30.094
X34.211 Y30.177
X34.497 Y30.205
X34.783 Y30.177
X35.058 Y30.094
X35.312 Y29.958
X35.524 Y29.784
X35.909 Y29.109
X35.934 Y29.026
X35.955 Y28.817
X35.955 Y27.663
X35.934 Y27.454
X35.909 Y27.371
X35.905 Y27.335
X35.909 Y27.298
X35.921 Y27.263
X35.939 Y27.231
X35.964 Y27.203
X35.994 Y27.181
X36.028 Y27.166
X36.064 Y27.159
X36.164 Y27.159
X36.167 Y27.158
X36.187 Y27.123
X36.334 Y26.960
X36.512 Y26.830
X36.712 Y26.741
X36.927 Y26.696
X37.088 Y26.696
X37.153 Y26.630
X37.254 Y26.480
X37.277 Y26.453
X37.307 Y26.431
X37.341 Y26.416
X37.378 Y26.409
X38.428 Y26.409
X38.465 Y26.416
X38.498 Y26.431
X38.528 Y26.453
X38.553 Y26.481
X38.572 Y26.513
X38.583 Y26.548
X38.587 Y26.585
X38.583 Y26.622
X38.572 Y26.657
X38.554 Y26.688
X38.358 Y26.927
X38.223 Y27.180
X38.140 Y27.454
X38.119 Y27.663
X38.119 Y28.817
X38.140 Y29.026
X38.223 Y29.300
X38.358 Y29.553
X38.541 Y29.776
X38.745 Y29.944
X38.769 Y29.970
X38.788 Y30.003
X38.799 Y30.038
X38.803 Y30.075
X38.799 Y30.111
X38.788 Y30.147
X38.771 Y30.176
X37.211 Y32.540
X37.187 Y32.567
X37.157 Y32.589
X37.123 Y32.604
X37.087 Y32.611
X26.516 Y32.611
X26.386 Y32.706
X26.186 Y32.795
X25.971 Y32.840
X25.751 Y32.840
G0 Z3.000
G0  X23.287 Y29.790
G0  Z3.000
G0   Z0
G01 F30 Z-0.100
G01 F400 X23.287 Y26.690
X25.387 Y26.690
X25.387 Y29.790
X23.287 Y29.790
G0 Z3.000
G0  X31.847 Y29.785
G0  Z3.000
G0   Z0
G01 F30 Z-0.100
G01 F400 X31.632 Y29.739
X31.432 Y29.650
X31.254 Y29.521
X31.107 Y29.357
X30.998 Y29.167
X30.930 Y28.958
X30.907 Y28.743
X30.907 Y27.737
X30.930 Y27.522
X30.998 Y27.313
X31.107 Y27.123
X31.254 Y26.960
X31.432 Y26.830
X31.632 Y26.741
X31.847 Y26.696
X32.067 Y26.696
X32.282 Y26.741
X32.482 Y26.830
X32.660 Y26.960
X32.807 Y27.123
X32.916 Y27.313
X32.984 Y27.522
X33.007 Y27.737
X33.007 Y28.743
X32.984 Y28.958
X32.916 Y29.167
X32.807 Y29.357
X32.660 Y29.521
X32.482 Y29.650
X32.282 Y29.739
X32.067 Y29.785
X31.847 Y29.785
G0 Z3.000
G0  X34.387 Y29.785
G0  Z3.000
G0   Z0
G01 F30 Z-0.100
G01 F400 X34.172 Y29.739
X33.972 Y29.650
X33.794 Y29.521
X33.647 Y29.357
X33.538 Y29.167
X33.470 Y28.958
X33.447 Y28.743
X33.447 Y27.737
X33.470 Y27.522
X33.538 Y27.313
X33.647 Y27.123
X33.794 Y26.960
X33.972 Y26.830
X34.172 Y26.741
X34.197 Y26.736
X34.197 Y26.253
X9.066 Y26.253
X9.004 Y26.240
X8.947 Y26.214
X8.898 Y26.178
X5.970 Y23.440
X4.237 Y23.440
X4.237 Y20.340
X6.337 Y20.340
X6.337 Y22.962
X9.217 Y25.655
X29.117 Y25.655
X29.117 Y23.440
X28.367 Y23.440
X28.367 Y20.340
X30.467 Y20.340
X30.467 Y23.440
X29.717 Y23.440
X29.717 Y25.655
X34.197 Y25.655
X34.197 Y24.427
X34.203 Y24.368
X34.223 Y24.308
X34.254 Y24.254
X34.293 Y24.210
X34.477 Y24.026
X34.527 Y23.990
X34.584 Y23.964
X34.646 Y23.951
X41.092 Y23.951
X41.154 Y23.964
X41.211 Y23.990
X41.261 Y24.026
X42.816 Y25.581
X43.958 Y25.581
X45.873 Y23.666
X45.923 Y23.630
X45.980 Y23.604
X46.042 Y23.591
X50.652 Y23.591
X51.227 Y23.016
X51.227 Y20.340
X53.327 Y20.340
X53.327 Y23.440
X51.651 Y23.440
X50.977 Y24.114
X50.927 Y24.150
X50.870 Y24.176
X50.808 Y24.189
X46.198 Y24.189
X44.283 Y26.104
X44.233 Y26.140
X44.176 Y26.166
X44.114 Y26.179
X42.660 Y26.179
X42.598 Y26.166
X42.541 Y26.140
X42.491 Y26.104
X40.936 Y24.549
X34.802 Y24.549
X34.797 Y24.554
X34.797 Y26.736
X34.822 Y26.741
X35.022 Y26.830
X35.200 Y26.960
X35.347 Y27.123
X35.456 Y27.313
X35.524 Y27.522
X35.547 Y27.737
X35.547 Y28.743
X35.524 Y28.958
X35.456 Y29.167
X35.347 Y29.357
X35.200 Y29.521
X35.022 Y29.650
X34.822 Y29.739
X34.607 Y29.785
X34.387 Y29.785
G0 Z3.000
G0  X26.767 Y29.785
G0  Z3.000
G0   Z0
G01 F30 Z-0.100
G01 F400 X26.552 Y29.739
X26.352 Y29.650
X26.174 Y29.521
X26.027 Y29.357
X25.918 Y29.167
X25.850 Y28.958
X25.827 Y28.743
X25.827 Y27.737
X25.850 Y27.522
X25.918 Y27.313
X26.027 Y27.123
X26.174 Y26.960
X26.352 Y26.830
X26.552 Y26.741
X26.767 Y26.696
X26.987 Y26.696
X27.202 Y26.741
X27.402 Y26.830
X27.580 Y26.960
X27.727 Y27.123
X27.837 Y27.313
X27.904 Y27.522
X27.927 Y27.737
X27.927 Y28.743
X27.904 Y28.958
X27.837 Y29.167
X27.727 Y29.357
X27.580 Y29.521
X27.402 Y29.650
X27.202 Y29.739
X26.987 Y29.785
X26.767 Y29.785
G0 Z3.000
G0  X29.307 Y29.785
G0  Z3.000
G0   Z0
G01 F30 Z-0.100
G01 F400 X29.092 Y29.739
X28.892 Y29.650
X28.714 Y29.521
X28.567 Y29.357
X28.458 Y29.167
X28.390 Y28.958
X28.367 Y28.743
X28.367 Y27.737
X28.390 Y27.522
X28.458 Y27.313
X28.567 Y27.123
X28.714 Y26.960
X28.892 Y26.830
X29.092 Y26.741
X29.307 Y26.696
X29.527 Y26.696
X29.742 Y26.741
X29.942 Y26.830
X30.120 Y26.960
X30.267 Y27.123
X30.377 Y27.313
X30.444 Y27.522
X30.467 Y27.737
X30.467 Y28.743
X30.444 Y28.958
X30.377 Y29.167
X30.267 Y29.357
X30.120 Y29.521
X29.942 Y29.650
X29.742 Y29.739
X29.527 Y29.785
X29.307 Y29.785
G0 Z3.000
G0  X42.007 Y29.785
G0  Z3.000
G0   Z0
G01 F30 Z-0.100
G01 F400 X41.792 Y29.739
X41.592 Y29.650
X41.414 Y29.521
X41.267 Y29.357
X41.157 Y29.167
X41.090 Y28.958
X41.067 Y28.743
X41.067 Y27.737
X41.090 Y27.522
X41.157 Y27.313
X41.197 Y27.244
X39.952 Y25.999
X37.022 Y25.999
X36.980 Y26.127
X36.871 Y26.317
X36.724 Y26.481
X36.546 Y26.610
X36.346 Y26.699
X36.131 Y26.745
X35.911 Y26.745
X35.696 Y26.699
X35.496 Y26.610
X35.318 Y26.481
X35.171 Y26.317
X35.062 Y26.127
X34.994 Y25.918
X34.971 Y25.700
X34.994 Y25.482
X35.062 Y25.273
X35.171 Y25.083
X35.318 Y24.920
X35.496 Y24.790
X35.696 Y24.701
X35.911 Y24.655
X36.131 Y24.655
X36.346 Y24.701
X36.546 Y24.790
X36.724 Y24.920
X36.871 Y25.083
X36.980 Y25.273
X37.022 Y25.401
X40.108 Y25.401
X40.170 Y25.414
X40.227 Y25.440
X40.277 Y25.476
X41.628 Y26.814
X41.792 Y26.741
X42.007 Y26.696
X42.227 Y26.696
X42.442 Y26.741
X42.642 Y26.830
X42.820 Y26.960
X42.967 Y27.123
X43.077 Y27.313
X43.144 Y27.522
X43.167 Y27.737
X43.167 Y28.743
X43.144 Y28.958
X43.077 Y29.167
X42.967 Y29.357
X42.820 Y29.521
X42.642 Y29.650
X42.442 Y29.739
X42.227 Y29.785
X42.007 Y29.785
G0 Z3.000
G0  X44.547 Y29.785
G0  Z3.000
G0   Z0
G01 F30 Z-0.100
G01 F400 X44.332 Y29.739
X44.132 Y29.650
X43.954 Y29.521
X43.807 Y29.357
X43.698 Y29.167
X43.630 Y28.958
X43.607 Y28.743
X43.607 Y27.737
X43.630 Y27.522
X43.698 Y27.313
X43.807 Y27.123
X43.954 Y26.960
X44.132 Y26.830
X44.333 Y26.741
X44.497 Y26.706
X46.837 Y24.366
X46.887 Y24.330
X46.944 Y24.304
X47.006 Y24.291
X65.327 Y24.291
X66.645 Y22.970
X66.558 Y22.817
X66.490 Y22.608
X66.467 Y22.393
X66.467 Y21.387
X66.490 Y21.172
X66.558 Y20.963
X66.667 Y20.773
X66.814 Y20.610
X66.992 Y20.480
X67.192 Y20.391
X67.407 Y20.346
X67.627 Y20.346
X67.842 Y20.391
X68.042 Y20.480
X68.220 Y20.610
X68.367 Y20.773
X68.477 Y20.963
X68.544 Y21.172
X68.567 Y21.387
X68.567 Y22.393
X68.544 Y22.608
X68.477 Y22.817
X68.367 Y23.007
X68.220 Y23.171
X68.042 Y23.300
X67.842 Y23.389
X67.627 Y23.434
X67.407 Y23.434
X67.192 Y23.389
X67.112 Y23.353
X65.652 Y24.814
X65.602 Y24.850
X65.545 Y24.876
X65.483 Y24.889
X47.162 Y24.889
X45.204 Y26.847
X45.360 Y26.960
X45.507 Y27.123
X45.617 Y27.313
X45.684 Y27.522
X45.707 Y27.737
X45.707 Y28.743
X45.684 Y28.958
X45.617 Y29.167
X45.507 Y29.357
X45.360 Y29.521
X45.182 Y29.650
X44.982 Y29.739
X44.767 Y29.785
X44.547 Y29.785
G0 Z3.000
G0  X67.407 Y29.785
G0  Z3.000
G0   Z0
G01 F30 Z-0.100
G01 F400 X67.192 Y29.739
X66.992 Y29.650
X66.814 Y29.521
X66.667 Y29.357
X66.558 Y29.167
X66.490 Y28.958
X66.467 Y28.743
X66.467 Y27.737
X66.490 Y27.522
X66.558 Y27.313
X66.667 Y27.123
X66.814 Y26.960
X66.992 Y26.830
X67.192 Y26.741
X67.407 Y26.696
X67.627 Y26.696
X67.842 Y26.741
X68.042 Y26.830
X68.220 Y26.960
X68.367 Y27.123
X68.477 Y27.313
X68.544 Y27.522
X68.567 Y27.737
X68.567 Y28.743
X68.544 Y28.958
X68.477 Y29.167
X68.367 Y29.357
X68.220 Y29.521
X68.042 Y29.650
X67.842 Y29.739
X67.627 Y29.785
X67.407 Y29.785
G0 Z3.000
G0  X52.167 Y29.785
G0  Z3.000
G0   Z0
G01 F30 Z-0.100
G01 F400 X51.952 Y29.739
X51.752 Y29.650
X51.574 Y29.521
X51.427 Y29.357
X51.318 Y29.167
X51.250 Y28.958
X51.227 Y28.743
X51.227 Y27.737
X51.250 Y27.522
X51.318 Y27.313
X51.427 Y27.123
X51.574 Y26.960
X51.752 Y26.830
X51.952 Y26.741
X52.167 Y26.696
X52.387 Y26.696
X52.602 Y26.741
X52.681 Y26.777
X53.982 Y25.476
X54.032 Y25.440
X54.089 Y25.414
X54.151 Y25.401
X68.122 Y25.401
X69.757 Y23.766
X69.757 Y23.394
X69.732 Y23.389
X69.532 Y23.300
X69.354 Y23.171
X69.207 Y23.007
X69.097 Y22.817
X69.030 Y22.608
X69.007 Y22.393
X69.007 Y21.387
X69.030 Y21.172
X69.097 Y20.963
X69.207 Y20.773
X69.354 Y20.610
X69.532 Y20.480
X69.732 Y20.391
X69.947 Y20.346
X70.167 Y20.346
X70.382 Y20.391
X70.582 Y20.480
X70.760 Y20.610
X70.907 Y20.773
X71.017 Y20.963
X71.084 Y21.172
X71.107 Y21.387
X71.107 Y22.393
X71.084 Y22.608
X71.017 Y22.817
X70.907 Y23.007
X70.760 Y23.171
X70.582 Y23.300
X70.382 Y23.389
X70.357 Y23.394
X70.357 Y23.893
X70.351 Y23.952
X70.331 Y24.012
X70.300 Y24.067
X70.261 Y24.110
X68.447 Y25.924
X68.397 Y25.960
X68.340 Y25.986
X68.278 Y25.999
X54.307 Y25.999
X53.149 Y27.160
X53.236 Y27.313
X53.304 Y27.522
X53.327 Y27.737
X53.327 Y28.743
X53.304 Y28.958
X53.236 Y29.167
X53.127 Y29.357
X52.980 Y29.521
X52.802 Y29.650
X52.602 Y29.739
X52.387 Y29.785
X52.167 Y29.785
G0 Z3.000
G0  X47.087 Y29.785
G0  Z3.000
G0   Z0
G01 F30 Z-0.100
G01 F400 X46.872 Y29.739
X46.672 Y29.650
X46.494 Y29.521
X46.347 Y29.357
X46.238 Y29.167
X46.170 Y28.958
X46.147 Y28.743
X46.147 Y27.737
X46.170 Y27.522
X46.238 Y27.313
X46.347 Y27.123
X46.494 Y26.960
X46.672 Y26.830
X46.872 Y26.741
X47.087 Y26.696
X47.250 Y26.696
X47.342 Y26.604
X47.302 Y26.535
X47.234 Y26.326
X47.212 Y26.108
X47.234 Y25.890
X47.302 Y25.681
X47.412 Y25.491
X47.559 Y25.327
X47.737 Y25.198
X47.937 Y25.109
X48.152 Y25.063
X48.372 Y25.063
X48.586 Y25.109
X48.787 Y25.198
X48.965 Y25.327
X49.111 Y25.491
X49.221 Y25.681
X49.289 Y25.890
X49.312 Y26.108
X49.289 Y26.326
X49.221 Y26.535
X49.111 Y26.725
X48.965 Y26.888
X48.787 Y27.018
X48.586 Y27.107
X48.372 Y27.152
X48.152 Y27.152
X48.052 Y27.131
X48.157 Y27.313
X48.224 Y27.522
X48.247 Y27.737
X48.247 Y28.743
X48.224 Y28.958
X48.157 Y29.167
X48.047 Y29.357
X47.900 Y29.521
X47.722 Y29.650
X47.522 Y29.739
X47.307 Y29.785
X47.087 Y29.785
G0 Z3.000
G0  X49.627 Y29.785
G0  Z3.000
G0   Z0
G01 F30 Z-0.100
G01 F400 X49.412 Y29.739
X49.212 Y29.650
X49.034 Y29.521
X48.887 Y29.357
X48.778 Y29.167
X48.710 Y28.958
X48.687 Y28.743
X48.687 Y27.737
X48.710 Y27.522
X48.778 Y27.313
X48.887 Y27.123
X49.034 Y26.960
X49.212 Y26.830
X49.412 Y26.741
X49.627 Y26.696
X49.847 Y26.696
X50.062 Y26.741
X50.262 Y26.830
X50.440 Y26.960
X50.587 Y27.123
X50.697 Y27.313
X50.764 Y27.522
X50.787 Y27.737
X50.787 Y28.743
X50.764 Y28.958
X50.697 Y29.167
X50.587 Y29.357
X50.440 Y29.521
X50.262 Y29.650
X50.062 Y29.739
X49.847 Y29.785
X49.627 Y29.785
G0 Z3.000
G0  X62.327 Y29.785
G0  Z3.000
G0   Z0
G01 F30 Z-0.100
G01 F400 X62.112 Y29.739
X61.912 Y29.650
X61.734 Y29.521
X61.587 Y29.357
X61.478 Y29.167
X61.410 Y28.958
X61.387 Y28.743
X61.387 Y27.737
X61.410 Y27.522
X61.478 Y27.313
X61.587 Y27.123
X61.734 Y26.960
X61.912 Y26.830
X62.112 Y26.741
X62.327 Y26.696
X62.547 Y26.696
X62.762 Y26.741
X62.962 Y26.830
X63.140 Y26.960
X63.287 Y27.123
X63.397 Y27.313
X63.464 Y27.522
X63.487 Y27.737
X63.487 Y28.743
X63.464 Y28.958
X63.397 Y29.167
X63.287 Y29.357
X63.140 Y29.521
X62.962 Y29.650
X62.762 Y29.739
X62.547 Y29.785
X62.327 Y29.785
G0 Z3.000
G0  X64.867 Y29.785
G0  Z3.000
G0   Z0
G01 F30 Z-0.100
G01 F400 X64.652 Y29.739
X64.452 Y29.650
X64.274 Y29.521
X64.127 Y29.357
X64.017 Y29.167
X63.950 Y28.958
X63.927 Y28.743
X63.927 Y27.737
X63.950 Y27.522
X64.017 Y27.313
X64.127 Y27.123
X64.274 Y26.960
X64.452 Y26.830
X64.652 Y26.741
X64.867 Y26.696
X65.087 Y26.696
X65.302 Y26.741
X65.502 Y26.830
X65.680 Y26.960
X65.827 Y27.123
X65.937 Y27.313
X66.004 Y27.522
X66.027 Y27.737
X66.027 Y28.743
X66.004 Y28.958
X65.937 Y29.167
X65.827 Y29.357
X65.680 Y29.521
X65.502 Y29.650
X65.302 Y29.739
X65.087 Y29.785
X64.867 Y29.785
G0 Z3.000
G0  X57.247 Y29.785
G0  Z3.000
G0   Z0
G01 F30 Z-0.100
G01 F400 X57.032 Y29.739
X56.832 Y29.650
X56.654 Y29.521
X56.507 Y29.357
X56.398 Y29.167
X56.330 Y28.958
X56.307 Y28.743
X56.307 Y27.737
X56.330 Y27.522
X56.398 Y27.313
X56.507 Y27.123
X56.654 Y26.960
X56.832 Y26.830
X57.032 Y26.741
X57.247 Y26.696
X57.467 Y26.696
X57.682 Y26.741
X57.882 Y26.830
X58.060 Y26.960
X58.207 Y27.123
X58.317 Y27.313
X58.384 Y27.522
X58.407 Y27.737
X58.407 Y28.743
X58.384 Y28.958
X58.317 Y29.167
X58.207 Y29.357
X58.060 Y29.521
X57.882 Y29.650
X57.682 Y29.739
X57.467 Y29.785
X57.247 Y29.785
G0 Z3.000
G0  X59.787 Y29.785
G0  Z3.000
G0   Z0
G01 F30 Z-0.100
G01 F400 X59.572 Y29.739
X59.372 Y29.650
X59.194 Y29.521
X59.047 Y29.357
X58.938 Y29.167
X58.870 Y28.958
X58.847 Y28.743
X58.847 Y27.737
X58.870 Y27.522
X58.938 Y27.313
X59.047 Y27.123
X59.194 Y26.960
X59.372 Y26.830
X59.572 Y26.741
X59.787 Y26.696
X60.007 Y26.696
X60.222 Y26.741
X60.422 Y26.830
X60.600 Y26.960
X60.747 Y27.123
X60.857 Y27.313
X60.924 Y27.522
X60.947 Y27.737
X60.947 Y28.743
X60.924 Y28.958
X60.857 Y29.167
X60.747 Y29.357
X60.600 Y29.521
X60.422 Y29.650
X60.222 Y29.739
X60.007 Y29.785
X59.787 Y29.785
G0 Z3.000
G0  X70.787 Y26.236
G0  Z3.000
G0   Z0
G01 F30 Z-0.100
G01 F400 X70.572 Y26.191
X70.372 Y26.102
X70.194 Y25.973
X70.047 Y25.809
X69.938 Y25.619
X69.870 Y25.410
X69.847 Y25.192
X69.870 Y24.974
X69.938 Y24.765
X70.047 Y24.575
X70.194 Y24.412
X70.372 Y24.282
X70.572 Y24.193
X70.787 Y24.148
X71.007 Y24.148
X71.154 Y24.179
X71.447 Y23.886
X71.447 Y19.894
X69.297 Y17.744
X64.200 Y17.744
X64.159 Y17.872
X64.049 Y18.062
X63.902 Y18.226
X63.724 Y18.355
X63.524 Y18.444
X63.309 Y18.489
X63.089 Y18.489
X62.874 Y18.444
X62.674 Y18.355
X62.496 Y18.226
X62.349 Y18.062
X62.239 Y17.872
X62.172 Y17.663
X62.149 Y17.445
X62.172 Y17.227
X62.239 Y17.018
X62.349 Y16.828
X62.496 Y16.665
X62.674 Y16.535
X62.874 Y16.446
X63.089 Y16.401
X63.309 Y16.401
X63.524 Y16.446
X63.724 Y16.535
X63.902 Y16.665
X64.049 Y16.828
X64.159 Y17.018
X64.200 Y17.146
X69.453 Y17.146
X69.515 Y17.159
X69.572 Y17.185
X69.622 Y17.221
X71.951 Y19.550
X71.990 Y19.594
X72.021 Y19.648
X72.041 Y19.708
X72.047 Y19.767
X72.047 Y24.013
X72.041 Y24.072
X72.021 Y24.132
X71.990 Y24.187
X71.951 Y24.230
X71.680 Y24.501
X71.747 Y24.575
X71.856 Y24.765
X71.924 Y24.974
X71.947 Y25.192
X71.924 Y25.410
X71.856 Y25.619
X71.747 Y25.809
X71.600 Y25.973
X71.422 Y26.102
X71.222 Y26.191
X71.007 Y26.236
X70.787 Y26.236
G0 Z3.000
G0  X43.277 Y25.475
G0  Z3.000
G0   Z0
G01 F30 Z-0.100
G01 F400 X43.062 Y25.429
X42.862 Y25.340
X42.684 Y25.210
X42.537 Y25.047
X42.428 Y24.857
X42.360 Y24.648
X42.337 Y24.430
X42.360 Y24.212
X42.428 Y24.003
X42.537 Y23.813
X42.684 Y23.649
X42.862 Y23.520
X43.062 Y23.431
X43.277 Y23.386
X43.497 Y23.386
X43.712 Y23.431
X43.884 Y23.510
X44.110 Y23.283
X43.954 Y23.171
X43.807 Y23.007
X43.698 Y22.817
X43.630 Y22.608
X43.607 Y22.393
X43.607 Y21.387
X43.630 Y21.172
X43.698 Y20.963
X43.807 Y20.773
X43.954 Y20.610
X44.132 Y20.480
X44.332 Y20.391
X44.547 Y20.346
X44.767 Y20.346
X44.982 Y20.391
X45.182 Y20.480
X45.360 Y20.610
X45.507 Y20.773
X45.617 Y20.963
X45.684 Y21.172
X45.707 Y21.387
X45.707 Y22.393
X45.684 Y22.608
X45.617 Y22.817
X45.507 Y23.007
X45.360 Y23.171
X45.182 Y23.300
X44.982 Y23.389
X44.817 Y23.424
X44.307 Y23.934
X44.346 Y24.003
X44.414 Y24.212
X44.437 Y24.430
X44.414 Y24.648
X44.346 Y24.857
X44.237 Y25.047
X44.090 Y25.210
X43.912 Y25.340
X43.712 Y25.429
X43.497 Y25.475
X43.277 Y25.475
G0 Z3.000
G0  X20.417 Y25.475
G0  Z3.000
G0   Z0
G01 F30 Z-0.100
G01 F400 X20.202 Y25.429
X20.002 Y25.340
X19.824 Y25.210
X19.677 Y25.047
X19.568 Y24.857
X19.500 Y24.648
X19.477 Y24.430
X19.500 Y24.212
X19.568 Y24.003
X19.677 Y23.813
X19.824 Y23.649
X20.002 Y23.520
X20.202 Y23.431
X20.227 Y23.426
X20.227 Y23.394
X20.202 Y23.389
X20.002 Y23.300
X19.824 Y23.171
X19.677 Y23.007
X19.568 Y22.817
X19.500 Y22.608
X19.477 Y22.393
X19.477 Y21.387
X19.500 Y21.172
X19.568 Y20.963
X19.677 Y20.773
X19.824 Y20.610
X20.002 Y20.480
X20.202 Y20.391
X20.417 Y20.346
X20.637 Y20.346
X20.852 Y20.391
X21.052 Y20.480
X21.230 Y20.610
X21.377 Y20.773
X21.486 Y20.963
X21.554 Y21.172
X21.577 Y21.387
X21.577 Y22.393
X21.554 Y22.608
X21.486 Y22.817
X21.377 Y23.007
X21.230 Y23.171
X21.052 Y23.300
X20.852 Y23.389
X20.827 Y23.394
X20.827 Y23.426
X20.852 Y23.431
X21.052 Y23.520
X21.230 Y23.649
X21.377 Y23.813
X21.486 Y24.003
X21.554 Y24.212
X21.577 Y24.430
X21.554 Y24.648
X21.486 Y24.857
X21.377 Y25.047
X21.230 Y25.210
X21.052 Y25.340
X20.852 Y25.429
X20.637 Y25.475
X20.417 Y25.475
G0 Z3.000
G0  X26.132 Y23.697
G0  Z3.000
G0   Z0
G01 F30 Z-0.100
G01 F400 X25.917 Y23.651
X25.717 Y23.562
X25.539 Y23.433
X25.392 Y23.269
X25.283 Y23.079
X25.215 Y22.870
X25.198 Y22.709
X24.111 Y22.452
X24.094 Y22.608
X24.027 Y22.817
X23.917 Y23.007
X23.770 Y23.171
X23.592 Y23.300
X23.392 Y23.389
X23.177 Y23.434
X22.957 Y23.434
X22.742 Y23.389
X22.542 Y23.300
X22.364 Y23.171
X22.217 Y23.007
X22.108 Y22.817
X22.040 Y22.608
X22.017 Y22.393
X22.017 Y21.387
X22.040 Y21.172
X22.108 Y20.963
X22.217 Y20.773
X22.364 Y20.610
X22.542 Y20.480
X22.742 Y20.391
X22.957 Y20.346
X23.177 Y20.346
X23.392 Y20.391
X23.592 Y20.480
X23.770 Y20.610
X23.917 Y20.773
X24.027 Y20.963
X24.094 Y21.172
X24.117 Y21.387
X24.117 Y21.834
X25.339 Y22.128
X25.392 Y22.035
X25.539 Y21.872
X25.717 Y21.742
X25.917 Y21.653
X26.132 Y21.608
X26.352 Y21.608
X26.567 Y21.653
X26.767 Y21.742
X26.945 Y21.872
X27.092 Y22.035
X27.202 Y22.225
X27.269 Y22.434
X27.292 Y22.652
X27.269 Y22.870
X27.202 Y23.079
X27.092 Y23.269
X26.945 Y23.433
X26.767 Y23.562
X26.567 Y23.651
X26.352 Y23.697
X26.132 Y23.697
G0 Z3.000
G0  X34.387 Y23.434
G0  Z3.000
G0   Z0
G01 F30 Z-0.100
G01 F400 X34.172 Y23.389
X33.972 Y23.300
X33.794 Y23.171
X33.647 Y23.007
X33.538 Y22.817
X33.470 Y22.608
X33.447 Y22.393
X33.447 Y21.387
X33.470 Y21.172
X33.538 Y20.963
X33.647 Y20.773
X33.794 Y20.610
X33.972 Y20.480
X34.172 Y20.391
X34.387 Y20.346
X34.607 Y20.346
X34.822 Y20.391
X35.022 Y20.480
X35.200 Y20.610
X35.347 Y20.773
X35.456 Y20.963
X35.524 Y21.172
X35.547 Y21.387
X35.547 Y22.393
X35.524 Y22.608
X35.456 Y22.817
X35.347 Y23.007
X35.200 Y23.171
X35.022 Y23.300
X34.822 Y23.389
X34.607 Y23.434
X34.387 Y23.434
G0 Z3.000
G0  X36.927 Y23.434
G0  Z3.000
G0   Z0
G01 F30 Z-0.100
G01 F400 X36.712 Y23.389
X36.512 Y23.300
X36.334 Y23.171
X36.187 Y23.007
X36.078 Y22.817
X36.010 Y22.608
X35.987 Y22.393
X35.987 Y21.387
X36.010 Y21.172
X36.078 Y20.963
X36.187 Y20.773
X36.334 Y20.610
X36.512 Y20.480
X36.712 Y20.391
X36.927 Y20.346
X37.147 Y20.346
X37.362 Y20.391
X37.562 Y20.480
X37.740 Y20.610
X37.887 Y20.773
X37.997 Y20.963
X38.064 Y21.172
X38.087 Y21.387
X38.087 Y22.393
X38.064 Y22.608
X37.997 Y22.817
X37.887 Y23.007
X37.740 Y23.171
X37.562 Y23.300
X37.362 Y23.389
X37.147 Y23.434
X36.927 Y23.434
G0 Z3.000
G0  X47.087 Y23.434
G0  Z3.000
G0   Z0
G01 F30 Z-0.100
G01 F400 X46.872 Y23.389
X46.672 Y23.300
X46.494 Y23.171
X46.347 Y23.007
X46.238 Y22.817
X46.170 Y22.608
X46.147 Y22.393
X46.147 Y21.387
X46.170 Y21.172
X46.238 Y20.963
X46.347 Y20.773
X46.494 Y20.610
X46.672 Y20.480
X46.872 Y20.391
X47.087 Y20.346
X47.307 Y20.346
X47.522 Y20.391
X47.722 Y20.480
X47.900 Y20.610
X47.973 Y20.690
X48.182 Y20.481
X48.143 Y20.412
X48.075 Y20.203
X48.052 Y19.985
X48.075 Y19.767
X48.143 Y19.558
X48.252 Y19.368
X48.399 Y19.204
X48.577 Y19.075
X48.777 Y18.986
X48.992 Y18.941
X49.212 Y18.941
X49.427 Y18.986
X49.627 Y19.075
X49.805 Y19.204
X49.952 Y19.368
X50.062 Y19.558
X50.129 Y19.767
X50.152 Y19.985
X50.129 Y20.203
X50.062 Y20.412
X49.952 Y20.602
X49.805 Y20.765
X49.627 Y20.895
X49.427 Y20.984
X49.212 Y21.030
X48.992 Y21.030
X48.777 Y20.984
X48.605 Y20.905
X48.235 Y21.276
X48.247 Y21.387
X48.247 Y22.393
X48.224 Y22.608
X48.157 Y22.817
X48.047 Y23.007
X47.900 Y23.171
X47.722 Y23.300
X47.522 Y23.389
X47.307 Y23.434
X47.087 Y23.434
G0 Z3.000
G0  X39.467 Y23.434
G0  Z3.000
G0   Z0
G01 F30 Z-0.100
G01 F400 X39.252 Y23.389
X39.052 Y23.300
X38.874 Y23.171
X38.727 Y23.007
X38.617 Y22.817
X38.550 Y22.608
X38.527 Y22.393
X38.527 Y21.387
X38.550 Y21.172
X38.617 Y20.963
X38.727 Y20.773
X38.874 Y20.610
X39.052 Y20.480
X39.252 Y20.391
X39.467 Y20.346
X39.687 Y20.346
X39.902 Y20.391
X40.102 Y20.480
X40.280 Y20.610
X40.427 Y20.773
X40.537 Y20.963
X40.604 Y21.172
X40.627 Y21.387
X40.627 Y21.591
X41.067 Y21.591
X41.067 Y21.387
X41.090 Y21.172
X41.157 Y20.963
X41.267 Y20.773
X41.414 Y20.610
X41.592 Y20.480
X41.792 Y20.391
X42.007 Y20.346
X42.227 Y20.346
X42.442 Y20.391
X42.642 Y20.480
X42.820 Y20.610
X42.967 Y20.773
X43.077 Y20.963
X43.144 Y21.172
X43.167 Y21.387
X43.167 Y22.393
X43.144 Y22.608
X43.077 Y22.817
X42.967 Y23.007
X42.820 Y23.171
X42.642 Y23.300
X42.442 Y23.389
X42.227 Y23.434
X42.007 Y23.434
X41.792 Y23.389
X41.592 Y23.300
X41.414 Y23.171
X41.267 Y23.007
X41.157 Y22.817
X41.090 Y22.608
X41.067 Y22.393
X41.067 Y22.189
X40.627 Y22.189
X40.627 Y22.393
X40.604 Y22.608
X40.537 Y22.817
X40.427 Y23.007
X40.280 Y23.171
X40.102 Y23.300
X39.902 Y23.389
X39.687 Y23.434
X39.467 Y23.434
G0 Z3.000
G0  X62.327 Y23.434
G0  Z3.000
G0   Z0
G01 F30 Z-0.100
G01 F400 X62.112 Y23.389
X61.912 Y23.300
X61.734 Y23.171
X61.587 Y23.007
X61.478 Y22.817
X61.410 Y22.608
X61.387 Y22.393
X61.387 Y21.387
X61.410 Y21.172
X61.478 Y20.963
X61.587 Y20.773
X61.734 Y20.610
X61.912 Y20.480
X62.112 Y20.391
X62.327 Y20.346
X62.547 Y20.346
X62.762 Y20.391
X62.962 Y20.480
X63.140 Y20.610
X63.287 Y20.773
X63.397 Y20.963
X63.464 Y21.172
X63.487 Y21.387
X63.487 Y21.591
X63.927 Y21.591
X63.927 Y21.387
X63.950 Y21.172
X64.017 Y20.963
X64.127 Y20.773
X64.274 Y20.610
X64.452 Y20.480
X64.652 Y20.391
X64.867 Y20.346
X65.087 Y20.346
X65.302 Y20.391
X65.502 Y20.480
X65.680 Y20.610
X65.827 Y20.773
X65.937 Y20.963
X66.004 Y21.172
X66.027 Y21.387
X66.027 Y22.393
X66.004 Y22.608
X65.937 Y22.817
X65.827 Y23.007
X65.680 Y23.171
X65.502 Y23.300
X65.302 Y23.389
X65.087 Y23.434
X64.867 Y23.434
X64.652 Y23.389
X64.452 Y23.300
X64.274 Y23.171
X64.127 Y23.007
X64.017 Y22.817
X63.950 Y22.608
X63.927 Y22.393
X63.927 Y22.189
X63.487 Y22.189
X63.487 Y22.393
X63.464 Y22.608
X63.397 Y22.817
X63.287 Y23.007
X63.140 Y23.171
X62.962 Y23.300
X62.762 Y23.389
X62.547 Y23.434
X62.327 Y23.434
G0 Z3.000
G0  X57.247 Y23.434
G0  Z3.000
G0   Z0
G01 F30 Z-0.100
G01 F400 X57.032 Y23.389
X56.832 Y23.300
X56.654 Y23.171
X56.507 Y23.007
X56.398 Y22.817
X56.330 Y22.608
X56.307 Y22.393
X56.307 Y21.387
X56.330 Y21.172
X56.398 Y20.963
X56.507 Y20.773
X56.654 Y20.610
X56.832 Y20.480
X57.032 Y20.391
X57.247 Y20.346
X57.467 Y20.346
X57.682 Y20.391
X57.882 Y20.480
X58.060 Y20.610
X58.207 Y20.773
X58.317 Y20.963
X58.384 Y21.172
X58.407 Y21.387
X58.407 Y22.393
X58.384 Y22.608
X58.317 Y22.817
X58.207 Y23.007
X58.060 Y23.171
X57.882 Y23.300
X57.682 Y23.389
X57.467 Y23.434
X57.247 Y23.434
G0 Z3.000
G0  X59.787 Y23.434
G0  Z3.000
G0   Z0
G01 F30 Z-0.100
G01 F400 X59.572 Y23.389
X59.372 Y23.300
X59.194 Y23.171
X59.047 Y23.007
X58.938 Y22.817
X58.870 Y22.608
X58.847 Y22.393
X58.847 Y21.387
X58.870 Y21.172
X58.938 Y20.963
X59.047 Y20.773
X59.194 Y20.610
X59.372 Y20.480
X59.572 Y20.391
X59.787 Y20.346
X60.007 Y20.346
X60.222 Y20.391
X60.422 Y20.480
X60.600 Y20.610
X60.747 Y20.773
X60.857 Y20.963
X60.924 Y21.172
X60.947 Y21.387
X60.947 Y22.393
X60.924 Y22.608
X60.857 Y22.817
X60.747 Y23.007
X60.600 Y23.171
X60.422 Y23.300
X60.222 Y23.389
X60.007 Y23.434
X59.787 Y23.434
G0 Z3.000
G0  X10.257 Y23.434
G0  Z3.000
G0   Z0
G01 F30 Z-0.100
G01 F400 X10.042 Y23.389
X9.842 Y23.300
X9.664 Y23.171
X9.517 Y23.007
X9.408 Y22.817
X9.340 Y22.608
X9.317 Y22.393
X9.317 Y21.387
X9.340 Y21.172
X9.408 Y20.963
X9.517 Y20.773
X9.664 Y20.610
X9.842 Y20.480
X10.042 Y20.391
X10.257 Y20.346
X10.477 Y20.346
X10.692 Y20.391
X10.892 Y20.480
X11.070 Y20.610
X11.217 Y20.773
X11.327 Y20.963
X11.394 Y21.172
X11.417 Y21.387
X11.417 Y22.393
X11.394 Y22.608
X11.327 Y22.817
X11.217 Y23.007
X11.070 Y23.171
X10.892 Y23.300
X10.692 Y23.389
X10.477 Y23.434
X10.257 Y23.434
G0 Z3.000
G0  X12.797 Y23.434
G0  Z3.000
G0   Z0
G01 F30 Z-0.100
G01 F400 X12.582 Y23.389
X12.382 Y23.300
X12.204 Y23.171
X12.057 Y23.007
X11.947 Y22.817
X11.880 Y22.608
X11.857 Y22.393
X11.857 Y21.387
X11.880 Y21.172
X11.947 Y20.963
X12.057 Y20.773
X12.204 Y20.610
X12.382 Y20.480
X12.582 Y20.391
X12.797 Y20.346
X13.017 Y20.346
X13.232 Y20.391
X13.432 Y20.480
X13.610 Y20.610
X13.757 Y20.773
X13.867 Y20.963
X13.934 Y21.172
X13.957 Y21.387
X13.957 Y22.393
X13.934 Y22.608
X13.867 Y22.817
X13.757 Y23.007
X13.610 Y23.171
X13.432 Y23.300
X13.232 Y23.389
X13.017 Y23.434
X12.797 Y23.434
G0 Z3.000
G0  X15.337 Y23.434
G0  Z3.000
G0   Z0
G01 F30 Z-0.100
G01 F400 X15.122 Y23.389
X14.922 Y23.300
X14.744 Y23.171
X14.597 Y23.007
X14.488 Y22.817
X14.420 Y22.608
