( Generated by Carbide Copper )
( ESP32 CNC SHIELD V1.1)
( Material Size )
( X= 66.000, Y= 78.000, Z= 1.400 )
()
G17
G21
G54
G90
M05
(  )
T502 M06
( Contour V30ยบ)
M03 S10000
G0  Z3
G0  X0.690 Y76.986
G0  Z3.000
G0  Z0
G01 F50 Z-0.070
G01 F400 X0.654 Y76.979
X0.620 Y76.964
X0.590 Y76.942
X0.565 Y76.914
X0.546 Y76.882
X0.535 Y76.847
X0.531 Y76.813
X0.531 Y44.446
X0.535 Y44.412
X0.546 Y44.377
X0.565 Y44.345
X0.590 Y44.317
X0.620 Y44.295
X0.654 Y44.280
X0.690 Y44.273
X0.727 Y44.273
X0.763 Y44.280
X0.797 Y44.295
X0.827 Y44.317
X0.847 Y44.340
X0.895 Y44.379
X3.330 Y46.815
X3.350 Y46.836
X3.377 Y46.870
X3.562 Y47.021
X3.772 Y47.134
X3.999 Y47.203
X4.187 Y47.221
X4.237 Y47.226
X4.289 Y47.221
X5.250 Y47.221
X5.286 Y47.229
X5.320 Y47.244
X5.350 Y47.265
X5.372 Y47.290
X5.410 Y47.337
X5.481 Y47.395
X5.560 Y47.437
X5.647 Y47.463
X5.753 Y47.474
X8.720 Y47.474
X8.826 Y47.463
X8.913 Y47.437
X8.992 Y47.395
X9.062 Y47.337
X9.120 Y47.267
X9.162 Y47.188
X9.189 Y47.101
X9.197 Y47.010
X9.197 Y45.014
X9.189 Y44.923
X9.162 Y44.836
X9.120 Y44.757
X9.062 Y44.687
X8.993 Y44.630
X8.913 Y44.587
X8.826 Y44.561
X8.720 Y44.550
X5.753 Y44.550
X5.647 Y44.561
X5.560 Y44.587
X5.481 Y44.630
X5.410 Y44.687
X5.372 Y44.734
X5.350 Y44.759
X5.320 Y44.781
X5.286 Y44.796
X5.250 Y44.803
X4.792 Y44.803
X4.755 Y44.796
X4.721 Y44.781
X4.693 Y44.760
X2.973 Y43.040
X2.951 Y43.015
X2.932 Y42.983
X2.921 Y42.948
X2.917 Y42.913
X2.925 Y36.224
X2.928 Y36.189
X2.940 Y36.154
X2.958 Y36.122
X2.983 Y36.094
X3.013 Y36.073
X3.047 Y36.058
X3.083 Y36.050
X5.254 Y36.050
X5.290 Y36.058
X5.324 Y36.073
X5.354 Y36.094
X5.379 Y36.122
X5.397 Y36.154
X5.409 Y36.189
X5.413 Y36.224
X5.413 Y36.339
X5.421 Y36.430
X5.448 Y36.517
X5.490 Y36.596
X5.548 Y36.666
X5.618 Y36.724
X5.697 Y36.766
X5.783 Y36.792
X5.889 Y36.803
X8.858 Y36.803
X8.964 Y36.793
X9.050 Y36.766
X9.130 Y36.724
X9.199 Y36.666
X9.257 Y36.596
X9.299 Y36.517
X9.326 Y36.430
X9.335 Y36.338
X9.335 Y34.659
X9.338 Y34.625
X9.350 Y34.590
X9.368 Y34.558
X9.391 Y34.533
X10.172 Y33.752
X10.201 Y33.731
X10.234 Y33.716
X10.271 Y33.708
X10.599 Y33.708
X10.635 Y33.716
X10.668 Y33.730
X10.760 Y33.792
X11.026 Y33.902
X11.307 Y33.958
X11.593 Y33.958
X11.875 Y33.902
X12.009 Y33.846
X12.045 Y33.839
X12.082 Y33.839
X12.118 Y33.846
X12.152 Y33.862
X12.182 Y33.883
X12.207 Y33.911
X12.225 Y33.943
X12.237 Y33.978
X12.240 Y34.013
X12.240 Y38.442
X12.236 Y38.490
X12.247 Y38.603
X12.252 Y38.657
X12.301 Y38.819
X12.342 Y38.897
X12.381 Y38.969
X12.472 Y39.080
X12.488 Y39.099
X12.521 Y39.126
X22.746 Y49.352
X22.768 Y49.376
X22.787 Y49.408
X22.798 Y49.444
X22.802 Y49.478
X22.802 Y58.255
X22.798 Y58.289
X22.787 Y58.324
X22.768 Y58.356
X22.745 Y58.383
X22.624 Y58.482
X22.531 Y58.595
X22.509 Y58.620
X22.479 Y58.642
X22.445 Y58.657
X22.409 Y58.665
X22.372 Y58.665
X22.335 Y58.657
X22.301 Y58.642
X22.271 Y58.620
X22.249 Y58.595
X22.156 Y58.482
X21.934 Y58.300
X21.681 Y58.164
X21.406 Y58.081
X21.120 Y58.053
X20.834 Y58.081
X20.559 Y58.165
X20.306 Y58.300
X20.084 Y58.482
X19.991 Y58.595
X19.969 Y58.620
X19.939 Y58.642
X19.905 Y58.657
X19.869 Y58.665
X19.832 Y58.665
X19.795 Y58.657
X19.761 Y58.642
X19.731 Y58.620
X19.709 Y58.595
X19.616 Y58.482
X19.394 Y58.300
X19.141 Y58.164
X18.866 Y58.081
X18.580 Y58.053
X18.294 Y58.081
X18.019 Y58.165
X17.766 Y58.300
X17.711 Y58.345
X17.684 Y58.364
X17.651 Y58.379
X17.614 Y58.387
X17.577 Y58.387
X17.541 Y58.379
X17.507 Y58.364
X17.477 Y58.342
X17.452 Y58.315
X17.436 Y58.287
X17.423 Y58.263
X17.366 Y58.193
X17.296 Y58.135
X17.216 Y58.093
X17.130 Y58.067
X17.025 Y58.056
X15.055 Y58.056
X14.950 Y58.067
X14.864 Y58.093
X14.784 Y58.135
X14.714 Y58.193
X14.657 Y58.262
X14.614 Y58.343
X14.588 Y58.429
X14.579 Y58.521
X14.579 Y61.515
X14.588 Y61.607
X14.614 Y61.693
X14.657 Y61.774
X14.714 Y61.843
X14.784 Y61.901
X14.864 Y61.943
X14.950 Y61.969
X15.056 Y61.980
X17.024 Y61.980
X17.130 Y61.969
X17.216 Y61.943
X17.296 Y61.901
X17.366 Y61.843
X17.423 Y61.773
X17.436 Y61.749
X17.452 Y61.721
X17.477 Y61.694
X17.507 Y61.672
X17.541 Y61.657
X17.577 Y61.649
X17.614 Y61.649
X17.651 Y61.657
X17.684 Y61.672
X17.711 Y61.691
X17.766 Y61.736
X18.019 Y61.872
X18.294 Y61.955
X18.580 Y61.983
X18.866 Y61.955
X19.141 Y61.872
X19.394 Y61.736
X19.616 Y61.554
X19.709 Y61.441
X19.731 Y61.416
X19.761 Y61.394
X19.795 Y61.379
X19.832 Y61.371
X19.869 Y61.371
X19.905 Y61.379
X19.939 Y61.394
X19.969 Y61.416
X19.991 Y61.441
X20.084 Y61.554
X20.306 Y61.736
X20.559 Y61.872
X20.834 Y61.955
X21.120 Y61.983
X21.406 Y61.955
X21.681 Y61.872
X21.934 Y61.736
X22.156 Y61.554
X22.249 Y61.441
X22.271 Y61.416
X22.301 Y61.394
X22.335 Y61.379
X22.372 Y61.371
X22.409 Y61.371
X22.445 Y61.379
X22.479 Y61.394
X22.509 Y61.416
X22.531 Y61.441
X22.624 Y61.554
X22.846 Y61.736
X23.099 Y61.872
X23.374 Y61.955
X23.660 Y61.983
X23.946 Y61.955
X24.221 Y61.872
X24.474 Y61.736
X24.696 Y61.554
X24.789 Y61.441
X24.811 Y61.416
X24.841 Y61.394
X24.875 Y61.379
X24.912 Y61.371
X24.949 Y61.371
X24.985 Y61.379
X25.019 Y61.394
X25.049 Y61.416
X25.071 Y61.441
X25.164 Y61.554
X25.386 Y61.736
X25.639 Y61.872
X25.914 Y61.955
X26.200 Y61.983
X26.486 Y61.955
X26.761 Y61.872
X27.014 Y61.736
X27.236 Y61.554
X27.329 Y61.441
X27.351 Y61.416
X27.381 Y61.394
X27.415 Y61.379
X27.452 Y61.371
X27.489 Y61.371
X27.525 Y61.379
X27.559 Y61.394
X27.589 Y61.416
X27.611 Y61.441
X27.704 Y61.554
X27.926 Y61.736
X28.179 Y61.872
X28.454 Y61.955
X28.740 Y61.983
X29.026 Y61.955
X29.301 Y61.872
X29.554 Y61.736
X29.776 Y61.554
X29.869 Y61.441
X29.891 Y61.416
X29.921 Y61.394
X29.955 Y61.379
X29.992 Y61.371
X30.029 Y61.371
X30.065 Y61.379
X30.099 Y61.394
X30.129 Y61.416
X30.151 Y61.441
X30.244 Y61.554
X30.365 Y61.653
X30.388 Y61.679
X30.407 Y61.712
X30.418 Y61.747
X30.422 Y61.781
X30.422 Y62.640
X30.418 Y62.674
X30.407 Y62.709
X30.388 Y62.741
X30.366 Y62.766
X29.537 Y63.596
X29.508 Y63.617
X29.474 Y63.632
X29.438 Y63.639
X28.684 Y63.639
X28.462 Y63.661
X28.187 Y63.745
X27.934 Y63.880
X27.712 Y64.062
X27.623 Y64.170
X27.601 Y64.195
X27.571 Y64.216
X27.537 Y64.231
X27.501 Y64.239
X26.984 Y64.239
X26.947 Y64.231
X26.913 Y64.216
X26.883 Y64.195
X26.859 Y64.167
X26.840 Y64.135
X26.829 Y64.102
X26.813 Y64.018
X26.665 Y63.662
X26.451 Y63.342
X26.178 Y63.069
X25.857 Y62.854
X25.500 Y62.707
X25.122 Y62.631
X24.738 Y62.631
X24.360 Y62.707
X24.003 Y62.854
X23.682 Y63.069
X23.409 Y63.342
X23.195 Y63.662
X23.047 Y64.019
X22.972 Y64.397
X22.972 Y64.783
X23.047 Y65.161
X23.195 Y65.518
X23.409 Y65.838
X23.682 Y66.111
X24.003 Y66.326
X24.360 Y66.473
X24.738 Y66.549
X25.122 Y66.549
X25.500 Y66.473
X25.857 Y66.326
X26.178 Y66.111
X26.289 Y66.000
X26.318 Y65.979
X26.352 Y65.964
X26.388 Y65.957
X27.501 Y65.957
X27.537 Y65.964
X27.571 Y65.979
X27.601 Y66.001
X27.623 Y66.026
X27.712 Y66.134
X27.934 Y66.316
X28.187 Y66.452
X28.462 Y66.535
X28.683 Y66.557
X29.813 Y66.557
X30.034 Y66.535
X30.309 Y66.452
X30.562 Y66.316
X30.784 Y66.134
X30.967 Y65.912
X31.102 Y65.658
X31.186 Y65.383
X31.214 Y65.098
X31.186 Y64.813
X31.110 Y64.563
X31.106 Y64.526
X31.110 Y64.490
X31.121 Y64.454
X31.140 Y64.422
X31.162 Y64.398
X31.631 Y63.929
X31.660 Y63.908
X31.694 Y63.893
X31.730 Y63.885
X31.767 Y63.885
X31.803 Y63.893
X31.837 Y63.908
X31.867 Y63.930
X31.892 Y63.957
X31.910 Y63.989
X31.922 Y64.025
X31.926 Y64.061
X31.922 Y64.095
X31.862 Y64.397
X31.862 Y64.783
X31.937 Y65.161
X32.085 Y65.518
X32.299 Y65.838
X32.572 Y66.111
X32.893 Y66.326
X33.250 Y66.473
X33.628 Y66.549
X34.012 Y66.549
X34.390 Y66.473
X34.747 Y66.326
X34.886 Y66.233
X34.919 Y66.218
X34.955 Y66.211
X36.391 Y66.211
X36.427 Y66.218
X36.461 Y66.233
X36.491 Y66.255
X36.513 Y66.280
X36.602 Y66.388
X36.824 Y66.570
X37.077 Y66.706
X37.352 Y66.789
X37.573 Y66.811
X38.703 Y66.811
X38.924 Y66.789
X39.199 Y66.706
X39.452 Y66.570
X39.674 Y66.388
X39.828 Y66.200
X39.850 Y66.176
X39.880 Y66.154
X39.914 Y66.139
X39.951 Y66.131
X39.988 Y66.131
X40.024 Y66.139
X40.058 Y66.154
X40.088 Y66.176
X40.112 Y66.203
X40.129 Y66.231
X40.230 Y66.420
X40.412 Y66.642
X40.634 Y66.824
X40.887 Y66.960
X41.162 Y67.043
X41.383 Y67.065
X42.513 Y67.065
X42.734 Y67.043
X43.009 Y66.960
X43.262 Y66.824
X43.484 Y66.642
X43.573 Y66.534
X43.595 Y66.509
X43.625 Y66.487
X43.659 Y66.472
X43.695 Y66.465
X45.596 Y66.465
X45.631 Y66.468
X45.664 Y66.465
X45.800 Y66.452
X45.961 Y66.403
X46.026 Y66.368
X46.026 Y66.368
X46.110 Y66.323
X46.187 Y66.260
X46.214 Y66.240
X46.248 Y66.225
X46.284 Y66.217
X46.321 Y66.217
X46.709 Y66.295
X47.093 Y66.295
X47.471 Y66.219
X47.828 Y66.072
X48.149 Y65.857
X48.422 Y65.584
X48.636 Y65.264
X48.784 Y64.907
X48.859 Y64.529
X48.859 Y64.143
X48.784 Y63.764
X48.636 Y63.408
X48.422 Y63.088
X48.149 Y62.815
X47.828 Y62.600
X47.471 Y62.453
X47.093 Y62.377
X46.709 Y62.377
X46.331 Y62.453
X45.974 Y62.600
X45.653 Y62.815
X45.380 Y63.088
X45.166 Y63.408
X45.018 Y63.765
X44.943 Y64.143
X44.945 Y64.542
X44.948 Y64.571
X44.944 Y64.608
X44.933 Y64.643
X44.914 Y64.675
X44.890 Y64.703
X44.860 Y64.725
X44.826 Y64.740
X44.790 Y64.747
X43.695 Y64.747
X43.659 Y64.740
X43.625 Y64.725
X43.595 Y64.703
X43.573 Y64.678
X43.484 Y64.570
X43.262 Y64.388
X43.009 Y64.252
X42.926 Y64.227
X42.894 Y64.213
X42.864 Y64.191
X42.840 Y64.164
X42.821 Y64.132
X42.810 Y64.097
X42.806 Y64.062
X42.806 Y63.854
X42.811 Y63.806
X42.806 Y63.760
X42.806 Y63.760
X42.794 Y63.639
X42.745 Y63.476
X42.666 Y63.328
X42.550 Y63.190
X42.525 Y63.170
X41.616 Y62.260
X41.594 Y62.236
X41.575 Y62.204
X41.564 Y62.168
X41.560 Y62.132
X41.564 Y62.095
X41.575 Y62.059
X41.594 Y62.027
X41.619 Y62.000
X41.649 Y61.978
X41.684 Y61.962
X41.720 Y61.957
X42.001 Y61.872
X42.254 Y61.736
X42.476 Y61.554
X42.569 Y61.441
X42.591 Y61.416
X42.621 Y61.394
X42.655 Y61.379
X42.692 Y61.371
X42.729 Y61.371
X42.765 Y61.379
X42.799 Y61.394
X42.829 Y61.416
X42.851 Y61.441
X42.944 Y61.554
X43.166 Y61.736
X43.419 Y61.872
X43.694 Y61.955
X43.980 Y61.983
X44.266 Y61.955
X44.541 Y61.872
X44.794 Y61.736
X45.016 Y61.554
X45.199 Y61.332
X45.334 Y61.078
X45.418 Y60.803
X45.438 Y60.596
X45.438 Y59.441
X45.430 Y59.355
X45.434 Y59.318
X45.445 Y59.283
X45.463 Y59.251
X45.486 Y59.226
X45.532 Y59.180
X45.561 Y59.091
X45.670 Y58.901
X45.817 Y58.737
X45.995 Y58.608
X46.188 Y58.524
X49.971 Y54.740
X50.000 Y54.719
X50.034 Y54.704
X50.070 Y54.697
X52.240 Y54.697
X52.276 Y54.704
X52.310 Y54.719
X52.340 Y54.741
X52.365 Y54.769
X52.383 Y54.801
X52.395 Y54.836
X52.398 Y54.873
X52.395 Y54.910
X52.383 Y54.945
X52.365 Y54.977
X52.341 Y55.004
X52.268 Y55.063
X52.212 Y55.132
X52.169 Y55.213
X52.142 Y55.299
X52.133 Y55.391
X52.133 Y57.385
X52.142 Y57.477
X52.169 Y57.563
X52.212 Y57.644
X52.268 Y57.713
X52.339 Y57.771
X52.418 Y57.813
X52.504 Y57.839
X52.611 Y57.850
X53.481 Y57.850
X53.518 Y57.858
X53.551 Y57.873
X53.581 Y57.894
X53.606 Y57.922
X53.625 Y57.954
X53.636 Y57.989
X53.640 Y58.026
X53.636 Y58.063
X53.625 Y58.098
X53.606 Y58.130
X53.581 Y58.158
X53.553 Y58.178
X53.326 Y58.300
X53.104 Y58.482
X53.011 Y58.595
X52.989 Y58.620
X52.959 Y58.642
X52.925 Y58.657
X52.889 Y58.665
X52.852 Y58.665
X52.815 Y58.657
X52.781 Y58.642
X52.751 Y58.620
X52.729 Y58.595
X52.636 Y58.482
X52.414 Y58.300
X52.161 Y58.164
X51.886 Y58.081
X51.600 Y58.053
X51.314 Y58.081
X51.039 Y58.165
X50.786 Y58.300
X50.564 Y58.482
X50.471 Y58.595
X50.449 Y58.620
X50.419 Y58.642
X50.385 Y58.657
X50.349 Y58.665
X50.312 Y58.665
X50.275 Y58.657
X50.241 Y58.642
X50.211 Y58.620
X50.189 Y58.595
X50.096 Y58.482
X49.874 Y58.300
X49.621 Y58.164
X49.346 Y58.081
X49.060 Y58.053
X48.774 Y58.081
X48.499 Y58.165
X48.246 Y58.300
X48.024 Y58.482
X47.842 Y58.704
X47.706 Y58.958
X47.622 Y59.233
X47.602 Y59.441
X47.602 Y60.595
X47.622 Y60.803
X47.706 Y61.078
X47.842 Y61.332
X48.024 Y61.554
X48.246 Y61.736
X48.499 Y61.872
X48.774 Y61.955
X49.043 Y61.981
X49.076 Y61.989
X49.110 Y62.004
X49.139 Y62.025
X52.376 Y65.261
X52.398 Y65.285
X52.416 Y65.318
X52.428 Y65.353
X52.431 Y65.387
X52.431 Y71.993
X52.428 Y72.027
X52.416 Y72.062
X52.398 Y72.094
X52.373 Y72.122
X52.343 Y72.144
X52.309 Y72.159
X52.275 Y72.166
X52.199 Y72.174
X52.113 Y72.200
X52.033 Y72.242
X51.963 Y72.300
X51.906 Y72.369
X51.863 Y72.449
X51.837 Y72.536
X51.828 Y72.628
X51.828 Y75.622
X51.831 Y75.648
X51.837 Y75.714
X51.863 Y75.800
X51.906 Y75.880
X51.963 Y75.950
X52.033 Y76.007
X52.113 Y76.050
X52.199 Y76.076
X52.305 Y76.087
X54.273 Y76.087
X54.380 Y76.076
X54.465 Y76.050
X54.545 Y76.007
X54.615 Y75.950
X54.672 Y75.880
X54.715 Y75.801
X54.741 Y75.714
X54.750 Y75.622
X54.750 Y72.628
X54.741 Y72.536
X54.715 Y72.449
X54.672 Y72.370
X54.615 Y72.300
X54.545 Y72.242
X54.465 Y72.200
X54.380 Y72.174
X54.303 Y72.166
X54.269 Y72.159
X54.236 Y72.144
X54.206 Y72.122
X54.181 Y72.094
X54.162 Y72.062
X54.151 Y72.027
X54.147 Y71.993
X54.147 Y65.011
X54.150 Y64.940
X54.147 Y64.915
X54.136 Y64.793
X54.086 Y64.631
X54.007 Y64.482
X53.899 Y64.352
X53.867 Y64.325
X51.800 Y62.258
X51.778 Y62.233
X51.759 Y62.201
X51.748 Y62.166
X51.744 Y62.129
X51.748 Y62.092
X51.759 Y62.057
X51.778 Y62.025
X51.803 Y61.997
X51.832 Y61.976
X51.864 Y61.961
X52.161 Y61.872
X52.414 Y61.736
X52.636 Y61.554
X52.729 Y61.441
X52.751 Y61.416
X52.781 Y61.394
X52.815 Y61.379
X52.852 Y61.371
X52.889 Y61.371
X52.925 Y61.379
X52.959 Y61.394
X52.989 Y61.416
X53.011 Y61.441
X53.104 Y61.554
X53.326 Y61.736
X53.579 Y61.872
X53.854 Y61.955
X54.140 Y61.983
X54.426 Y61.955
X54.701 Y61.872
X54.954 Y61.736
X55.176 Y61.554
X55.269 Y61.441
X55.291 Y61.416
X55.321 Y61.394
X55.355 Y61.379
X55.392 Y61.371
X55.428 Y61.371
X55.465 Y61.379
X55.499 Y61.394
X55.529 Y61.416
X55.551 Y61.441
X55.644 Y61.554
X55.765 Y61.653
X55.788 Y61.679
X55.807 Y61.712
X55.818 Y61.747
X55.822 Y61.781
X55.822 Y65.020
X55.817 Y65.068
X55.822 Y65.114
X55.834 Y65.236
X55.883 Y65.398
X55.963 Y65.547
X56.054 Y65.658
X56.070 Y65.678
X56.103 Y65.705
X58.717 Y68.319
X58.736 Y68.341
X58.754 Y68.361
X58.884 Y68.469
X59.033 Y68.548
X59.195 Y68.597
X59.331 Y68.611
X59.364 Y68.614
X59.399 Y68.611
X59.547 Y68.611
X59.584 Y68.618
X59.618 Y68.633
X59.648 Y68.655
X59.672 Y68.683
X59.691 Y68.715
X59.702 Y68.750
X59.706 Y68.782
X59.712 Y68.841
X59.738 Y68.927
X59.781 Y69.008
X59.837 Y69.077
X59.908 Y69.135
X59.987 Y69.177
X60.073 Y69.203
X60.179 Y69.214
X63.148 Y69.214
X63.254 Y69.203
X63.340 Y69.177
X63.420 Y69.135
X63.489 Y69.077
X63.547 Y69.007
X63.589 Y68.928
X63.616 Y68.841
X63.625 Y68.749
X63.625 Y66.755
X63.616 Y66.663
X63.589 Y66.576
X63.547 Y66.497
X63.489 Y66.427
X63.420 Y66.369
X63.340 Y66.327
X63.254 Y66.301
X63.147 Y66.290
X60.180 Y66.290
X60.073 Y66.301
X59.987 Y66.327
X59.908 Y66.369
X59.838 Y66.427
X59.781 Y66.496
X59.737 Y66.578
X59.721 Y66.606
X59.696 Y66.634
X59.666 Y66.655
X59.632 Y66.671
X59.596 Y66.678
X59.559 Y66.678
X59.523 Y66.671
X59.489 Y66.655
X59.460 Y66.634
X57.594 Y64.769
X57.572 Y64.744
X57.553 Y64.712
X57.542 Y64.677
X57.538 Y64.642
X57.538 Y61.781
X57.542 Y61.747
X57.553 Y61.712
X57.572 Y61.679
X57.595 Y61.653
X57.717 Y61.554
X57.809 Y61.441
X57.831 Y61.416
X57.861 Y61.394
X57.895 Y61.379
X57.931 Y61.371
X57.969 Y61.371
X58.005 Y61.379
X58.039 Y61.394
X58.069 Y61.416
X58.091 Y61.441
X58.184 Y61.554
X58.406 Y61.736
X58.659 Y61.872
X58.934 Y61.955
X59.220 Y61.983
X59.506 Y61.955
X59.781 Y61.872
X60.034 Y61.736
X60.256 Y61.554
X60.439 Y61.332
X60.574 Y61.078
X60.658 Y60.803
X60.678 Y60.596
X60.678 Y59.440
X60.658 Y59.233
X60.574 Y58.958
X60.439 Y58.704
X60.257 Y58.482
X60.135 Y58.383
X60.112 Y58.356
X60.093 Y58.324
X60.082 Y58.289
X60.078 Y58.255
X60.078 Y46.272
X60.083 Y46.224
X60.078 Y46.178
X60.078 Y46.178
X60.066 Y46.056
X60.017 Y45.895
X59.925 Y45.730
X59.910 Y45.702
X59.898 Y45.667
X59.894 Y45.630
X59.898 Y45.593
X59.910 Y45.558
X59.928 Y45.526
X59.953 Y45.498
X59.983 Y45.476
X60.013 Y45.463
X60.159 Y45.403
X60.397 Y45.243
X60.601 Y45.040
X60.760 Y44.801
X60.870 Y44.536
X60.926 Y44.254
X60.925 Y43.938
X60.928 Y43.904
X60.940 Y43.868
X60.958 Y43.836
X60.980 Y43.812
X62.337 Y42.455
X62.370 Y42.428
X62.478 Y42.297
X62.557 Y42.148
X62.606 Y41.986
X62.618 Y41.864
X62.623 Y41.818
X62.618 Y41.770
X62.618 Y36.381
X62.622 Y36.347
X62.633 Y36.312
X62.652 Y36.279
X62.675 Y36.253
X62.796 Y36.154
X62.979 Y35.931
X63.114 Y35.678
X63.198 Y35.403
X63.218 Y35.196
X63.218 Y34.444
X63.222 Y34.410
X63.233 Y34.375
X63.252 Y34.343
X63.274 Y34.318
X63.896 Y33.696
X63.928 Y33.669
X63.945 Y33.649
X64.036 Y33.538
X64.115 Y33.389
X64.165 Y33.227
X64.170 Y33.174
X64.173 Y33.142
X64.184 Y33.107
X64.204 Y33.073
X64.242 Y33.038
X64.451 Y32.830
X64.610 Y32.591
X64.720 Y32.326
X64.776 Y32.043
X64.776 Y31.757
X64.720 Y31.474
X64.610 Y31.209
X64.451 Y30.970
X64.247 Y30.767
X64.008 Y30.607
X63.743 Y30.497
X63.461 Y30.441
X63.142 Y30.441
X63.106 Y30.434
X63.072 Y30.419
X63.042 Y30.397
X63.018 Y30.369
X62.999 Y30.337
X62.988 Y30.302
X62.984 Y30.265
X62.988 Y30.228
X62.999 Y30.193
X63.018 Y30.161
X63.040 Y30.136
X65.263 Y27.913
X65.291 Y27.892
X65.325 Y27.877
X65.362 Y27.870
X65.398 Y27.870
X65.435 Y27.877
X65.469 Y27.892
X65.499 Y27.914
X65.523 Y27.942
X65.542 Y27.974
X65.553 Y28.009
X65.557 Y28.043
X65.557 Y76.813
X65.553 Y76.847
X65.542 Y76.882
X65.523 Y76.914
X65.499 Y76.942
X65.469 Y76.964
X65.435 Y76.979
X65.398 Y76.986
X0.690 Y76.986
G0  Z3.000
G0  X63.031 Y76.419
G0  Z3.000
G0  Z0
G01 F50 Z-0.070
G01 F400 X63.366 Y76.419
X63.696 Y76.353
X64.007 Y76.224
X64.287 Y76.037
X64.525 Y75.799
X64.712 Y75.519
X64.841 Y75.209
X64.906 Y74.878
X64.906 Y74.542
X64.841 Y74.211
X64.712 Y73.901
X64.525 Y73.621
X64.287 Y73.383
X64.007 Y73.196
X63.696 Y73.067
X63.366 Y73.001
X63.031 Y73.001
X62.701 Y73.067
X62.390 Y73.196
X62.110 Y73.383
X61.872 Y73.621
X61.685 Y73.901
X61.556 Y74.212
X61.490 Y74.542
X61.490 Y74.878
X61.556 Y75.208
X61.685 Y75.520
X61.872 Y75.799
X62.110 Y76.037
X62.390 Y76.224
X62.701 Y76.353
X63.031 Y76.419
G0  Z3.000
G0  X2.681 Y76.359
G0  Z3.000
G0  Z0
G01 F50 Z-0.070
G01 F400 X3.016 Y76.359
X3.346 Y76.293
X3.657 Y76.164
X3.937 Y75.977
X4.175 Y75.739
X4.362 Y75.459
X4.490 Y75.149
X4.556 Y74.818
X4.556 Y74.482
X4.490 Y74.151
X4.362 Y73.841
X4.175 Y73.561
X3.937 Y73.323
X3.657 Y73.136
X3.346 Y73.007
X3.016 Y72.941
X2.681 Y72.941
X2.351 Y73.007
X2.040 Y73.136
X1.760 Y73.323
X1.522 Y73.561
X1.335 Y73.841
X1.206 Y74.152
X1.140 Y74.482
X1.140 Y74.818
X1.206 Y75.148
X1.335 Y75.460
X1.522 Y75.739
X1.760 Y75.977
X2.040 Y76.164
X2.351 Y76.293
X2.681 Y76.359
G0  Z3.000
G0  X13.425 Y76.186
G0  Z3.000
G0  Z0
G01 F50 Z-0.070
G01 F400 X15.394 Y76.186
X15.500 Y76.175
X15.586 Y76.149
X15.665 Y76.107
X15.735 Y76.050
X15.793 Y75.979
X15.835 Y75.900
X15.861 Y75.813
X15.870 Y75.721
X15.870 Y72.727
X15.861 Y72.635
X15.835 Y72.548
X15.793 Y72.469
X15.735 Y72.399
X15.666 Y72.342
X15.559 Y72.286
X15.531 Y72.265
X15.506 Y72.238
X15.487 Y72.206
X15.476 Y72.170
X15.472 Y72.133
X15.476 Y72.097
X15.487 Y72.061
X15.506 Y72.029
X15.531 Y72.002
X15.559 Y71.981
X15.703 Y71.904
X15.926 Y71.722
X16.108 Y71.499
X16.243 Y71.246
X16.327 Y70.971
X16.355 Y70.686
X16.327 Y70.401
X16.243 Y70.126
X16.108 Y69.873
X15.925 Y69.650
X15.703 Y69.468
X15.450 Y69.332
X15.175 Y69.249
X14.953 Y69.227
X13.825 Y69.227
X13.603 Y69.249
X13.328 Y69.333
X13.075 Y69.468
X12.853 Y69.650
X12.671 Y69.872
X12.535 Y70.126
X12.451 Y70.401
X12.423 Y70.686
X12.451 Y70.971
X12.535 Y71.246
X12.671 Y71.500
X12.853 Y71.722
X13.075 Y71.904
X13.238 Y71.991
X13.267 Y72.012
X13.292 Y72.040
X13.310 Y72.072
X13.322 Y72.107
X13.325 Y72.144
X13.322 Y72.181
X13.310 Y72.216
X13.292 Y72.248
X13.267 Y72.276
X13.238 Y72.296
X13.153 Y72.342
X13.084 Y72.399
X13.026 Y72.469
X12.983 Y72.549
X12.957 Y72.635
X12.948 Y72.726
X12.948 Y75.722
X12.957 Y75.813
X12.983 Y75.900
X13.026 Y75.980
X13.084 Y76.049
X13.153 Y76.107
X13.233 Y76.149
X13.319 Y76.175
X13.425 Y76.186
G0  Z3.000
G0  X36.947 Y76.121
G0  Z3.000
G0  Z0
G01 F50 Z-0.070
G01 F400 X37.233 Y76.092
X37.507 Y76.009
X37.761 Y75.874
X37.983 Y75.691
X38.166 Y75.469
X38.301 Y75.216
X38.384 Y74.941
X38.405 Y74.733
X38.405 Y73.578
X38.384 Y73.370
X38.301 Y73.095
X38.165 Y72.842
X37.983 Y72.620
X37.862 Y72.520
X37.838 Y72.494
X37.820 Y72.462
X37.808 Y72.427
X37.805 Y72.392
X37.805 Y72.064
X37.808 Y72.030
X37.820 Y71.995
X37.838 Y71.963
X37.863 Y71.935
X37.893 Y71.913
X37.927 Y71.898
X37.963 Y71.891
X38.703 Y71.891
X38.924 Y71.869
X39.199 Y71.785
X39.452 Y71.650
X39.674 Y71.468
X39.828 Y71.280
X39.850 Y71.256
X39.880 Y71.234
X39.914 Y71.219
X39.951 Y71.211
X39.988 Y71.211
X40.024 Y71.219
X40.058 Y71.234
X40.088 Y71.256
X40.112 Y71.283
X40.129 Y71.311
X40.230 Y71.500
X40.412 Y71.722
X40.634 Y71.904
X40.887 Y72.040
X41.162 Y72.123
X41.383 Y72.145
X42.138 Y72.145
X42.174 Y72.152
X42.208 Y72.167
X42.237 Y72.188
X42.314 Y72.265
X42.336 Y72.290
X42.355 Y72.322
X42.366 Y72.357
X42.370 Y72.394
X42.366 Y72.433
X42.350 Y72.473
X42.322 Y72.564
X42.313 Y72.656
X42.313 Y75.650
X42.322 Y75.742
X42.348 Y75.828
X42.391 Y75.909
X42.448 Y75.978
X42.519 Y76.036
X42.598 Y76.078
X42.684 Y76.104
X42.790 Y76.115
X44.758 Y76.115
X44.865 Y76.104
X44.950 Y76.078
X45.030 Y76.036
X45.100 Y75.978
X45.158 Y75.908
X45.200 Y75.829
X45.226 Y75.742
X45.235 Y75.651
X45.235 Y72.655
X45.226 Y72.564
X45.200 Y72.477
X45.157 Y72.398
X45.100 Y72.328
X45.030 Y72.270
X44.951 Y72.228
X44.865 Y72.202
X44.759 Y72.191
X44.663 Y72.191
X44.627 Y72.184
X44.593 Y72.169
X44.563 Y72.147
X44.539 Y72.119
X44.522 Y72.091
X44.492 Y72.034
X44.427 Y71.955
X44.377 Y71.897
X44.352 Y71.876
X43.862 Y71.386
X43.840 Y71.362
X43.821 Y71.330
X43.810 Y71.294
X43.806 Y71.258
X43.810 Y71.221
X43.886 Y70.971
X43.914 Y70.686
X43.886 Y70.401
X43.802 Y70.126
X43.667 Y69.872
X43.484 Y69.650
X43.262 Y69.468
X43.009 Y69.332
X42.734 Y69.249
X42.512 Y69.227
X41.384 Y69.227
X41.162 Y69.249
X40.887 Y69.333
X40.634 Y69.468
X40.412 Y69.650
X40.258 Y69.838
X40.236 Y69.862
X40.206 Y69.884
X40.172 Y69.899
X40.136 Y69.907
X40.099 Y69.907
X40.062 Y69.899
X40.028 Y69.884
X39.998 Y69.862
X39.974 Y69.835
X39.957 Y69.806
X39.857 Y69.618
X39.674 Y69.396
X39.452 Y69.214
X39.199 Y69.078
X38.924 Y68.995
X38.702 Y68.973
X37.574 Y68.973
X37.352 Y68.995
X37.077 Y69.079
X36.824 Y69.214
X36.602 Y69.396
X36.420 Y69.618
X36.284 Y69.872
X36.200 Y70.147
X36.197 Y70.183
X36.172 Y70.432
X36.200 Y70.717
X36.280 Y70.979
X36.284 Y71.016
X36.280 Y71.052
X36.268 Y71.088
X36.251 Y71.119
X36.230 Y71.144
X36.150 Y71.294
X36.100 Y71.456
X36.089 Y71.577
X36.084 Y71.623
X36.089 Y71.672
X36.089 Y72.392
X36.085 Y72.427
X36.074 Y72.462
X36.055 Y72.494
X36.031 Y72.520
X35.910 Y72.620
X35.728 Y72.842
X35.593 Y73.096
X35.509 Y73.370
X35.489 Y73.578
X35.489 Y74.733
X35.509 Y74.941
X35.593 Y75.216
X35.728 Y75.470
X35.910 Y75.691
X36.133 Y75.874
X36.386 Y76.009
X36.660 Y76.092
X36.947 Y76.121
G0  Z3.000
G0  X29.134 Y76.067
G0  Z3.000
G0  Z0
G01 F50 Z-0.070
G01 F400 X29.420 Y76.039
X29.694 Y75.956
X29.948 Y75.820
X30.170 Y75.638
X30.352 Y75.416
X30.488 Y75.163
X30.571 Y74.887
X30.592 Y74.681
X30.592 Y73.524
X30.571 Y73.317
X30.488 Y73.042
X30.353 Y72.789
X30.160 Y72.557
X30.140 Y72.535
X30.121 Y72.502
X30.110 Y72.467
X30.106 Y72.433
X30.106 Y71.722
X30.110 Y71.687
X30.121 Y71.652
X30.140 Y71.620
X30.164 Y71.593
X30.194 Y71.571
X30.226 Y71.556
X30.309 Y71.532
X30.562 Y71.396
X30.784 Y71.214
X30.967 Y70.992
X31.102 Y70.738
X31.186 Y70.463
X31.214 Y70.178
X31.186 Y69.893
X31.102 Y69.618
X30.967 Y69.365
X30.784 Y69.142
X30.562 Y68.960
X30.309 Y68.824
X30.034 Y68.741
X29.812 Y68.719
X28.684 Y68.719
X28.462 Y68.741
X28.187 Y68.825
X27.934 Y68.960
X27.711 Y69.142
X27.530 Y69.364
X27.394 Y69.618
X27.310 Y69.893
X27.282 Y70.178
X27.310 Y70.463
X27.366 Y70.645
X27.394 Y70.738
X27.530 Y70.992
X27.712 Y71.214
X27.934 Y71.396
X28.178 Y71.529
X28.270 Y71.556
X28.302 Y71.571
X28.332 Y71.593
X28.356 Y71.620
X28.375 Y71.652
X28.386 Y71.687
X28.390 Y71.722
X28.390 Y72.245
X28.386 Y72.280
X28.375 Y72.315
X28.356 Y72.347
X28.333 Y72.373
X28.097 Y72.567
X27.915 Y72.788
X27.780 Y73.042
X27.696 Y73.317
X27.676 Y73.525
X27.676 Y74.680
X27.696 Y74.887
X27.780 Y75.162
X27.915 Y75.416
X28.097 Y75.638
X28.319 Y75.820
X28.573 Y75.956
X28.847 Y76.039
X29.134 Y76.067
G0  Z3.000
G0  X13.359 Y75.774
G0  Z3.000
G0  Z0
G01 F50 Z-0.070
G01 F400 X13.359 Y72.674
X13.939 Y72.674
X13.939 Y71.736
X13.886 Y71.736
X13.671 Y71.713
X13.462 Y71.645
X13.272 Y71.536
X13.109 Y71.389
X12.979 Y71.211
X12.890 Y71.011
X12.845 Y70.796
X12.845 Y70.576
X12.890 Y70.361
X12.979 Y70.161
X13.109 Y69.983
X13.272 Y69.836
X13.462 Y69.727
X13.671 Y69.659
X13.886 Y69.636
X14.892 Y69.636
X15.107 Y69.659
X15.316 Y69.727
X15.506 Y69.836
X15.670 Y69.983
X15.799 Y70.161
X15.888 Y70.361
X15.934 Y70.576
X15.934 Y70.796
X15.888 Y71.011
X15.799 Y71.211
X15.670 Y71.389
X15.506 Y71.536
X15.316 Y71.645
X15.107 Y71.713
X14.892 Y71.736
X14.839 Y71.736
X14.839 Y72.674
X15.459 Y72.674
X15.459 Y75.774
X13.359 Y75.774
G0  Z3.000
G0  X42.724 Y75.703
G0  Z3.000
G0  Z0
G01 F50 Z-0.070
G01 F400 X42.724 Y72.603
X43.229 Y72.603
X42.362 Y71.736
X41.445 Y71.736
X41.230 Y71.713
X41.021 Y71.645
X40.831 Y71.536
X40.668 Y71.389
X40.538 Y71.211
X40.449 Y71.011
X40.404 Y70.796
X40.404 Y70.576
X40.449 Y70.361
X40.538 Y70.161
X40.668 Y69.983
X40.831 Y69.836
X41.021 Y69.727
X41.230 Y69.659
X41.445 Y69.636
X42.451 Y69.636
X42.666 Y69.659
X42.875 Y69.727
X43.065 Y69.836
X43.229 Y69.983
X43.358 Y70.161
X43.447 Y70.361
X43.492 Y70.576
X43.492 Y70.796
X43.447 Y71.011
X43.358 Y71.211
X43.252 Y71.354
X44.078 Y72.181
X44.139 Y72.248
X44.186 Y72.329
X44.215 Y72.419
X44.224 Y72.510
X44.224 Y72.603
X44.824 Y72.603
X44.824 Y75.703
X42.724 Y75.703
G0  Z3.000
G0  X36.837 Y75.700
G0  Z3.000
G0  Z0
G01 F50 Z-0.070
G01 F400 X36.622 Y75.654
X36.422 Y75.565
X36.244 Y75.436
X36.097 Y75.273
X35.987 Y75.083
X35.919 Y74.874
X35.897 Y74.658
X35.897 Y73.653
X35.919 Y73.437
X35.987 Y73.228
X36.097 Y73.038
X36.244 Y72.875
X36.422 Y72.746
X36.497 Y72.713
X36.497 Y71.621
X36.506 Y71.530
X36.535 Y71.440
X36.583 Y71.359
X36.642 Y71.292
X36.830 Y71.097
X36.728 Y70.957
X36.639 Y70.757
X36.593 Y70.542
X36.593 Y70.322
X36.639 Y70.107
X36.728 Y69.907
X36.858 Y69.729
X37.021 Y69.582
X37.211 Y69.472
X37.420 Y69.405
X37.635 Y69.382
X38.641 Y69.382
X38.856 Y69.405
X39.065 Y69.472
X39.255 Y69.582
X39.419 Y69.729
X39.548 Y69.907
X39.637 Y70.107
X39.683 Y70.322
X39.683 Y70.542
X39.637 Y70.757
X39.548 Y70.957
X39.419 Y71.135
X39.255 Y71.282
X39.065 Y71.391
X38.856 Y71.459
X38.641 Y71.482
X37.724 Y71.482
X37.397 Y71.809
X37.397 Y72.713
X37.472 Y72.746
X37.650 Y72.875
X37.796 Y73.038
X37.906 Y73.228
X37.974 Y73.437
X37.997 Y73.653
X37.997 Y74.658
X37.974 Y74.874
X37.906 Y75.083
X37.796 Y75.273
X37.650 Y75.436
X37.472 Y75.565
X37.271 Y75.654
X37.056 Y75.700
X36.837 Y75.700
G0  Z3.000
G0  X52.239 Y75.675
G0  Z3.000
G0  Z0
G01 F50 Z-0.070
G01 F400 X52.239 Y72.575
X52.839 Y72.575
X52.839 Y65.147
X49.240 Y61.547
X49.170 Y61.563
X48.950 Y61.563
X48.736 Y61.517
X48.535 Y61.428
X48.357 Y61.298
X48.210 Y61.135
X48.101 Y60.945
X48.033 Y60.736
X48.010 Y60.521
X48.010 Y59.515
X48.033 Y59.300
X48.101 Y59.091
X48.210 Y58.901
X48.357 Y58.737
X48.535 Y58.608
X48.736 Y58.519
X48.950 Y58.473
X49.170 Y58.473
X49.385 Y58.519
X49.585 Y58.608
X49.763 Y58.737
X49.910 Y58.901
X50.020 Y59.091
X50.087 Y59.300
X50.110 Y59.515
X50.110 Y60.521
X50.087 Y60.736
X50.020 Y60.945
X49.979 Y61.015
X53.593 Y64.629
X53.654 Y64.696
X53.701 Y64.778
X53.730 Y64.867
X53.739 Y64.958
X53.739 Y72.575
X54.339 Y72.575
X54.339 Y75.675
X52.239 Y75.675
G0  Z3.000
G0  X29.024 Y75.647
G0  Z3.000
G0  Z0
G01 F50 Z-0.070
G01 F400 X28.809 Y75.601
X28.609 Y75.512
X28.431 Y75.383
X28.284 Y75.220
X28.174 Y75.029
X28.106 Y74.821
X28.084 Y74.605
X28.084 Y73.600
X28.106 Y73.384
X28.174 Y73.175
X28.284 Y72.985
X28.431 Y72.822
X28.609 Y72.692
X28.798 Y72.613
X28.798 Y71.228
X28.745 Y71.228
X28.530 Y71.205
X28.321 Y71.137
X28.131 Y71.028
X27.968 Y70.881
X27.838 Y70.703
X27.749 Y70.502
X27.704 Y70.288
X27.704 Y70.068
X27.749 Y69.853
X27.838 Y69.653
X27.968 Y69.475
X28.131 Y69.328
X28.321 Y69.219
X28.530 Y69.151
X28.745 Y69.128
X29.751 Y69.128
X29.966 Y69.151
X30.175 Y69.219
X30.365 Y69.328
X30.529 Y69.475
X30.658 Y69.653
X30.747 Y69.853
X30.793 Y70.068
X30.793 Y70.288
X30.747 Y70.502
X30.658 Y70.703
X30.529 Y70.881
X30.365 Y71.028
X30.175 Y71.137
X29.966 Y71.205
X29.751 Y71.228
X29.698 Y71.228
X29.698 Y72.721
X29.837 Y72.822
X29.983 Y72.985
X30.093 Y73.175
X30.161 Y73.384
X30.184 Y73.600
X30.184 Y74.605
X30.161 Y74.821
X30.093 Y75.029
X29.983 Y75.220
X29.837 Y75.383
X29.659 Y75.512
X29.458 Y75.601
X29.244 Y75.647
X29.024 Y75.647
G0  Z3.000
G0  X60.114 Y68.802
G0  Z3.000
G0  Z0
G01 F50 Z-0.070
G01 F400 X60.114 Y68.200
X59.317 Y68.200
X59.224 Y68.180
X59.139 Y68.142
X59.063 Y68.087
X56.376 Y65.400
X56.316 Y65.333
X56.269 Y65.252
X56.240 Y65.162
X56.230 Y65.071
X56.230 Y61.461
X56.155 Y61.428
X55.977 Y61.298
X55.830 Y61.135
X55.721 Y60.945
X55.653 Y60.736
X55.630 Y60.521
X55.630 Y59.515
X55.653 Y59.300
X55.721 Y59.091
X55.830 Y58.901
X55.977 Y58.737
X56.155 Y58.608
X56.355 Y58.519
X56.570 Y58.473
X56.790 Y58.473
X57.005 Y58.519
X57.205 Y58.608
X57.383 Y58.737
X57.530 Y58.901
X57.640 Y59.091
X57.707 Y59.300
X57.730 Y59.515
X57.730 Y60.521
X57.707 Y60.736
X57.640 Y60.945
X57.530 Y61.135
X57.383 Y61.298
X57.205 Y61.428
X57.130 Y61.461
X57.130 Y64.883
X59.551 Y67.304
X60.114 Y67.304
X60.114 Y66.702
X63.214 Y66.702
X63.214 Y68.802
X60.114 Y68.802
G0  Z3.000
G0  X13.824 Y67.065
G0  Z3.000
G0  Z0
G01 F50 Z-0.070
G01 F400 X14.954 Y67.065
X15.175 Y67.043
X15.450 Y66.960
X15.703 Y66.824
X15.925 Y66.642
X16.014 Y66.534
X16.036 Y66.509
X16.066 Y66.487
X16.100 Y66.472
X16.136 Y66.465
X17.783 Y66.465
X17.818 Y66.468
X17.851 Y66.465
X17.987 Y66.452
X18.056 Y66.431
X18.089 Y66.424
X18.126 Y66.424
X18.161 Y66.431
X18.264 Y66.473
X18.642 Y66.549
X19.026 Y66.549
X19.404 Y66.473
X19.761 Y66.326
X20.082 Y66.111
X20.355 Y65.838
X20.569 Y65.517
X20.717 Y65.161
X20.792 Y64.783
X20.792 Y64.397
X20.717 Y64.018
X20.569 Y63.662
X20.355 Y63.341
X20.082 Y63.069
X19.761 Y62.854
X19.404 Y62.707
X19.026 Y62.631
X18.642 Y62.631
X18.264 Y62.707
X17.907 Y62.854
X17.586 Y63.069
X17.313 Y63.342
X17.099 Y63.662
X16.951 Y64.019
X16.876 Y64.397
X16.876 Y64.574
X16.872 Y64.608
X16.861 Y64.643
X16.842 Y64.675
X16.818 Y64.703
X16.788 Y64.725
X16.754 Y64.740
X16.718 Y64.747
X16.136 Y64.747
X16.100 Y64.740
X16.066 Y64.725
X16.036 Y64.703
X16.014 Y64.678
X15.925 Y64.570
X15.703 Y64.388
X15.450 Y64.252
X15.175 Y64.169
X14.953 Y64.147
X13.814 Y64.147
X13.778 Y64.139
X13.744 Y64.124
X13.715 Y64.103
X13.342 Y63.730
X13.320 Y63.706
X13.301 Y63.673
X13.290 Y63.638
X13.286 Y63.604
X13.286 Y58.056
X13.290 Y58.022
X13.301 Y57.987
X13.320 Y57.955
X13.342 Y57.930
X15.849 Y55.422
X15.878 Y55.402
X15.912 Y55.386
X15.948 Y55.379
X17.772 Y55.379
X17.808 Y55.386
X17.845 Y55.403
X17.885 Y55.439
X18.099 Y55.653
X18.338 Y55.813
X18.604 Y55.923
X18.885 Y55.979
X19.171 Y55.979
X19.453 Y55.923
X19.719 Y55.813
X19.957 Y55.653
X20.161 Y55.450
X20.320 Y55.211
X20.430 Y54.946
X20.486 Y54.663
X20.486 Y54.377
X20.430 Y54.094
X20.320 Y53.829
X20.161 Y53.590
X19.957 Y53.387
X19.719 Y53.227
X19.453 Y53.117
X19.171 Y53.061
X18.885 Y53.061
X18.604 Y53.117
X18.338 Y53.227
X18.099 Y53.387
X17.892 Y53.595
X17.872 Y53.617
X17.842 Y53.639
X17.808 Y53.654
X17.772 Y53.661
X15.573 Y53.661
X15.538 Y53.658
X15.506 Y53.661
X15.370 Y53.675
X15.208 Y53.723
X15.059 Y53.803
X14.928 Y53.911
X14.911 Y53.931
X14.892 Y53.953
X11.851 Y56.994
X11.818 Y57.021
X11.802 Y57.041
X11.711 Y57.151
X11.631 Y57.301
X11.582 Y57.463
X11.570 Y57.583
X11.568 Y57.652
X11.570 Y57.678
X11.570 Y63.982
X11.566 Y64.030
X11.575 Y64.128
X11.582 Y64.198
X11.631 Y64.359
X11.672 Y64.437
X11.711 Y64.509
X11.802 Y64.620
X11.818 Y64.639
X11.851 Y64.666
X12.394 Y65.209
X12.416 Y65.234
X12.434 Y65.266
X12.446 Y65.301
X12.450 Y65.338
X12.423 Y65.606
X12.451 Y65.891
X12.535 Y66.166
X12.671 Y66.420
X12.853 Y66.642
X13.075 Y66.824
X13.328 Y66.960
X13.603 Y67.043
X13.824 Y67.065
G0  Z3.000
G0  X13.886 Y66.656
G0  Z3.000
G0  Z0
G01 F50 Z-0.070
G01 F400 X13.671 Y66.633
X13.462 Y66.565
X13.272 Y66.456
X13.109 Y66.309
X12.979 Y66.131
X12.890 Y65.931
X12.845 Y65.716
X12.845 Y65.496
X12.890 Y65.281
X12.938 Y65.175
X12.124 Y64.362
X12.064 Y64.295
X12.017 Y64.213
X11.988 Y64.124
X11.978 Y64.033
X11.978 Y57.627
X11.988 Y57.536
X12.017 Y57.447
X12.064 Y57.365
X12.124 Y57.298
X15.238 Y54.185
X15.313 Y54.130
X15.399 Y54.092
X15.491 Y54.072
X18.086 Y54.063
X18.179 Y53.903
X18.326 Y53.739
X18.503 Y53.610
X18.704 Y53.521
X18.919 Y53.476
X19.138 Y53.476
X19.353 Y53.521
X19.553 Y53.610
X19.731 Y53.739
X19.878 Y53.903
X19.988 Y54.093
X20.056 Y54.302
X20.079 Y54.520
X20.056 Y54.738
X19.988 Y54.947
X19.878 Y55.137
X19.731 Y55.300
X19.553 Y55.430
X19.353 Y55.519
X19.138 Y55.565
X18.919 Y55.565
X18.704 Y55.519
X18.503 Y55.430
X18.326 Y55.300
X18.178 Y55.137
X18.083 Y54.968
X15.726 Y54.968
X12.878 Y57.816
X12.878 Y63.844
X13.627 Y64.593
X13.671 Y64.579
X13.886 Y64.556
X14.892 Y64.556
X15.107 Y64.579
X15.316 Y64.647
X15.506 Y64.756
X15.670 Y64.903
X15.799 Y65.081
X15.833 Y65.158
X17.395 Y65.150
X17.318 Y64.912
X17.284 Y64.590
X17.318 Y64.268
X17.418 Y63.959
X17.580 Y63.679
X17.797 Y63.438
X18.059 Y63.247
X18.355 Y63.116
X18.672 Y63.048
X18.996 Y63.048
X19.313 Y63.116
X19.609 Y63.247
X19.871 Y63.438
X20.088 Y63.679
X20.250 Y63.959
X20.350 Y64.268
X20.384 Y64.590
X20.350 Y64.912
X20.250 Y65.221
X20.088 Y65.501
X19.871 Y65.742
X19.609 Y65.933
X19.313 Y66.064
X18.996 Y66.132
X18.672 Y66.132
X18.356 Y66.065
X18.093 Y65.960
X18.043 Y65.996
X17.957 Y66.034
X17.865 Y66.054
X15.833 Y66.054
X15.799 Y66.131
X15.670 Y66.309
X15.506 Y66.456
X15.316 Y66.565
X15.107 Y66.633
X14.892 Y66.656
X13.886 Y66.656
G0  Z3.000
G0  X41.445 Y66.656
G0  Z3.000
G0  Z0
G01 F50 Z-0.070
G01 F400 X41.230 Y66.633
X41.021 Y66.565
X40.831 Y66.456
X40.668 Y66.309
X40.538 Y66.131
X40.449 Y65.931
X40.404 Y65.716
X40.404 Y65.496
X40.449 Y65.281
X40.538 Y65.081
X40.668 Y64.903
X40.831 Y64.756
X41.021 Y64.647
X41.230 Y64.579
X41.445 Y64.556
X41.498 Y64.556
X41.498 Y63.992
X40.604 Y63.098
X36.645 Y63.098
X36.553 Y63.078
X36.467 Y63.040
X36.392 Y62.985
X36.056 Y62.650
X35.996 Y62.583
X35.949 Y62.501
X35.920 Y62.412
X35.910 Y62.321
X35.910 Y61.461
X35.835 Y61.428
X35.657 Y61.298
X35.510 Y61.135
X35.401 Y60.945
X35.333 Y60.736
X35.310 Y60.521
X35.310 Y59.515
X35.333 Y59.300
X35.401 Y59.091
X35.510 Y58.901
X35.657 Y58.737
X35.835 Y58.608
X36.035 Y58.519
X36.250 Y58.473
X36.470 Y58.473
X36.685 Y58.519
X36.885 Y58.608
X37.063 Y58.737
X37.210 Y58.901
X37.320 Y59.091
X37.387 Y59.300
X37.410 Y59.515
X37.410 Y60.521
X37.387 Y60.736
X37.320 Y60.945
X37.210 Y61.135
X37.063 Y61.298
X36.885 Y61.428
X36.810 Y61.461
X36.810 Y62.132
X36.880 Y62.202
X40.839 Y62.202
X40.931 Y62.222
X41.017 Y62.260
X41.092 Y62.315
X42.252 Y63.474
X42.312 Y63.541
X42.359 Y63.623
X42.388 Y63.712
X42.398 Y63.803
X42.398 Y64.556
X42.451 Y64.556
X42.666 Y64.579
X42.875 Y64.647
X43.065 Y64.756
X43.229 Y64.903
X43.358 Y65.081
X43.392 Y65.158
X45.443 Y65.158
X45.540 Y65.062
X45.485 Y64.966
X45.385 Y64.658
X45.351 Y64.336
X45.385 Y64.014
X45.485 Y63.705
X45.647 Y63.425
X45.864 Y63.184
X46.126 Y62.993
X46.422 Y62.861
X46.739 Y62.794
X47.063 Y62.794
X47.380 Y62.861
X47.676 Y62.993
X47.938 Y63.184
X48.155 Y63.425
X48.317 Y63.705
X48.417 Y64.014
X48.451 Y64.336
X48.417 Y64.658
X48.317 Y64.966
X48.155 Y65.247
X47.938 Y65.488
X47.676 Y65.678
X47.380 Y65.810
X47.063 Y65.878
X46.739 Y65.878
X46.422 Y65.810
X46.173 Y65.700
X45.931 Y65.941
X45.856 Y65.996
X45.770 Y66.034
X45.678 Y66.054
X43.392 Y66.054
X43.358 Y66.131
X43.229 Y66.309
X43.065 Y66.456
X42.875 Y66.565
X42.666 Y66.633
X42.451 Y66.656
X41.445 Y66.656
G0  Z3.000
G0  X37.635 Y66.402
G0  Z3.000
G0  Z0
G01 F50 Z-0.070
G01 F400 X37.420 Y66.379
X37.211 Y66.311
X37.021 Y66.202
X36.858 Y66.055
X36.728 Y65.877
X36.694 Y65.800
X34.778 Y65.800
X34.595 Y65.933
X34.299 Y66.064
X33.982 Y66.132
X33.658 Y66.132
X33.341 Y66.064
X33.045 Y65.933
X32.783 Y65.742
X32.566 Y65.501
X32.404 Y65.221
X32.304 Y64.912
X32.270 Y64.590
X32.304 Y64.268
X32.404 Y63.959
X32.566 Y63.679
X32.783 Y63.438
X33.045 Y63.247
X33.341 Y63.116
X33.370 Y63.109
X33.370 Y61.461
X33.295 Y61.428
X33.117 Y61.298
X32.970 Y61.135
X32.861 Y60.945
X32.793 Y60.736
X32.770 Y60.521
X32.770 Y59.515
X32.793 Y59.300
X32.861 Y59.091
X32.970 Y58.901
X33.117 Y58.737
X33.295 Y58.608
X33.495 Y58.519
X33.710 Y58.473
X33.930 Y58.473
X34.145 Y58.519
X34.345 Y58.608
X34.523 Y58.737
X34.670 Y58.901
X34.779 Y59.091
X34.847 Y59.300
X34.870 Y59.515
X34.870 Y60.521
X34.847 Y60.736
X34.779 Y60.945
X34.670 Y61.135
X34.523 Y61.298
X34.345 Y61.428
X34.270 Y61.461
X34.270 Y63.109
X34.299 Y63.116
X34.595 Y63.247
X34.857 Y63.438
X35.074 Y63.679
X35.236 Y63.959
X35.336 Y64.268
X35.370 Y64.590
X35.337 Y64.904
X36.694 Y64.904
X36.728 Y64.827
X36.858 Y64.649
X37.021 Y64.502
X37.211 Y64.392
X37.420 Y64.325
X37.635 Y64.302
X38.641 Y64.302
X38.856 Y64.325
X39.065 Y64.392
X39.255 Y64.502
X39.419 Y64.649
X39.548 Y64.827
X39.637 Y65.027
X39.683 Y65.242
X39.683 Y65.462
X39.637 Y65.677
X39.548 Y65.877
X39.419 Y66.055
X39.255 Y66.202
X39.065 Y66.311
X38.856 Y66.379
X38.641 Y66.402
X37.635 Y66.402
G0  Z3.000
G0  X28.745 Y66.148
G0  Z3.000
G0  Z0
G01 F50 Z-0.070
G01 F400 X28.530 Y66.125
X28.321 Y66.057
X28.131 Y65.948
X27.968 Y65.801
X27.838 Y65.623
X27.804 Y65.546
X26.144 Y65.546
X25.967 Y65.742
X25.705 Y65.933
X25.409 Y66.064
X25.092 Y66.132
X24.768 Y66.132
X24.451 Y66.064
X24.155 Y65.933
X23.893 Y65.742
X23.676 Y65.501
X23.514 Y65.221
X23.414 Y64.912
X23.380 Y64.590
X23.414 Y64.268
X23.514 Y63.959
X23.676 Y63.679
X23.893 Y63.438
X24.155 Y63.247
X24.451 Y63.116
X24.768 Y63.048
X25.092 Y63.048
X25.409 Y63.116
X25.705 Y63.247
X25.967 Y63.438
X26.184 Y63.679
X26.346 Y63.959
X26.446 Y64.268
X26.480 Y64.590
X26.474 Y64.650
X27.804 Y64.650
X27.838 Y64.573
X27.968 Y64.395
X28.131 Y64.248
X28.321 Y64.139
X28.530 Y64.071
X28.745 Y64.048
X29.662 Y64.048
X30.830 Y62.880
X30.830 Y61.461
X30.755 Y61.428
X30.577 Y61.298
X30.430 Y61.135
X30.321 Y60.945
X30.253 Y60.736
X30.230 Y60.521
X30.230 Y59.515
X30.253 Y59.300
X30.321 Y59.091
X30.430 Y58.901
X30.577 Y58.737
X30.755 Y58.608
X30.956 Y58.519
X31.170 Y58.473
X31.390 Y58.473
X31.605 Y58.519
X31.805 Y58.608
X31.983 Y58.737
X32.130 Y58.901
X32.239 Y59.091
X32.307 Y59.300
X32.330 Y59.515
X32.330 Y60.521
X32.307 Y60.736
X32.239 Y60.945
X32.130 Y61.135
X31.983 Y61.298
X31.805 Y61.428
X31.730 Y61.461
X31.730 Y63.069
X31.720 Y63.160
X31.691 Y63.249
X31.644 Y63.331
X31.584 Y63.398
X30.557 Y64.434
X30.658 Y64.573
X30.747 Y64.773
X30.793 Y64.988
X30.793 Y65.208
X30.747 Y65.422
X30.658 Y65.623
X30.529 Y65.801
X30.365 Y65.948
X30.175 Y66.057
X29.966 Y66.125
X29.751 Y66.148
X28.745 Y66.148
G0  Z3.000
G0  X14.990 Y61.568
G0  Z3.000
G0  Z0
G01 F50 Z-0.070
G01 F400 X14.990 Y58.468
X17.090 Y58.468
X17.090 Y61.568
X14.990 Y61.568
G0  Z3.000
G0  X54.030 Y61.563
G0  Z3.000
G0  Z0
G01 F50 Z-0.070
G01 F400 X53.816 Y61.517
X53.615 Y61.428
X53.437 Y61.298
X53.290 Y61.135
X53.181 Y60.945
X53.113 Y60.736
X53.090 Y60.521
X53.090 Y59.515
X53.113 Y59.300
X53.181 Y59.091
X53.290 Y58.901
X53.437 Y58.737
X53.615 Y58.608
X53.816 Y58.519
X54.030 Y58.473
X54.250 Y58.473
X54.465 Y58.519
X54.665 Y58.608
X54.843 Y58.737
X54.990 Y58.901
X55.100 Y59.091
X55.167 Y59.300
X55.190 Y59.515
X55.190 Y60.521
X55.167 Y60.736
X55.100 Y60.945
X54.990 Y61.135
X54.843 Y61.298
X54.665 Y61.428
X54.465 Y61.517
X54.250 Y61.563
X54.030 Y61.563
G0  Z3.000
G0  X51.490 Y61.563
G0  Z3.000
G0  Z0
G01 F50 Z-0.070
G01 F400 X51.276 Y61.517
X51.075 Y61.428
X50.897 Y61.298
X50.750 Y61.135
X50.641 Y60.945
X50.573 Y60.736
X50.550 Y60.521
X50.550 Y59.515
X50.573 Y59.300
X50.641 Y59.091
X50.750 Y58.901
X50.897 Y58.737
X51.075 Y58.608
X51.276 Y58.519
X51.490 Y58.473
X51.710 Y58.473
X51.925 Y58.519
X52.125 Y58.608
X52.303 Y58.737
X52.450 Y58.901
X52.559 Y59.091
X52.627 Y59.300
X52.650 Y59.515
X52.650 Y60.521
X52.627 Y60.736
X52.559 Y60.945
X52.450 Y61.135
X52.303 Y61.298
X52.125 Y61.428
X51.925 Y61.517
X51.710 Y61.563
X51.490 Y61.563
G0  Z3.000
G0  X59.110 Y61.563
G0  Z3.000
G0  Z0
G01 F50 Z-0.070
G01 F400 X58.896 Y61.517
X58.695 Y61.428
X58.517 Y61.298
X58.370 Y61.135
X58.261 Y60.945
X58.193 Y60.736
X58.170 Y60.521
X58.170 Y59.515
X58.193 Y59.300
X58.261 Y59.091
X58.370 Y58.901
X58.517 Y58.737
X58.695 Y58.608
X58.770 Y58.575
X58.770 Y46.409
X56.486 Y44.126
X55.543 Y44.126
X55.504 Y44.213
X55.375 Y44.391
X55.212 Y44.538
X55.022 Y44.648
X54.813 Y44.715
X54.597 Y44.738
X53.592 Y44.738
X53.376 Y44.715
X53.167 Y44.648
X52.977 Y44.538
X52.814 Y44.391
X52.685 Y44.213
X52.596 Y44.013
X52.550 Y43.798
X52.550 Y43.578
X52.596 Y43.363
X52.685 Y43.163
X52.814 Y42.985
X52.977 Y42.838
X53.167 Y42.729
X53.376 Y42.661
X53.592 Y42.638
X54.597 Y42.638
X54.813 Y42.661
X55.022 Y42.729
X55.212 Y42.838
X55.375 Y42.985
X55.504 Y43.163
X55.534 Y43.230
X56.721 Y43.230
X56.813 Y43.250
X56.899 Y43.288
X56.974 Y43.342
X59.524 Y45.892
X59.584 Y45.959
X59.631 Y46.041
X59.660 Y46.130
X59.670 Y46.221
X59.670 Y58.575
X59.745 Y58.608
X59.923 Y58.737
X60.070 Y58.901
X60.180 Y59.091
X60.247 Y59.300
X60.270 Y59.515
X60.270 Y60.521
X60.247 Y60.736
X60.180 Y60.945
X60.070 Y61.135
X59.923 Y61.298
X59.745 Y61.428
X59.545 Y61.517
X59.330 Y61.563
X59.110 Y61.563
G0  Z3.000
G0  X43.870 Y61.563
G0  Z3.000
G0  Z0
G01 F50 Z-0.070
G01 F400 X43.656 Y61.517
X43.455 Y61.428
X43.277 Y61.298
X43.130 Y61.135
X43.021 Y60.945
X42.953 Y60.736
X42.930 Y60.521
X42.930 Y59.515
X42.953 Y59.300
X43.021 Y59.091
X43.130 Y58.901
X43.277 Y58.737
X43.455 Y58.608
X43.656 Y58.519
X43.870 Y58.473
X44.090 Y58.473
X44.305 Y58.519
X44.331 Y58.531
X49.360 Y53.502
X49.435 Y53.448
X49.521 Y53.410
X49.613 Y53.390
X52.655 Y53.390
X52.685 Y53.323
X52.814 Y53.145
X52.977 Y52.998
X53.167 Y52.889
X53.376 Y52.821
X53.592 Y52.798
X54.597 Y52.798
X54.813 Y52.821
X55.022 Y52.889
X55.212 Y52.998
X55.375 Y53.145
X55.504 Y53.323
X55.593 Y53.523
X55.639 Y53.738
X55.639 Y53.958
X55.593 Y54.173
X55.504 Y54.373
X55.375 Y54.551
X55.212 Y54.698
X55.022 Y54.808
X54.813 Y54.875
X54.597 Y54.898
X53.592 Y54.898
X53.376 Y54.875
X53.167 Y54.808
X52.977 Y54.698
X52.814 Y54.551
X52.685 Y54.373
X52.646 Y54.286
X49.848 Y54.286
X44.965 Y59.169
X45.007 Y59.300
X45.030 Y59.515
X45.030 Y60.521
X45.007 Y60.736
X44.940 Y60.945
X44.830 Y61.135
X44.683 Y61.298
X44.505 Y61.428
X44.305 Y61.517
X44.090 Y61.563
X43.870 Y61.563
G0  Z3.000
G0  X41.330 Y61.563
G0  Z3.000
G0  Z0
G01 F50 Z-0.070
G01 F400 X41.116 Y61.517
X40.915 Y61.428
X40.737 Y61.298
X40.590 Y61.135
X40.480 Y60.945
X40.413 Y60.736
X40.390 Y60.521
X40.390 Y59.515
X40.413 Y59.300
X40.480 Y59.091
X40.590 Y58.901
X40.737 Y58.737
X40.915 Y58.608
X40.990 Y58.575
X40.990 Y55.415
X41.000 Y55.324
X41.029 Y55.235
X41.076 Y55.153
X41.136 Y55.086
X47.800 Y48.422
X47.875 Y48.368
X47.961 Y48.330
X48.053 Y48.310
X52.655 Y48.310
X52.685 Y48.243
X52.814 Y48.065
X52.977 Y47.918
X53.167 Y47.809
X53.376 Y47.741
X53.592 Y47.718
X54.597 Y47.718
X54.813 Y47.741
X55.022 Y47.809
X55.212 Y47.918
X55.375 Y48.065
X55.504 Y48.243
X55.593 Y48.443
X55.639 Y48.658
X55.639 Y48.878
X55.593 Y49.093
X55.504 Y49.293
X55.375 Y49.471
X55.212 Y49.618
X55.022 Y49.727
X54.813 Y49.795
X54.597 Y49.818
X53.592 Y49.818
X53.376 Y49.795
X53.167 Y49.727
X52.977 Y49.618
X52.814 Y49.471
X52.685 Y49.293
X52.646 Y49.206
X48.288 Y49.206
X41.890 Y55.604
X41.890 Y58.575
X41.965 Y58.608
X42.143 Y58.737
X42.290 Y58.901
X42.400 Y59.091
X42.467 Y59.300
X42.490 Y59.515
X42.490 Y60.521
X42.467 Y60.736
X42.400 Y60.945
X42.290 Y61.135
X42.143 Y61.298
X41.965 Y61.428
X41.765 Y61.517
X41.550 Y61.563
X41.330 Y61.563
G0  Z3.000
G0  X18.470 Y61.563
G0  Z3.000
G0  Z0
G01 F50 Z-0.070
G01 F400 X18.256 Y61.517
X18.055 Y61.428
X17.877 Y61.298
X17.730 Y61.135
X17.620 Y60.945
X17.553 Y60.736
X17.530 Y60.521
X17.530 Y59.515
X17.553 Y59.300
X17.620 Y59.091
X17.730 Y58.901
X17.877 Y58.737
X18.055 Y58.608
X18.256 Y58.519
X18.470 Y58.473
X18.690 Y58.473
X18.905 Y58.519
X19.105 Y58.608
X19.283 Y58.737
X19.430 Y58.901
X19.540 Y59.091
X19.607 Y59.300
X19.630 Y59.515
X19.630 Y60.521
X19.607 Y60.736
X19.540 Y60.945
X19.430 Y61.135
X19.283 Y61.298
X19.105 Y61.428
X18.905 Y61.517
X18.690 Y61.563
X18.470 Y61.563
G0  Z3.000
G0  X38.790 Y61.563
G0  Z3.000
G0  Z0
G01 F50 Z-0.070
G01 F400 X38.576 Y61.517
X38.375 Y61.428
X38.197 Y61.298
X38.050 Y61.135
X37.941 Y60.945
X37.873 Y60.736
X37.850 Y60.521
X37.850 Y59.515
X37.873 Y59.300
X37.941 Y59.091
X38.050 Y58.901
X38.197 Y58.737
X38.375 Y58.608
X38.450 Y58.575
X38.450 Y54.022
X38.460 Y53.931
X38.489 Y53.842
X38.536 Y53.760
X38.596 Y53.693
X51.486 Y40.802
X51.562 Y40.748
X51.648 Y40.710
X51.740 Y40.690
X52.655 Y40.690
X52.685 Y40.623
X52.814 Y40.445
X52.977 Y40.298
X53.167 Y40.189
X53.376 Y40.121
X53.592 Y40.098
X54.597 Y40.098
X54.813 Y40.121
X55.022 Y40.189
X55.212 Y40.298
X55.375 Y40.445
X55.504 Y40.623
X55.593 Y40.823
X55.639 Y41.038
X55.639 Y41.258
X55.593 Y41.473
X55.504 Y41.673
X55.375 Y41.851
X55.212 Y41.998
X55.022 Y42.108
X54.813 Y42.175
X54.597 Y42.198
X53.592 Y42.198
X53.376 Y42.175
X53.167 Y42.108
X52.977 Y41.998
X52.814 Y41.851
X52.685 Y41.673
X52.646 Y41.586
X51.975 Y41.586
X39.350 Y54.210
X39.350 Y58.575
X39.425 Y58.608
X39.603 Y58.737
X39.750 Y58.901
X39.860 Y59.091
X39.927 Y59.300
X39.950 Y59.515
X39.950 Y60.521
X39.927 Y60.736
X39.860 Y60.945
X39.750 Y61.135
X39.603 Y61.298
X39.425 Y61.428
X39.225 Y61.517
X39.010 Y61.563
X38.790 Y61.563
G0  Z3.000
G0  X23.550 Y61.563
G0  Z3.000
G0  Z0
G01 F50 Z-0.070
G01 F400 X23.335 Y61.517
X23.135 Y61.428
X22.957 Y61.298
X22.810 Y61.135
X22.701 Y60.945
X22.633 Y60.736
X22.610 Y60.521
X22.610 Y59.515
X22.633 Y59.300
X22.701 Y59.091
X22.810 Y58.901
X22.957 Y58.737
X23.135 Y58.608
X23.210 Y58.575
X23.210 Y49.237
X12.794 Y38.822
X12.734 Y38.755
X12.687 Y38.673
X12.658 Y38.584
X12.648 Y38.493
X12.648 Y31.906
X11.284 Y30.542
X11.224 Y30.475
X11.177 Y30.393
X11.148 Y30.304
X11.138 Y30.213
X11.138 Y23.857
X11.148 Y23.766
X11.177 Y23.677
X11.224 Y23.595
X11.284 Y23.528
X15.067 Y19.746
X15.067 Y11.192
X15.076 Y11.101
X15.105 Y11.012
X15.152 Y10.930
X15.213 Y10.863
X16.218 Y9.858
X16.207 Y9.843
X16.118 Y9.642
X16.072 Y9.428
X16.072 Y9.208
X16.118 Y8.993
X16.207 Y8.793
X16.336 Y8.615
X16.499 Y8.468
X16.690 Y8.358
X16.898 Y8.290
X17.114 Y8.268
X18.119 Y8.268
X18.335 Y8.290
X18.544 Y8.358
X18.734 Y8.468
X18.897 Y8.615
X19.026 Y8.793
X19.116 Y8.993
X19.161 Y9.208
X19.161 Y9.428
X19.116 Y9.642
X19.026 Y9.843
X18.897 Y10.021
X18.734 Y10.168
X18.544 Y10.277
X18.335 Y10.345
X18.119 Y10.368
X17.114 Y10.368
X16.992 Y10.355
X15.967 Y11.381
X15.967 Y19.934
X15.957 Y20.025
X15.928 Y20.115
X15.881 Y20.196
X15.821 Y20.263
X12.038 Y24.046
X12.038 Y30.024
X13.402 Y31.388
X13.463 Y31.455
X13.510 Y31.537
X13.539 Y31.626
X13.548 Y31.717
X13.548 Y38.304
X23.964 Y48.720
X24.024 Y48.787
X24.071 Y48.869
X24.100 Y48.958
X24.110 Y49.049
X24.110 Y58.575
X24.185 Y58.608
X24.363 Y58.737
X24.510 Y58.901
X24.620 Y59.091
X24.687 Y59.300
X24.710 Y59.515
X24.710 Y60.521
X24.687 Y60.736
X24.620 Y60.945
X24.510 Y61.135
X24.363 Y61.298
X24.185 Y61.428
X23.985 Y61.517
X23.770 Y61.563
X23.550 Y61.563
G0  Z3.000
G0  X21.010 Y61.563
G0  Z3.000
G0  Z0
G01 F50 Z-0.070
G01 F400 X20.796 Y61.517
X20.595 Y61.428
X20.417 Y61.298
X20.270 Y61.135
X20.161 Y60.945
X20.093 Y60.736
X20.070 Y60.521
X20.070 Y59.515
X20.093 Y59.300
X20.161 Y59.091
X20.270 Y58.901
X20.417 Y58.737
X20.595 Y58.608
X20.796 Y58.519
X21.010 Y58.473
X21.230 Y58.473
X21.445 Y58.519
X21.645 Y58.608
X21.823 Y58.737
X21.970 Y58.901
X22.079 Y59.091
X22.147 Y59.300
X22.170 Y59.515
X22.170 Y60.521
X22.147 Y60.736
X22.079 Y60.945
X21.970 Y61.135
X21.823 Y61.298
X21.645 Y61.428
X21.445 Y61.517
X21.230 Y61.563
X21.010 Y61.563
G0  Z3.000
G0  X28.630 Y61.563
G0  Z3.000
G0  Z0
G01 F50 Z-0.070
G01 F400 X28.416 Y61.517
X28.215 Y61.428
X28.037 Y61.298
X27.890 Y61.135
X27.780 Y60.945
X27.713 Y60.736
X27.690 Y60.521
X27.690 Y59.515
X27.713 Y59.300
X27.780 Y59.091
X27.890 Y58.901
X28.037 Y58.737
X28.215 Y58.608
X28.416 Y58.519
X28.630 Y58.473
X28.850 Y58.473
X29.065 Y58.519
X29.265 Y58.608
X29.443 Y58.737
X29.590 Y58.901
X29.700 Y59.091
X29.767 Y59.300
X29.790 Y59.515
X29.790 Y60.521
X29.767 Y60.736
X29.700 Y60.945
X29.590 Y61.135
X29.443 Y61.298
X29.265 Y61.428
X29.065 Y61.517
X28.850 Y61.563
X28.630 Y61.563
G0  Z3.000
G0  X26.090 Y61.563
G0  Z3.000
G0  Z0
G01 F50 Z-0.070
G01 F400 X25.876 Y61.517
X25.675 Y61.428
X25.497 Y61.298
X25.350 Y61.135
X25.241 Y60.945
X25.173 Y60.736
X25.150 Y60.521
X25.150 Y59.515
X25.173 Y59.300
X25.241 Y59.091
X25.350 Y58.901
X25.497 Y58.737
X25.675 Y58.608
X25.876 Y58.519
X26.090 Y58.473
X26.310 Y58.473
X26.525 Y58.519
X26.725 Y58.608
X26.903 Y58.737
X27.050 Y58.901
X27.160 Y59.091
X27.227 Y59.300
X27.250 Y59.515
X27.250 Y60.521
X27.227 Y60.736
X27.160 Y60.945
X27.050 Y61.135
X26.903 Y61.298
X26.725 Y61.428
X26.525 Y61.517
X26.310 Y61.563
X26.090 Y61.563
G0  Z3.000
G0  X42.692 Y58.665
G0  Z3.000
G0  Z0
G01 F50 Z-0.070
G01 F400 X42.655 Y58.657
X42.621 Y58.642
X42.591 Y58.620
X42.569 Y58.595
X42.476 Y58.482
X42.355 Y58.383
X42.332 Y58.356
X42.313 Y58.324
X42.302 Y58.289
X42.298 Y58.255
X42.298 Y55.844
X42.302 Y55.810
X42.313 Y55.774
X42.332 Y55.742
X42.354 Y55.718
X48.411 Y49.660
X48.440 Y49.639
X48.474 Y49.624
X48.510 Y49.617
X52.339 Y49.617
X52.375 Y49.624
X52.409 Y49.639
X52.439 Y49.661
X52.461 Y49.686
X52.558 Y49.803
X52.684 Y49.907
X52.708 Y49.934
X52.727 Y49.966
X52.738 Y50.001
X52.742 Y50.038
X52.738 Y50.075
X52.727 Y50.110
X52.708 Y50.142
X52.684 Y50.169
X52.558 Y50.273
X52.376 Y50.494
X52.240 Y50.748
X52.157 Y51.023
X52.129 Y51.308
X52.157 Y51.593
X52.240 Y51.868
X52.376 Y52.122
X52.558 Y52.344
X52.684 Y52.447
X52.708 Y52.474
X52.727 Y52.506
X52.738 Y52.541
X52.742 Y52.578
X52.738 Y52.615
X52.727 Y52.650
X52.708 Y52.682
X52.684 Y52.709
X52.558 Y52.813
X52.478 Y52.910
X52.456 Y52.935
X52.426 Y52.956
X52.392 Y52.971
X52.356 Y52.979
X49.695 Y52.979
X49.661 Y52.976
X49.628 Y52.979
X49.491 Y52.992
X49.330 Y53.041
X49.181 Y53.121
X49.050 Y53.228
X49.033 Y53.249
X49.014 Y53.271
X44.261 Y58.024
X44.232 Y58.045
X44.198 Y58.060
X44.162 Y58.067
X44.127 Y58.067
X43.980 Y58.053
X43.694 Y58.081
X43.419 Y58.165
X43.166 Y58.300
X42.944 Y58.482
X42.851 Y58.595
X42.829 Y58.620
X42.799 Y58.642
X42.765 Y58.657
X42.729 Y58.665
X42.692 Y58.665
G0  Z3.000
G0  X24.912 Y58.665
G0  Z3.000
G0  Z0
G01 F50 Z-0.070
G01 F400 X24.875 Y58.657
X24.841 Y58.642
X24.811 Y58.620
X24.789 Y58.595
X24.696 Y58.482
X24.575 Y58.383
X24.552 Y58.356
X24.533 Y58.324
X24.522 Y58.289
X24.518 Y58.255
X24.518 Y49.100
X24.523 Y49.052
X24.518 Y49.006
X24.518 Y49.006
X24.506 Y48.884
X24.457 Y48.722
X24.378 Y48.574
X24.263 Y48.436
X24.237 Y48.415
X14.012 Y38.190
X13.990 Y38.166
X13.971 Y38.133
X13.960 Y38.098
X13.956 Y38.064
X13.956 Y37.886
X13.960 Y37.852
X13.971 Y37.817
X13.990 Y37.785
X14.015 Y37.757
X14.045 Y37.735
X14.079 Y37.720
X14.115 Y37.712
X14.152 Y37.712
X14.188 Y37.720
X14.222 Y37.735
X14.251 Y37.756
X16.132 Y39.637
X16.151 Y39.659
X16.168 Y39.679
X16.299 Y39.787
X16.448 Y39.867
X16.610 Y39.916
X16.746 Y39.929
X16.778 Y39.932
X16.813 Y39.929
X28.499 Y39.929
X28.609 Y39.906
X28.828 Y39.906
X28.937 Y39.929
X36.713 Y39.929
X36.748 Y39.932
X36.781 Y39.929
X36.917 Y39.916
X37.078 Y39.867
X37.142 Y39.832
X37.227 Y39.787
X37.327 Y39.705
X37.358 Y39.679
X37.375 Y39.659
X37.395 Y39.637
X39.477 Y37.554
X39.510 Y37.527
X39.617 Y37.397
X39.697 Y37.248
X39.746 Y37.086
X39.758 Y36.964
X39.763 Y36.918
X39.758 Y36.870
X39.758 Y36.381
X39.762 Y36.347
X39.773 Y36.312
X39.792 Y36.279
X39.815 Y36.253
X39.936 Y36.154
X40.029 Y36.041
X40.051 Y36.016
X40.081 Y35.994
X40.115 Y35.979
X40.151 Y35.971
X40.189 Y35.971
X40.225 Y35.979
X40.259 Y35.994
X40.289 Y36.016
X40.311 Y36.041
X40.404 Y36.154
X40.626 Y36.336
X40.879 Y36.471
X41.154 Y36.555
X41.440 Y36.583
X41.726 Y36.555
X42.001 Y36.471
X42.254 Y36.336
X42.476 Y36.154
X42.569 Y36.041
X42.591 Y36.016
X42.621 Y35.994
X42.655 Y35.979
X42.692 Y35.971
X42.729 Y35.971
X42.765 Y35.979
X42.799 Y35.994
X42.829 Y36.016
X42.851 Y36.041
X42.944 Y36.154
X43.166 Y36.336
X43.419 Y36.471
X43.694 Y36.555
X43.980 Y36.583
X44.266 Y36.555
X44.541 Y36.471
X44.794 Y36.336
X45.016 Y36.154
X45.109 Y36.041
X45.131 Y36.016
X45.161 Y35.994
X45.195 Y35.979
X45.232 Y35.971
X45.269 Y35.971
X45.305 Y35.979
X45.339 Y35.994
X45.369 Y36.016
X45.391 Y36.041
X45.484 Y36.154
X45.605 Y36.253
X45.628 Y36.279
X45.647 Y36.312
X45.658 Y36.347
X45.662 Y36.381
X45.662 Y36.492
X45.658 Y36.526
X45.647 Y36.561
X45.628 Y36.593
X45.606 Y36.618
X28.837 Y53.388
X28.808 Y53.409
X28.774 Y53.424
X28.738 Y53.431
X28.328 Y53.431
X28.292 Y53.424
X28.258 Y53.409
X28.228 Y53.387
X28.204 Y53.360
X28.131 Y53.250
X27.927 Y53.047
X27.689 Y52.887
X27.423 Y52.777
X27.141 Y52.721
X26.855 Y52.721
X26.574 Y52.777
X26.308 Y52.887
X26.069 Y53.047
X25.866 Y53.250
X25.706 Y53.489
X25.596 Y53.755
X25.540 Y54.036
X25.540 Y54.324
X25.596 Y54.605
X25.706 Y54.871
X25.866 Y55.110
X26.069 Y55.313
X26.308 Y55.473
X26.574 Y55.583
X26.855 Y55.639
X27.141 Y55.639
X27.423 Y55.583
X27.689 Y55.473
X27.927 Y55.313
X28.048 Y55.193
X28.077 Y55.172
X28.111 Y55.156
X28.147 Y55.149
X29.113 Y55.149
X29.148 Y55.152
X29.181 Y55.149
X29.316 Y55.136
X29.478 Y55.087
X29.512 Y55.068
X29.627 Y55.007
X29.678 Y54.965
X29.758 Y54.900
X29.775 Y54.879
X29.795 Y54.857
X47.097 Y37.554
X47.130 Y37.527
X47.147 Y37.507
X47.237 Y37.397
X47.317 Y37.248
X47.366 Y37.086
X47.383 Y36.918
X47.378 Y36.870
X47.378 Y36.381
X47.382 Y36.347
X47.393 Y36.312
X47.412 Y36.279
X47.435 Y36.253
X47.556 Y36.154
X47.649 Y36.041
X47.671 Y36.016
X47.701 Y35.994
X47.735 Y35.979
X47.772 Y35.971
X47.809 Y35.971
X47.845 Y35.979
X47.879 Y35.994
X47.909 Y36.016
X47.931 Y36.041
X48.024 Y36.154
X48.246 Y36.336
X48.499 Y36.471
X48.774 Y36.555
X49.060 Y36.583
X49.346 Y36.555
X49.621 Y36.471
X49.874 Y36.336
X50.096 Y36.154
X50.189 Y36.041
X50.211 Y36.016
X50.241 Y35.994
X50.275 Y35.979
X50.312 Y35.971
X50.349 Y35.971
X50.385 Y35.979
X50.419 Y35.994
X50.449 Y36.016
X50.471 Y36.041
X50.564 Y36.154
X50.786 Y36.336
X51.039 Y36.471
X51.314 Y36.555
X51.600 Y36.583
X51.886 Y36.555
X52.161 Y36.471
X52.414 Y36.336
X52.636 Y36.154
X52.729 Y36.041
X52.751 Y36.016
X52.781 Y35.994
X52.815 Y35.979
X52.852 Y35.971
X52.889 Y35.971
X52.925 Y35.979
X52.959 Y35.994
X52.989 Y36.016
X53.011 Y36.041
X53.104 Y36.154
X53.326 Y36.336
X53.579 Y36.471
X53.854 Y36.555
X54.140 Y36.583
X54.426 Y36.555
X54.701 Y36.471
X54.954 Y36.336
X55.176 Y36.154
X55.269 Y36.041
X55.291 Y36.016
X55.321 Y35.994
X55.355 Y35.979
X55.392 Y35.971
X55.428 Y35.971
X55.465 Y35.979
X55.499 Y35.994
X55.529 Y36.016
X55.551 Y36.041
X55.644 Y36.154
X55.866 Y36.336
X56.119 Y36.471
X56.394 Y36.555
X56.680 Y36.583
X56.966 Y36.555
X57.241 Y36.471
X57.494 Y36.336
X57.716 Y36.154
X57.809 Y36.041
X57.831 Y36.016
X57.861 Y35.994
X57.895 Y35.979
X57.931 Y35.971
X57.969 Y35.971
X58.005 Y35.979
X58.039 Y35.994
X58.069 Y36.016
X58.091 Y36.041
X58.184 Y36.154
X58.406 Y36.336
X58.659 Y36.471
X58.934 Y36.555
X59.220 Y36.583
X59.506 Y36.555
X59.781 Y36.471
X60.034 Y36.336
X60.256 Y36.154
X60.349 Y36.041
X60.371 Y36.016
X60.401 Y35.994
X60.435 Y35.979
X60.472 Y35.971
X60.509 Y35.971
X60.545 Y35.979
X60.579 Y35.994
X60.609 Y36.016
X60.631 Y36.041
X60.724 Y36.154
X60.845 Y36.253
X60.868 Y36.279
X60.887 Y36.312
X60.898 Y36.347
X60.902 Y36.381
X60.902 Y41.392
X60.898 Y41.426
X60.887 Y41.462
X60.868 Y41.494
X60.846 Y41.518
X59.755 Y42.609
X59.727 Y42.630
X59.693 Y42.645
X59.655 Y42.653
X59.616 Y42.651
X59.325 Y42.651
X59.044 Y42.707
X58.778 Y42.817
X58.539 Y42.977
X58.336 Y43.180
X58.176 Y43.419
X58.115 Y43.568
X58.097 Y43.598
X58.072 Y43.626
X58.042 Y43.647
X58.009 Y43.662
X57.972 Y43.670
X57.935 Y43.670
X57.899 Y43.662
X57.865 Y43.647
X57.836 Y43.626
X57.320 Y43.110
X57.301 Y43.089
X57.284 Y43.068
X57.253 Y43.043
X57.253 Y43.043
X57.154 Y42.961
X57.101 Y42.933
X57.004 Y42.881
X56.843 Y42.832
X56.707 Y42.819
X56.674 Y42.816
X56.639 Y42.819
X55.248 Y42.819
X55.211 Y42.811
X55.178 Y42.796
X55.148 Y42.775
X55.123 Y42.747
X55.104 Y42.715
X55.093 Y42.680
X55.089 Y42.643
X55.093 Y42.606
X55.104 Y42.571
X55.123 Y42.539
X55.148 Y42.511
X55.176 Y42.490
X55.409 Y42.366
X55.631 Y42.184
X55.813 Y41.962
X55.949 Y41.708
X56.032 Y41.433
X56.060 Y41.148
X56.032 Y40.863
X55.949 Y40.588
X55.813 Y40.334
X55.631 Y40.112
X55.505 Y40.009
X55.481 Y39.982
X55.462 Y39.950
X55.451 Y39.915
X55.447 Y39.878
X55.451 Y39.841
X55.462 Y39.806
X55.481 Y39.774
X55.505 Y39.747
X55.631 Y39.644
X55.813 Y39.422
X55.949 Y39.168
X56.032 Y38.893
X56.060 Y38.608
X56.032 Y38.323
X55.949 Y38.048
X55.813 Y37.794
X55.631 Y37.572
X55.409 Y37.390
X55.155 Y37.254
X54.881 Y37.171
X54.659 Y37.149
X53.530 Y37.149
X53.308 Y37.171
X53.034 Y37.254
X52.780 Y37.390
X52.558 Y37.573
X52.376 Y37.794
X52.240 Y38.048
X52.157 Y38.323
X52.129 Y38.608
X52.157 Y38.893
X52.240 Y39.168
X52.376 Y39.422
X52.558 Y39.644
X52.684 Y39.747
X52.708 Y39.774
X52.727 Y39.806
X52.738 Y39.841
X52.742 Y39.878
X52.738 Y39.915
X52.727 Y39.950
X52.708 Y39.982
X52.684 Y40.009
X52.558 Y40.113
X52.478 Y40.210
X52.456 Y40.235
X52.426 Y40.256
X52.392 Y40.271
X52.356 Y40.279
X51.822 Y40.279
X51.787 Y40.276
X51.754 Y40.279
X51.619 Y40.292
X51.457 Y40.341
X51.307 Y40.421
X51.177 Y40.528
X51.160 Y40.549
X51.140 Y40.571
X38.323 Y53.388
X38.290 Y53.415
X38.205 Y53.519
X38.183 Y53.546
X38.117 Y53.669
X38.103 Y53.695
X38.054 Y53.857
X38.042 Y53.979
X38.037 Y54.025
X38.042 Y54.073
X38.042 Y58.255
X38.038 Y58.289
X38.027 Y58.324
X38.008 Y58.356
X37.985 Y58.383
X37.864 Y58.482
X37.771 Y58.595
X37.749 Y58.620
X37.719 Y58.642
X37.685 Y58.657
X37.648 Y58.665
X37.611 Y58.665
X37.575 Y58.657
X37.541 Y58.642
X37.511 Y58.620
X37.489 Y58.595
X37.396 Y58.482
X37.174 Y58.300
X36.921 Y58.164
X36.646 Y58.081
X36.360 Y58.053
X36.074 Y58.081
X35.799 Y58.165
X35.546 Y58.300
X35.324 Y58.482
X35.231 Y58.595
X35.209 Y58.620
X35.179 Y58.642
X35.145 Y58.657
X35.108 Y58.665
X35.072 Y58.665
X35.035 Y58.657
X35.001 Y58.642
X34.971 Y58.620
X34.949 Y58.595
X34.856 Y58.482
X34.634 Y58.300
X34.381 Y58.164
X34.106 Y58.081
X33.820 Y58.053
X33.534 Y58.081
X33.259 Y58.165
X33.006 Y58.300
X32.784 Y58.482
X32.691 Y58.595
X32.669 Y58.620
X32.639 Y58.642
X32.605 Y58.657
X32.569 Y58.665
X32.532 Y58.665
X32.495 Y58.657
X32.461 Y58.642
X32.431 Y58.620
X32.409 Y58.595
X32.316 Y58.482
X32.094 Y58.300
X31.841 Y58.164
X31.566 Y58.081
X31.280 Y58.053
X30.994 Y58.081
X30.719 Y58.165
X30.466 Y58.300
X30.244 Y58.482
X30.151 Y58.595
X30.129 Y58.620
X30.099 Y58.642
X30.065 Y58.657
X30.029 Y58.665
X29.992 Y58.665
X29.955 Y58.657
X29.921 Y58.642
X29.891 Y58.620
X29.869 Y58.595
X29.776 Y58.482
X29.554 Y58.300
X29.301 Y58.164
X29.026 Y58.081
X28.740 Y58.053
X28.454 Y58.081
X28.179 Y58.165
X27.926 Y58.300
X27.704 Y58.482
X27.611 Y58.595
X27.589 Y58.620
X27.559 Y58.642
X27.525 Y58.657
X27.489 Y58.665
X27.452 Y58.665
X27.415 Y58.657
X27.381 Y58.642
X27.351 Y58.620
X27.329 Y58.595
X27.236 Y58.482
X27.014 Y58.300
X26.761 Y58.164
X26.486 Y58.081
X26.200 Y58.053
X25.914 Y58.081
X25.639 Y58.165
X25.386 Y58.300
X25.164 Y58.482
X25.071 Y58.595
X25.049 Y58.620
X25.019 Y58.642
X24.985 Y58.657
X24.949 Y58.665
X24.912 Y58.665
G0  Z3.000
G0  X52.544 Y57.438
G0  Z3.000
G0  Z0
G01 F50 Z-0.070
G01 F400 X52.544 Y55.338
X55.644 Y55.338
X55.644 Y57.438
X52.544 Y57.438
G0  Z3.000
G0  X26.889 Y55.225
G0  Z3.000
G0  Z0
G01 F50 Z-0.070
G01 F400 X26.674 Y55.179
X26.473 Y55.090
X26.296 Y54.961
X26.149 Y54.797
X26.039 Y54.607
X25.971 Y54.398
X25.948 Y54.180
X25.971 Y53.962
X26.039 Y53.753
X26.149 Y53.563
X26.296 Y53.400
X26.473 Y53.270
X26.674 Y53.181
X26.889 Y53.136
X27.108 Y53.136
X27.323 Y53.181
X27.523 Y53.270
X27.701 Y53.400
X27.848 Y53.563
X27.958 Y53.753
X27.987 Y53.842
X28.960 Y53.842
X46.070 Y36.732
X46.070 Y36.061
X45.995 Y36.028
X45.817 Y35.898
X45.670 Y35.735
X45.561 Y35.545
X45.493 Y35.336
X45.470 Y35.121
X45.470 Y34.115
X45.493 Y33.900
X45.561 Y33.691
X45.670 Y33.501
X45.817 Y33.337
X45.995 Y33.208
X46.196 Y33.119
X46.410 Y33.073
X46.630 Y33.073
X46.845 Y33.119
X47.045 Y33.208
X47.223 Y33.337
X47.370 Y33.501
X47.480 Y33.691
X47.547 Y33.900
X47.570 Y34.115
X47.570 Y35.121
X47.547 Y35.336
X47.480 Y35.545
X47.370 Y35.735
X47.223 Y35.898
X47.045 Y36.028
X46.970 Y36.061
X46.970 Y36.921
X46.960 Y37.012
X46.931 Y37.101
X46.884 Y37.183
X46.824 Y37.250
X29.448 Y54.625
X29.373 Y54.680
X29.287 Y54.718
X29.195 Y54.738
X27.882 Y54.738
X27.848 Y54.797
X27.701 Y54.961
X27.523 Y55.090
X27.323 Y55.179
X27.108 Y55.225
X26.889 Y55.225
G0  Z3.000
G0  X53.592 Y52.358
G0  Z3.000
G0  Z0
G01 F50 Z-0.070
G01 F400 X53.376 Y52.335
X53.167 Y52.268
X52.977 Y52.158
X52.814 Y52.011
X52.685 Y51.833
X52.596 Y51.633
X52.550 Y51.418
X52.550 Y51.198
X52.596 Y50.983
X52.685 Y50.783
X52.814 Y50.605
X52.977 Y50.458
X53.167 Y50.349
X53.376 Y50.281
X53.592 Y50.258
X54.597 Y50.258
X54.813 Y50.281
X55.022 Y50.349
X55.212 Y50.458
X55.375 Y50.605
X55.504 Y50.783
X55.593 Y50.983
X55.639 Y51.198
X55.639 Y51.418
X55.593 Y51.633
X55.504 Y51.833
X55.375 Y52.011
X55.212 Y52.158
X55.022 Y52.268
X54.813 Y52.335
X54.597 Y52.358
X53.592 Y52.358
G0  Z3.000
G0  X56.799 Y47.325
G0  Z3.000
G0  Z0
G01 F50 Z-0.070
G01 F400 X56.584 Y47.279
X56.383 Y47.190
X56.206 Y47.061
X56.059 Y46.897
X55.949 Y46.707
X55.935 Y46.666
X55.543 Y46.666
X55.504 Y46.753
X55.375 Y46.931
X55.212 Y47.078
X55.022 Y47.188
X54.813 Y47.255
X54.597 Y47.278
X53.592 Y47.278
X53.376 Y47.255
X53.167 Y47.188
X52.977 Y47.078
X52.814 Y46.931
X52.685 Y46.753
X52.596 Y46.553
X52.550 Y46.338
X52.550 Y46.118
X52.596 Y45.903
X52.685 Y45.703
X52.814 Y45.525
X52.977 Y45.378
X53.167 Y45.269
X53.376 Y45.201
X53.592 Y45.178
X54.597 Y45.178
X54.813 Y45.201
X55.022 Y45.269
X55.212 Y45.378
X55.375 Y45.525
X55.504 Y45.703
X55.534 Y45.770
X55.997 Y45.770
X56.059 Y45.663
X56.206 Y45.500
X56.383 Y45.370
X56.584 Y45.281
X56.799 Y45.236
X57.018 Y45.236
X57.233 Y45.281
X57.433 Y45.370
X57.611 Y45.500
X57.758 Y45.663
X57.868 Y45.853
X57.936 Y46.062
X57.959 Y46.280
X57.936 Y46.498
X57.868 Y46.707
X57.758 Y46.897
X57.611 Y47.061
X57.433 Y47.190
X57.233 Y47.279
X57.018 Y47.325
X56.799 Y47.325
G0  Z3.000
G0  X5.687 Y47.062
G0  Z3.000
G0  Z0
G01 F50 Z-0.070
G01 F400 X5.687 Y46.808
X4.153 Y46.808
X3.989 Y46.773
X3.836 Y46.705
X3.702 Y46.608
X1.170 Y44.076
X1.061 Y43.954
X0.977 Y43.809
X0.925 Y43.650
X0.908 Y43.486
X0.918 Y34.860
X0.908 Y27.304
X0.925 Y27.140
X0.977 Y26.981
X1.061 Y26.836
X1.130 Y26.759
X1.170 Y26.714
X1.382 Y26.502
X1.517 Y26.405
X1.669 Y26.337
X1.833 Y26.302
X3.367 Y26.302
X3.367 Y26.048
X6.467 Y26.048
X6.467 Y26.302
X6.816 Y26.302
X7.188 Y25.931
X7.172 Y25.882
X7.138 Y25.560
X7.172 Y25.238
X7.272 Y24.929
X7.434 Y24.649
X7.651 Y24.408
X7.913 Y24.217
X8.209 Y24.086
X8.526 Y24.018
X8.850 Y24.018
X9.167 Y24.086
X9.463 Y24.217
X9.726 Y24.408
X9.943 Y24.649
X10.104 Y24.929
X10.205 Y25.238
X10.239 Y25.560
X10.205 Y25.882
X10.104 Y26.191
X9.943 Y26.471
X9.726 Y26.712
X9.463 Y26.903
X9.167 Y27.034
X8.850 Y27.102
X8.526 Y27.102
X8.320 Y27.058
X7.685 Y27.693
X7.551 Y27.791
X7.398 Y27.859
X7.234 Y27.894
X6.467 Y27.894
X6.467 Y28.148
X3.367 Y28.148
X3.367 Y27.894
X2.509 Y27.894
X2.517 Y34.045
X5.824 Y34.045
X5.824 Y33.291
X7.794 Y33.291
X9.181 Y31.904
X9.315 Y31.806
X9.468 Y31.738
X9.632 Y31.703
X10.769 Y31.703
X10.925 Y31.590
X11.126 Y31.500
X11.341 Y31.455
X11.560 Y31.455
X11.775 Y31.500
X11.976 Y31.590
X12.153 Y31.719
X12.300 Y31.882
X12.410 Y32.072
X12.478 Y32.281
X12.501 Y32.499
X12.478 Y32.718
X12.410 Y32.927
X12.300 Y33.117
X12.153 Y33.280
X11.976 Y33.409
X11.775 Y33.498
X11.560 Y33.544
X11.341 Y33.544
X11.126 Y33.498
X10.925 Y33.409
X10.769 Y33.295
X10.049 Y33.295
X8.924 Y34.421
X8.924 Y36.391
X5.824 Y36.391
X5.824 Y35.637
X2.517 Y35.637
X2.509 Y43.154
X4.571 Y45.216
X5.687 Y45.216
X5.687 Y44.962
X8.787 Y44.962
X8.787 Y47.062
X5.687 Y47.062
G0  Z3.000
G0  X59.358 Y45.154
G0  Z3.000
G0  Z0
G01 F50 Z-0.070
G01 F400 X59.144 Y45.109
X58.943 Y45.020
X58.766 Y44.891
X58.619 Y44.727
X58.509 Y44.537
X58.441 Y44.328
X58.418 Y44.110
X58.441 Y43.892
X58.509 Y43.683
X58.619 Y43.493
X58.766 Y43.330
X58.943 Y43.200
X59.144 Y43.111
X59.358 Y43.066
X59.578 Y43.066
X59.793 Y43.111
X59.820 Y43.123
X61.310 Y41.633
X61.310 Y36.061
X61.235 Y36.028
X61.057 Y35.898
X60.910 Y35.735
X60.800 Y35.545
X60.733 Y35.336
X60.710 Y35.121
X60.710 Y34.115
X60.733 Y33.900
X60.800 Y33.691
X60.910 Y33.501
X61.057 Y33.337
X61.235 Y33.208
X61.436 Y33.119
X61.650 Y33.073
X61.870 Y33.073
X62.085 Y33.119
X62.285 Y33.208
X62.428 Y33.314
X62.868 Y32.874
X62.868 Y32.843
X62.793 Y32.810
X62.616 Y32.681
X62.469 Y32.517
X62.359 Y32.327
X62.291 Y32.118
X62.268 Y31.900
X62.291 Y31.682
X62.359 Y31.473
X62.469 Y31.283
X62.616 Y31.120
X62.793 Y30.990
X62.994 Y30.901
X63.209 Y30.856
X63.428 Y30.856
X63.643 Y30.901
X63.843 Y30.990
X64.021 Y31.120
X64.168 Y31.283
X64.278 Y31.473
X64.346 Y31.682
X64.368 Y31.900
X64.346 Y32.118
X64.278 Y32.327
X64.168 Y32.517
X64.021 Y32.681
X63.843 Y32.810
X63.768 Y32.843
X63.768 Y33.062
X63.759 Y33.153
X63.730 Y33.243
X63.683 Y33.324
X63.622 Y33.391
X62.810 Y34.204
X62.810 Y35.121
X62.787 Y35.336
X62.720 Y35.545
X62.610 Y35.735
X62.463 Y35.898
X62.285 Y36.028
X62.210 Y36.061
X62.210 Y41.821
X62.200 Y41.912
X62.171 Y42.001
X62.124 Y42.083
X62.064 Y42.150
X60.453 Y43.761
X60.496 Y43.892
X60.519 Y44.110
X60.496 Y44.328
X60.428 Y44.537
X60.318 Y44.727
X60.171 Y44.891
X59.993 Y45.020
X59.793 Y45.109
X59.578 Y45.154
X59.358 Y45.154
G0  Z3.000
G0  X53.592 Y39.658
G0  Z3.000
G0  Z0
G01 F50 Z-0.070
G01 F400 X53.376 Y39.635
X53.167 Y39.568
X52.977 Y39.458
X52.814 Y39.311
X52.685 Y39.133
X52.596 Y38.933
X52.550 Y38.718
X52.550 Y38.498
X52.596 Y38.283
X52.685 Y38.083
X52.814 Y37.905
X52.977 Y37.758
X53.167 Y37.648
X53.376 Y37.581
X53.592 Y37.558
X54.597 Y37.558
X54.813 Y37.581
X55.022 Y37.648
X55.212 Y37.758
X55.375 Y37.905
X55.504 Y38.083
X55.593 Y38.283
X55.639 Y38.498
X55.639 Y38.718
X55.593 Y38.933
X55.504 Y39.133
X55.375 Y39.311
X55.212 Y39.458
X55.022 Y39.568
X54.813 Y39.635
X54.597 Y39.658
X53.592 Y39.658
G0  Z3.000
G0  X16.731 Y39.518
G0  Z3.000
G0  Z0
G01 F50 Z-0.070
G01 F400 X16.639 Y39.498
X16.553 Y39.460
X16.478 Y39.405
X14.136 Y37.063
X14.076 Y36.996
X14.029 Y36.915
X14.000 Y36.825
X13.990 Y36.734
X13.990 Y32.635
X14.000 Y32.544
X14.029 Y32.455
X14.076 Y32.373
X14.136 Y32.306
X14.260 Y32.183
X14.335 Y32.128
X14.421 Y32.090
X14.513 Y32.070
X17.291 Y32.070
X21.628 Y27.732
X21.628 Y22.128
X21.637 Y15.154
X18.589 Y12.791
X18.544 Y12.817
X18.335 Y12.885
X18.119 Y12.908
X17.114 Y12.908
X16.898 Y12.885
X16.690 Y12.817
X16.499 Y12.708
X16.336 Y12.561
X16.207 Y12.383
X16.118 Y12.182
X16.072 Y11.968
X16.072 Y11.748
X16.118 Y11.533
X16.207 Y11.333
X16.336 Y11.155
X16.499 Y11.008
X16.690 Y10.898
X16.898 Y10.831
X17.114 Y10.808
X18.119 Y10.808
X18.335 Y10.831
X18.544 Y10.898
X18.734 Y11.008
X18.897 Y11.155
X19.026 Y11.333
X19.116 Y11.533
X19.161 Y11.748
X19.161 Y11.968
X19.137 Y12.081
X21.978 Y14.282
X22.041 Y14.269
X22.135 Y14.269
X22.227 Y14.289
X22.313 Y14.327
X22.389 Y14.382
X22.452 Y14.452
X22.499 Y14.534
X22.528 Y14.623
X22.538 Y14.714
X22.538 Y14.938
X22.528 Y22.128
X22.528 Y27.921
X22.519 Y28.012
X22.490 Y28.101
X22.443 Y28.183
X22.382 Y28.250
X17.779 Y32.853
X17.704 Y32.908
X17.617 Y32.946
X17.525 Y32.966
X14.890 Y32.966
X14.890 Y36.546
X16.966 Y38.622
X36.560 Y38.622
X38.450 Y36.732
X38.450 Y36.061
X38.375 Y36.028
X38.197 Y35.898
X38.050 Y35.735
X37.941 Y35.545
X37.873 Y35.336
X37.850 Y35.121
X37.850 Y34.115
X37.873 Y33.900
X37.941 Y33.691
X38.050 Y33.501
X38.197 Y33.337
X38.375 Y33.208
X38.576 Y33.119
X38.790 Y33.073
X39.010 Y33.073
X39.225 Y33.119
X39.425 Y33.208
X39.603 Y33.337
X39.750 Y33.501
X39.860 Y33.691
X39.927 Y33.900
X39.950 Y34.115
X39.950 Y35.121
X39.927 Y35.336
X39.860 Y35.545
X39.750 Y35.735
X39.603 Y35.898
X39.425 Y36.028
X39.350 Y36.061
X39.350 Y36.921
X39.340 Y37.012
X39.311 Y37.101
X39.264 Y37.183
X39.204 Y37.250
X37.048 Y39.405
X36.973 Y39.460
X36.887 Y39.498
X36.795 Y39.518
X16.731 Y39.518
G0  Z3.000
G0  X28.603 Y38.300
G0  Z3.000
G0  Z0
G01 F50 Z-0.070
G01 F400 X28.389 Y38.254
X28.293 Y38.211
X17.189 Y38.211
X17.152 Y38.204
X17.118 Y38.189
X17.089 Y38.168
X15.807 Y36.885
X15.785 Y36.860
X15.766 Y36.828
X15.755 Y36.793
X15.751 Y36.756
X15.755 Y36.719
X15.766 Y36.684
X15.785 Y36.652
X15.809 Y36.624
X15.839 Y36.602
X15.873 Y36.587
X15.910 Y36.580
X17.024 Y36.580
X17.130 Y36.569
X17.216 Y36.543
X17.296 Y36.501
X17.366 Y36.443
X17.423 Y36.373
X17.436 Y36.349
X17.452 Y36.321
X17.477 Y36.294
X17.507 Y36.272
X17.541 Y36.257
X17.577 Y36.249
X17.614 Y36.249
X17.651 Y36.257
X17.684 Y36.272
X17.711 Y36.291
X17.766 Y36.336
X18.019 Y36.471
X18.294 Y36.555
X18.580 Y36.583
X18.866 Y36.555
X19.141 Y36.471
X19.394 Y36.336
X19.616 Y36.154
X19.709 Y36.041
X19.731 Y36.016
X19.761 Y35.994
X19.795 Y35.979
X19.832 Y35.971
X19.869 Y35.971
X19.905 Y35.979
X19.939 Y35.994
X19.969 Y36.016
X19.991 Y36.041
X20.084 Y36.154
X20.306 Y36.336
X20.559 Y36.471
X20.834 Y36.555
X21.120 Y36.583
X21.406 Y36.555
X21.681 Y36.471
X21.934 Y36.336
X22.156 Y36.154
X22.249 Y36.041
X22.271 Y36.016
X22.301 Y35.994
X22.335 Y35.979
X22.372 Y35.971
X22.409 Y35.971
X22.445 Y35.979
X22.479 Y35.994
X22.509 Y36.016
X22.531 Y36.041
X22.624 Y36.154
X22.846 Y36.336
X23.099 Y36.471
X23.374 Y36.555
X23.660 Y36.583
X23.946 Y36.555
X24.221 Y36.471
X24.474 Y36.336
X24.696 Y36.154
X24.789 Y36.041
X24.811 Y36.016
X24.841 Y35.994
X24.875 Y35.979
X24.912 Y35.971
X24.949 Y35.971
X24.985 Y35.979
X25.019 Y35.994
X25.049 Y36.016
X25.071 Y36.041
X25.164 Y36.154
X25.386 Y36.336
X25.639 Y36.471
X25.914 Y36.555
X26.200 Y36.583
X26.486 Y36.555
X26.761 Y36.471
X27.014 Y36.336
X27.236 Y36.154
X27.419 Y35.931
X27.554 Y35.678
X27.638 Y35.403
X27.658 Y35.196
X27.658 Y34.040
X27.638 Y33.833
X27.554 Y33.558
X27.419 Y33.305
X27.380 Y33.257
X27.362 Y33.226
X27.350 Y33.190
X27.346 Y33.153
X27.350 Y33.117
X27.362 Y33.081
X27.380 Y33.049
X27.406 Y33.021
X27.441 Y32.998
X27.608 Y32.909
X27.674 Y32.854
X27.739 Y32.801
X27.756 Y32.780
X27.775 Y32.759
X29.795 Y30.739
X29.824 Y30.718
X29.858 Y30.703
X29.894 Y30.695
X29.931 Y30.695
X29.967 Y30.703
X30.001 Y30.718
X30.031 Y30.740
X30.056 Y30.767
X30.075 Y30.799
X30.086 Y30.834
X30.090 Y30.871
X30.086 Y30.908
X30.075 Y30.943
X30.058 Y30.972
X29.926 Y31.169
X29.816 Y31.435
X29.760 Y31.716
X29.760 Y32.004
X29.816 Y32.285
X29.926 Y32.551
X30.086 Y32.790
X30.187 Y32.891
X30.209 Y32.916
X30.228 Y32.948
X30.239 Y32.983
X30.243 Y33.020
X30.239 Y33.057
X30.228 Y33.092
X30.210 Y33.123
X30.062 Y33.304
X29.926 Y33.558
X29.842 Y33.833
X29.822 Y34.041
X29.822 Y35.195
X29.842 Y35.403
X29.926 Y35.678
X30.062 Y35.932
X30.244 Y36.154
X30.466 Y36.336
X30.719 Y36.471
X30.994 Y36.555
X31.280 Y36.583
X31.566 Y36.555
X31.841 Y36.471
X32.094 Y36.336
X32.316 Y36.154
X32.409 Y36.041
X32.431 Y36.016
X32.461 Y35.994
X32.495 Y35.979
X32.532 Y35.971
X32.569 Y35.971
X32.605 Y35.979
X32.639 Y35.994
X32.669 Y36.016
X32.691 Y36.041
X32.784 Y36.154
X33.006 Y36.336
X33.259 Y36.471
X33.534 Y36.555
X33.820 Y36.583
X34.106 Y36.555
X34.381 Y36.471
X34.634 Y36.336
X34.856 Y36.154
X34.949 Y36.041
X34.971 Y36.016
X35.001 Y35.994
X35.035 Y35.979
X35.072 Y35.971
X35.108 Y35.971
X35.145 Y35.979
X35.179 Y35.994
X35.209 Y36.016
X35.231 Y36.041
X35.324 Y36.154
X35.546 Y36.336
X35.799 Y36.471
X36.074 Y36.555
X36.360 Y36.583
X36.646 Y36.555
X36.921 Y36.471
X37.174 Y36.336
X37.396 Y36.154
X37.489 Y36.041
X37.511 Y36.016
X37.541 Y35.994
X37.575 Y35.979
X37.611 Y35.971
X37.648 Y35.971
X37.685 Y35.979
X37.719 Y35.994
X37.749 Y36.016
X37.771 Y36.041
X37.864 Y36.154
X37.985 Y36.253
X38.008 Y36.279
X38.027 Y36.312
X38.038 Y36.347
X38.042 Y36.381
X38.042 Y36.492
X38.038 Y36.526
X38.027 Y36.561
X38.008 Y36.593
X37.986 Y36.618
X36.437 Y38.168
X36.408 Y38.189
X36.374 Y38.204
X36.338 Y38.211
X29.134 Y38.211
X29.038 Y38.254
X28.823 Y38.300
X28.603 Y38.300
G0  Z3.000
G0  X14.990 Y36.168
G0  Z3.000
G0  Z0
G01 F50 Z-0.070
G01 F400 X14.990 Y33.068
X17.090 Y33.068
X17.090 Y36.168
X14.990 Y36.168
G0  Z3.000
G0  X51.490 Y36.163
G0  Z3.000
G0  Z0
G01 F50 Z-0.070
G01 F400 X51.276 Y36.117
X51.075 Y36.028
X50.897 Y35.898
X50.750 Y35.735
X50.641 Y35.545
X50.573 Y35.336
X50.550 Y35.121
X50.550 Y34.115
X50.573 Y33.900
X50.641 Y33.691
X50.750 Y33.501
X50.897 Y33.337
X51.075 Y33.208
X51.276 Y33.119
X51.490 Y33.073
X51.710 Y33.073
X51.925 Y33.119
X52.125 Y33.208
X52.303 Y33.337
X52.450 Y33.501
X52.559 Y33.691
X52.627 Y33.900
X52.650 Y34.115
X52.650 Y35.121
X52.627 Y35.336
X52.559 Y35.545
X52.450 Y35.735
X52.303 Y35.898
X52.125 Y36.028
X51.925 Y36.117
X51.710 Y36.163
X51.490 Y36.163
G0  Z3.000
G0  X48.950 Y36.163
G0  Z3.000
G0  Z0
G01 F50 Z-0.070
G01 F400 X48.736 Y36.117
X48.535 Y36.028
X48.357 Y35.898
X48.210 Y35.735
X48.101 Y35.545
X48.033 Y35.336
X48.010 Y35.121
X48.010 Y34.115
X48.033 Y33.900
X48.101 Y33.691
X48.210 Y33.501
X48.357 Y33.337
X48.535 Y33.208
X48.736 Y33.119
X48.950 Y33.073
X49.170 Y33.073
X49.385 Y33.119
X49.585 Y33.208
X49.763 Y33.337
X49.910 Y33.501
X50.020 Y33.691
X50.087 Y33.900
X50.110 Y34.115
X50.110 Y35.121
X50.087 Y35.336
X50.020 Y35.545
X49.910 Y35.735
X49.763 Y35.898
X49.585 Y36.028
X49.385 Y36.117
X49.170 Y36.163
X48.950 Y36.163
G0  Z3.000
G0  X56.570 Y36.163
G0  Z3.000
G0  Z0
G01 F50 Z-0.070
G01 F400 X56.355 Y36.117
X56.155 Y36.028
X55.977 Y35.898
X55.830 Y35.735
X55.721 Y35.545
X55.653 Y35.336
X55.630 Y35.121
X55.630 Y34.115
X55.653 Y33.900
X55.721 Y33.691
X55.830 Y33.501
X55.977 Y33.337
X56.155 Y33.208
X56.355 Y33.119
X56.570 Y33.073
X56.790 Y33.073
X57.005 Y33.119
X57.205 Y33.208
X57.383 Y33.337
X57.530 Y33.501
X57.640 Y33.691
X57.707 Y33.900
X57.730 Y34.115
X57.730 Y35.121
X57.707 Y35.336
X57.640 Y35.545
X57.530 Y35.735
X57.383 Y35.898
X57.205 Y36.028
X57.005 Y36.117
X56.790 Y36.163
X56.570 Y36.163
G0  Z3.000
G0  X54.030 Y36.163
G0  Z3.000
G0  Z0
G01 F50 Z-0.070
G01 F400 X53.816 Y36.117
X53.615 Y36.028
X53.437 Y35.898
X53.290 Y35.735
X53.181 Y35.545
X53.113 Y35.336
X53.090 Y35.121
X53.090 Y34.115
X53.113 Y33.900
X53.181 Y33.691
X53.290 Y33.501
X53.437 Y33.337
X53.615 Y33.208
X53.816 Y33.119
X54.030 Y33.073
X54.250 Y33.073
X54.465 Y33.119
X54.665 Y33.208
X54.843 Y33.337
X54.990 Y33.501
X55.100 Y33.691
X55.167 Y33.900
X55.190 Y34.115
X55.190 Y35.121
X55.167 Y35.336
X55.100 Y35.545
X54.990 Y35.735
X54.843 Y35.898
X54.665 Y36.028
X54.465 Y36.117
X54.250 Y36.163
X54.030 Y36.163
G0  Z3.000
G0  X41.330 Y36.163
G0  Z3.000
G0  Z0
G01 F50 Z-0.070
G01 F400 X41.116 Y36.117
X40.915 Y36.028
X40.737 Y35.898
X40.590 Y35.735
X40.480 Y35.545
X40.413 Y35.336
X40.390 Y35.121
X40.390 Y34.115
X40.413 Y33.900
X40.480 Y33.691
X40.590 Y33.501
X40.737 Y33.337
X40.915 Y33.208
X41.116 Y33.119
X41.330 Y33.073
X41.550 Y33.073
X41.765 Y33.119
X41.965 Y33.208
X42.143 Y33.337
X42.290 Y33.501
X42.400 Y33.691
X42.467 Y33.900
X42.490 Y34.115
X42.490 Y35.121
X42.467 Y35.336
X42.400 Y35.545
X42.290 Y35.735
X42.143 Y35.898
X41.965 Y36.028
X41.765 Y36.117
X41.550 Y36.163
X41.330 Y36.163
G0  Z3.000
G0  X43.870 Y36.163
G0  Z3.000
G0  Z0
G01 F50 Z-0.070
G01 F400 X43.656 Y36.117
X43.455 Y36.028
X43.277 Y35.898
X43.130 Y35.735
X43.021 Y35.545
X42.953 Y35.336
X42.930 Y35.121
X42.930 Y34.115
X42.953 Y33.900
X43.021 Y33.691
X43.130 Y33.501
X43.277 Y33.337
X43.455 Y33.208
X43.656 Y33.119
X43.870 Y33.073
X44.090 Y33.073
X44.305 Y33.119
X44.331 Y33.131
X45.280 Y32.183
X45.355 Y32.128
X45.441 Y32.090
X45.533 Y32.070
X50.339 Y32.070
X50.745 Y31.665
X50.820 Y31.610
X50.906 Y31.572
X50.998 Y31.552
X59.774 Y31.552
X64.965 Y26.361
X64.965 Y22.734
X63.754 Y21.524
X63.694 Y21.457
X63.647 Y21.375
X63.618 Y21.286
X63.608 Y21.195
X63.608 Y10.245
X63.263 Y9.899
X62.595 Y9.899
X62.560 Y9.977
X62.431 Y10.154
X62.268 Y10.301
X62.078 Y10.411
X61.869 Y10.479
X61.653 Y10.501
X60.648 Y10.501
X60.432 Y10.479
X60.224 Y10.411
X60.034 Y10.301
X59.870 Y10.154
X59.741 Y9.977
X59.652 Y9.776
X59.606 Y9.561
X59.606 Y9.342
X59.652 Y9.127
X59.741 Y8.926
X59.870 Y8.749
X60.034 Y8.602
X60.224 Y8.492
X60.432 Y8.424
X60.648 Y8.401
X61.653 Y8.401
X61.869 Y8.424
X62.078 Y8.492
X62.268 Y8.602
X62.431 Y8.749
X62.560 Y8.926
X62.595 Y9.004
X63.498 Y9.004
X63.590 Y9.023
X63.676 Y9.062
X63.751 Y9.116
X64.362 Y9.727
X64.423 Y9.794
X64.470 Y9.876
X64.499 Y9.965
X64.508 Y10.056
X64.508 Y21.006
X65.719 Y22.217
X65.779 Y22.284
X65.826 Y22.366
X65.855 Y22.455
X65.865 Y22.546
X65.865 Y26.550
X65.855 Y26.641
X65.826 Y26.730
X65.779 Y26.812
X65.719 Y26.879
X60.263 Y32.335
X60.187 Y32.390
X60.101 Y32.428
X60.009 Y32.448
X51.233 Y32.448
X50.827 Y32.853
X50.752 Y32.908
X50.666 Y32.946
X50.574 Y32.966
X45.768 Y32.966
X44.965 Y33.769
X45.007 Y33.900
X45.030 Y34.115
X45.030 Y35.121
X45.007 Y35.336
X44.940 Y35.545
X44.830 Y35.735
X44.683 Y35.898
X44.505 Y36.028
X44.305 Y36.117
X44.090 Y36.163
X43.870 Y36.163
G0  Z3.000
G0  X59.110 Y36.163
G0  Z3.000
G0  Z0
G01 F50 Z-0.070
G01 F400 X58.896 Y36.117
X58.695 Y36.028
X58.517 Y35.898
X58.370 Y35.735
X58.261 Y35.545
X58.193 Y35.336
X58.170 Y35.121
X58.170 Y34.115
X58.193 Y33.900
X58.261 Y33.691
X58.370 Y33.501
X58.517 Y33.337
X58.695 Y33.208
X58.896 Y33.119
X59.110 Y33.073
X59.330 Y33.073
X59.545 Y33.119
X59.745 Y33.208
X59.923 Y33.337
X60.070 Y33.501
X60.180 Y33.691
X60.247 Y33.900
X60.270 Y34.115
X60.270 Y35.121
X60.247 Y35.336
X60.180 Y35.545
X60.070 Y35.735
X59.923 Y35.898
X59.745 Y36.028
X59.545 Y36.117
X59.330 Y36.163
X59.110 Y36.163
G0  Z3.000
G0  X31.170 Y36.163
G0  Z3.000
G0  Z0
G01 F50 Z-0.070
G01 F400 X30.956 Y36.117
X30.755 Y36.028
X30.577 Y35.898
X30.430 Y35.735
X30.321 Y35.545
X30.253 Y35.336
X30.230 Y35.121
X30.230 Y34.115
X30.253 Y33.900
X30.321 Y33.691
X30.430 Y33.501
X30.577 Y33.337
X30.755 Y33.208
X30.830 Y33.175
X30.830 Y32.831
X30.693 Y32.770
X30.516 Y32.641
X30.369 Y32.477
X30.259 Y32.287
X30.191 Y32.078
X30.168 Y31.860
X30.191 Y31.642
X30.259 Y31.433
X30.369 Y31.243
X30.516 Y31.080
X30.693 Y30.950
X30.894 Y30.861
X31.109 Y30.816
X31.328 Y30.816
X31.543 Y30.861
X31.743 Y30.950
X31.921 Y31.080
X32.068 Y31.243
X32.178 Y31.433
X32.246 Y31.642
X32.269 Y31.860
X32.246 Y32.078
X32.178 Y32.287
X32.068 Y32.477
X31.921 Y32.641
X31.743 Y32.770
X31.730 Y32.776
X31.730 Y33.175
X31.805 Y33.208
X31.983 Y33.337
X32.130 Y33.501
X32.239 Y33.691
X32.307 Y33.900
X32.330 Y34.115
X32.330 Y35.121
X32.307 Y35.336
X32.239 Y35.545
X32.130 Y35.735
X31.983 Y35.898
X31.805 Y36.028
X31.605 Y36.117
X31.390 Y36.163
X31.170 Y36.163
G0  Z3.000
G0  X36.250 Y36.163
G0  Z3.000
G0  Z0
G01 F50 Z-0.070
G01 F400 X36.035 Y36.117
X35.835 Y36.028
X35.657 Y35.898
X35.510 Y35.735
X35.401 Y35.545
X35.333 Y35.336
X35.310 Y35.121
X35.310 Y34.115
X35.333 Y33.900
X35.401 Y33.691
X35.510 Y33.501
X35.657 Y33.337
X35.835 Y33.208
X35.910 Y33.175
X35.910 Y32.315
X35.920 Y32.224
X35.949 Y32.135
X35.996 Y32.053
X36.056 Y31.986
X36.860 Y31.183
X36.935 Y31.128
X37.021 Y31.090
X37.113 Y31.070
X49.925 Y31.070
X54.437 Y26.558
X54.437 Y24.491
X54.446 Y24.400
X54.476 Y24.310
X54.523 Y24.229
X54.583 Y24.162
X58.601 Y20.144
X58.601 Y13.866
X58.610 Y13.775
X58.639 Y13.686
X58.687 Y13.604
X58.747 Y13.537
X59.752 Y12.532
X59.741 Y12.517
X59.652 Y12.316
X59.606 Y12.101
X59.606 Y11.882
X59.652 Y11.667
X59.741 Y11.466
X59.870 Y11.289
X60.034 Y11.142
X60.224 Y11.032
X60.432 Y10.964
X60.648 Y10.941
X61.653 Y10.941
X61.869 Y10.964
X62.078 Y11.032
X62.268 Y11.142
X62.431 Y11.289
X62.560 Y11.466
X62.650 Y11.667
X62.695 Y11.882
X62.695 Y12.101
X62.650 Y12.316
X62.560 Y12.517
X62.431 Y12.694
X62.268 Y12.841
X62.078 Y12.951
X61.869 Y13.019
X61.653 Y13.041
X60.648 Y13.041
X60.527 Y13.029
X59.501 Y14.054
X59.501 Y20.332
X59.491 Y20.423
X59.462 Y20.512
X59.415 Y20.594
X59.355 Y20.661
X55.337 Y24.679
X55.337 Y26.746
X55.327 Y26.837
X55.298 Y26.927
X55.251 Y27.008
X55.191 Y27.075
X50.413 Y31.853
X50.338 Y31.908
X50.252 Y31.946
X50.160 Y31.966
X37.348 Y31.966
X36.810 Y32.504
X36.810 Y33.175
X36.885 Y33.208
X37.063 Y33.337
X37.210 Y33.501
X37.320 Y33.691
X37.387 Y33.900
X37.410 Y34.115
X37.410 Y35.121
X37.387 Y35.336
X37.320 Y35.545
X37.210 Y35.735
X37.063 Y35.898
X36.885 Y36.028
X36.685 Y36.117
X36.470 Y36.163
X36.250 Y36.163
G0  Z3.000
G0  X33.710 Y36.163
G0  Z3.000
G0  Z0
G01 F50 Z-0.070
G01 F400 X33.495 Y36.117
X33.295 Y36.028
X33.117 Y35.898
X32.970 Y35.735
X32.861 Y35.545
X32.793 Y35.336
X32.770 Y35.121
X32.770 Y34.200
X32.745 Y34.172
X32.698 Y34.090
X32.669 Y34.001
X32.659 Y33.910
X32.659 Y28.735
X32.669 Y28.644
X32.698 Y28.555
X32.745 Y28.473
X32.806 Y28.406
X32.829 Y28.382
X32.829 Y27.218
X32.648 Y27.036
X32.587 Y26.969
X32.540 Y26.887
X32.511 Y26.798
X32.502 Y26.707
X32.502 Y18.019
X32.511 Y17.928
X32.540 Y17.838
X32.587 Y17.757
X32.648 Y17.690
X36.154 Y14.184
X36.154 Y11.240
X36.163 Y11.149
X36.192 Y11.060
X36.239 Y10.978
X36.300 Y10.911
X37.417 Y9.794
X37.405 Y9.767
X37.359 Y9.553
X37.359 Y9.333
X37.405 Y9.118
X37.494 Y8.918
X37.623 Y8.740
X37.786 Y8.593
X37.976 Y8.483
X38.185 Y8.415
X38.401 Y8.393
X39.406 Y8.393
X39.622 Y8.415
X39.831 Y8.483
X40.021 Y8.593
X40.184 Y8.740
X40.313 Y8.918
X40.402 Y9.118
X40.448 Y9.333
X40.448 Y9.553
X40.402 Y9.767
X40.313 Y9.968
X40.184 Y10.146
X40.021 Y10.292
X39.831 Y10.402
X39.622 Y10.470
X39.406 Y10.493
X38.401 Y10.493
X38.185 Y10.470
X38.054 Y10.428
X37.053 Y11.428
X37.053 Y14.372
X37.044 Y14.463
X37.015 Y14.553
X36.968 Y14.634
X36.907 Y14.701
X33.402 Y18.207
X33.402 Y26.518
X33.583 Y26.700
X33.644 Y26.767
X33.691 Y26.849
X33.720 Y26.938
X33.729 Y27.029
X33.729 Y28.571
X33.720 Y28.662
X33.691 Y28.751
X33.644 Y28.833
X33.583 Y28.900
X33.559 Y28.924
X33.561 Y33.105
X33.710 Y33.073
X33.930 Y33.073
X34.145 Y33.119
X34.345 Y33.208
X34.523 Y33.337
X34.670 Y33.501
X34.779 Y33.691
X34.847 Y33.900
X34.870 Y34.115
X34.870 Y35.121
X34.847 Y35.336
X34.779 Y35.545
X34.670 Y35.735
X34.523 Y35.898
X34.345 Y36.028
X34.145 Y36.117
X33.930 Y36.163
X33.710 Y36.163
G0  Z3.000
G0  X21.010 Y36.163
G0  Z3.000
G0  Z0
G01 F50 Z-0.070
G01 F400 X20.796 Y36.117
X20.595 Y36.028
X20.417 Y35.898
X20.270 Y35.735
X20.161 Y35.545
X20.093 Y35.336
X20.070 Y35.121
X20.070 Y34.115
X20.093 Y33.900
X20.161 Y33.691
X20.270 Y33.501
X20.417 Y33.337
X20.595 Y33.208
X20.796 Y33.119
X21.010 Y33.073
X21.230 Y33.073
X21.445 Y33.119
X21.645 Y33.208
X21.823 Y33.337
X21.970 Y33.501
X22.079 Y33.691
X22.147 Y33.900
X22.170 Y34.115
X22.170 Y35.121
X22.147 Y35.336
X22.079 Y35.545
X21.970 Y35.735
X21.823 Y35.898
X21.645 Y36.028
X21.445 Y36.117
X21.230 Y36.163
X21.010 Y36.163
G0  Z3.000
G0  X18.470 Y36.163
G0  Z3.000
G0  Z0
G01 F50 Z-0.070
G01 F400 X18.256 Y36.117
X18.055 Y36.028
X17.877 Y35.898
X17.730 Y35.735
X17.620 Y35.545
X17.553 Y35.336
X17.530 Y35.121
X17.530 Y34.115
X17.553 Y33.900
X17.620 Y33.691
X17.730 Y33.501
X17.877 Y33.337
X18.055 Y33.208
X18.256 Y33.119
X18.470 Y33.073
X18.690 Y33.073
X18.905 Y33.119
X19.105 Y33.208
X19.283 Y33.337
X19.430 Y33.501
X19.540 Y33.691
X19.607 Y33.900
X19.630 Y34.115
X19.630 Y35.121
X19.607 Y35.336
X19.540 Y35.545
X19.430 Y35.735
X19.283 Y35.898
X19.105 Y36.028
X18.905 Y36.117
X18.690 Y36.163
X18.470 Y36.163
G0  Z3.000
G0  X26.090 Y36.163
G0  Z3.000
G0  Z0
G01 F50 Z-0.070
G01 F400 X25.876 Y36.117
X25.675 Y36.028
X25.497 Y35.898
X25.350 Y35.735
X25.241 Y35.545
X25.173 Y35.336
X25.150 Y35.121
X25.150 Y34.115
X25.173 Y33.900
X25.241 Y33.691
X25.350 Y33.501
X25.497 Y33.337
X25.675 Y33.208
X25.750 Y33.175
X25.750 Y32.639
X24.985 Y32.639
X24.893 Y32.620
X24.806 Y32.582
X24.731 Y32.527
X23.084 Y30.880
X23.024 Y30.813
X22.977 Y30.732
X22.948 Y30.642
X22.938 Y30.551
X22.938 Y30.077
X22.863 Y30.044
X22.686 Y29.915
X22.539 Y29.752
X22.429 Y29.561
X22.361 Y29.353
X22.338 Y29.134
X22.361 Y28.916
X22.429 Y28.707
X22.539 Y28.517
X22.686 Y28.354
X22.863 Y28.225
X23.064 Y28.135
X23.279 Y28.090
X23.498 Y28.090
X23.713 Y28.135
X23.913 Y28.225
X24.091 Y28.354
X24.238 Y28.517
X24.348 Y28.707
X24.416 Y28.916
X24.439 Y29.134
X24.416 Y29.353
X24.348 Y29.561
X24.238 Y29.752
X24.091 Y29.915
X23.913 Y30.044
X23.838 Y30.077
X23.838 Y30.363
X25.219 Y31.744
X26.941 Y31.744
X30.655 Y28.029
X30.652 Y28.018
X30.629 Y27.800
X30.652 Y27.582
X30.720 Y27.373
X30.830 Y27.183
X30.977 Y27.020
X31.154 Y26.890
X31.355 Y26.801
X31.570 Y26.756
X31.789 Y26.756
X32.004 Y26.801
X32.205 Y26.890
X32.382 Y27.020
X32.529 Y27.183
X32.639 Y27.373
X32.707 Y27.582
X32.730 Y27.800
X32.707 Y28.018
X32.639 Y28.227
X32.529 Y28.417
X32.382 Y28.581
X32.205 Y28.710
X32.004 Y28.799
X31.789 Y28.845
X31.570 Y28.845
X31.355 Y28.799
X31.218 Y28.738
X27.429 Y32.527
X27.354 Y32.582
X27.268 Y32.620
X27.175 Y32.639
X26.650 Y32.639
X26.650 Y33.175
X26.725 Y33.208
X26.903 Y33.337
X27.050 Y33.501
X27.160 Y33.691
X27.227 Y33.900
X27.250 Y34.115
X27.250 Y35.121
X27.227 Y35.336
X27.160 Y35.545
X27.050 Y35.735
X26.903 Y35.898
X26.725 Y36.028
X26.525 Y36.117
X26.310 Y36.163
X26.090 Y36.163
G0  Z3.000
G0  X23.550 Y36.163
G0  Z3.000
G0  Z0
G01 F50 Z-0.070
G01 F400 X23.335 Y36.117
X23.135 Y36.028
X22.957 Y35.898
X22.810 Y35.735
X22.701 Y35.545
X22.633 Y35.336
X22.610 Y35.121
X22.610 Y34.115
X22.633 Y33.900
X22.701 Y33.691
X22.810 Y33.501
X22.957 Y33.337
X23.135 Y33.208
X23.335 Y33.119
X23.550 Y33.073
X23.770 Y33.073
X23.985 Y33.119
X24.185 Y33.208
X24.363 Y33.337
X24.510 Y33.501
X24.620 Y33.691
X24.687 Y33.900
X24.710 Y34.115
X24.710 Y35.121
X24.687 Y35.336
X24.620 Y35.545
X24.510 Y35.735
X24.363 Y35.898
X24.185 Y36.028
X23.985 Y36.117
X23.770 Y36.163
X23.550 Y36.163
G0  Z3.000
G0  X3.083 Y33.633
G0  Z3.000
G0  Z0
G01 F50 Z-0.070
G01 F400 X3.047 Y33.625
X3.013 Y33.610
X2.983 Y33.588
X2.958 Y33.560
X2.940 Y33.528
X2.928 Y33.493
X2.924 Y33.459
X2.918 Y28.643
X2.922 Y28.609
X2.933 Y28.574
X2.952 Y28.542
X2.976 Y28.514
X3.006 Y28.492
X3.040 Y28.477
X3.077 Y28.470
X3.114 Y28.470
X3.150 Y28.477
X3.181 Y28.491
X3.240 Y28.523
X3.326 Y28.549
X3.432 Y28.559
X6.402 Y28.559
X6.507 Y28.549
X6.593 Y28.523
X6.673 Y28.480
X6.743 Y28.423
X6.782 Y28.376
X6.804 Y28.351
X6.833 Y28.329
X6.867 Y28.314
X6.904 Y28.306
X7.098 Y28.306
X7.150 Y28.312
X7.200 Y28.307
X7.388 Y28.288
X7.615 Y28.219
X7.826 Y28.107
X7.965 Y27.992
X8.009 Y27.956
X8.037 Y27.922
X8.057 Y27.900
X8.394 Y27.563
X8.423 Y27.542
X8.457 Y27.526
X8.493 Y27.519
X8.880 Y27.519
X9.259 Y27.444
X9.615 Y27.296
X9.936 Y27.081
X10.209 Y26.809
X10.411 Y26.506
X10.435 Y26.480
X10.465 Y26.458
X10.498 Y26.443
X10.535 Y26.435
X10.572 Y26.435
X10.608 Y26.443
X10.642 Y26.458
X10.672 Y26.480
X10.697 Y26.508
X10.715 Y26.540
X10.727 Y26.575
X10.730 Y26.609
X10.730 Y30.162
X10.726 Y30.210
X10.730 Y30.256
X10.742 Y30.378
X10.791 Y30.539
X10.837 Y30.625
X10.871 Y30.689
X10.962 Y30.800
X10.978 Y30.819
X10.998 Y30.836
X11.022 Y30.862
X11.040 Y30.894
X11.052 Y30.930
X11.056 Y30.966
X11.052 Y31.003
X11.040 Y31.039
X11.022 Y31.071
X10.997 Y31.098
X10.967 Y31.120
X10.938 Y31.133
X10.760 Y31.207
X10.668 Y31.268
X10.635 Y31.283
X10.599 Y31.291
X9.768 Y31.291
X9.716 Y31.286
X9.666 Y31.290
X9.478 Y31.309
X9.252 Y31.378
X9.034 Y31.498
X9.013 Y31.534
X8.866 Y31.698
X8.676 Y31.830
X7.671 Y32.836
X7.642 Y32.857
X7.608 Y32.872
X7.572 Y32.879
X5.890 Y32.879
X5.783 Y32.890
X5.698 Y32.916
X5.618 Y32.959
X5.548 Y33.016
X5.491 Y33.086
X5.448 Y33.166
X5.421 Y33.252
X5.413 Y33.343
X5.413 Y33.459
X5.409 Y33.493
X5.397 Y33.528
X5.379 Y33.560
X5.354 Y33.588
X5.324 Y33.610
X5.290 Y33.625
X5.254 Y33.633
X3.083 Y33.633
G0  Z3.000
G0  X34.608 Y32.904
G0  Z3.000
G0  Z0
G01 F50 Z-0.070
G01 F400 X34.394 Y32.859
X34.193 Y32.770
X34.016 Y32.641
X33.869 Y32.477
X33.759 Y32.287
X33.691 Y32.078
X33.668 Y31.860
X33.691 Y31.642
X33.759 Y31.433
X33.869 Y31.243
X34.016 Y31.080
X34.193 Y30.950
X34.394 Y30.861
X34.608 Y30.816
X34.828 Y30.816
X35.043 Y30.861
X35.070 Y30.873
X35.415 Y30.527
X35.760 Y30.183
X35.835 Y30.128
X35.921 Y30.090
X36.013 Y30.070
X40.694 Y30.070
X43.298 Y27.466
X43.298 Y21.600
X43.260 Y14.631
X41.018 Y12.431
X40.348 Y12.431
X40.313 Y12.508
X40.184 Y12.686
X40.021 Y12.832
X39.831 Y12.942
X39.622 Y13.010
X39.406 Y13.033
X38.401 Y13.033
X38.185 Y13.010
X37.976 Y12.942
X37.786 Y12.832
X37.623 Y12.686
X37.494 Y12.508
X37.405 Y12.307
X37.359 Y12.093
X37.359 Y11.873
X37.405 Y11.658
X37.494 Y11.458
X37.623 Y11.280
X37.786 Y11.133
X37.976 Y11.023
X38.185 Y10.955
X38.401 Y10.933
X39.406 Y10.933
X39.622 Y10.955
X39.831 Y11.023
X40.021 Y11.133
X40.184 Y11.280
X40.313 Y11.458
X40.348 Y11.535
X41.251 Y11.535
X41.343 Y11.555
X41.429 Y11.593
X41.504 Y11.647
X43.940 Y14.039
X44.011 Y14.096
X44.073 Y14.165
X44.120 Y14.247
X44.149 Y14.336
X44.158 Y14.427
X44.198 Y21.600
X44.198 Y27.654
X44.189 Y27.745
X44.160 Y27.835
X44.113 Y27.916
X44.052 Y27.983
X41.182 Y30.853
X41.107 Y30.908
X41.021 Y30.946
X40.929 Y30.966
X36.248 Y30.966
X36.021 Y31.193
X35.703 Y31.511
X35.746 Y31.642
X35.769 Y31.860
X35.746 Y32.078
X35.678 Y32.287
X35.568 Y32.477
X35.421 Y32.641
X35.243 Y32.770
X35.043 Y32.859
X34.828 Y32.904
X34.608 Y32.904
G0  Z3.000
G0  X14.106 Y31.754
G0  Z3.000
G0  Z0
G01 F50 Z-0.070
G01 F400 X14.069 Y31.746
X14.036 Y31.731
X14.006 Y31.709
X13.981 Y31.681
X13.962 Y31.649
X13.951 Y31.614
X13.947 Y31.582
X13.945 Y31.553
X13.895 Y31.390
X13.816 Y31.242
X13.708 Y31.111
X13.676 Y31.084
X12.502 Y29.910
X12.480 Y29.886
X12.461 Y29.853
X12.450 Y29.818
X12.446 Y29.784
X12.446 Y26.485
X12.434 Y26.471
X12.272 Y26.191
X12.172 Y25.882
X12.138 Y25.560
X12.172 Y25.238
X12.272 Y24.929
X12.434 Y24.649
X12.446 Y24.635
X12.446 Y24.286
X12.450 Y24.252
X12.461 Y24.217
X12.480 Y24.184
X12.502 Y24.160
X15.568 Y21.094
X15.597 Y21.073
X15.631 Y21.057
X15.667 Y21.050
X15.705 Y21.050
X15.741 Y21.057
X15.775 Y21.073
X15.805 Y21.094
X15.829 Y21.122
X15.848 Y21.154
X15.859 Y21.189
X15.863 Y21.226
X15.859 Y21.263
X15.848 Y21.297
X15.762 Y21.458
X15.679 Y21.733
X15.651 Y22.018
X15.679 Y22.303
X15.762 Y22.578
X15.898 Y22.832
X16.080 Y23.053
X16.207 Y23.157
X16.230 Y23.184
X16.249 Y23.216
X16.260 Y23.251
X16.264 Y23.288
X16.260 Y23.325
X16.249 Y23.360
X16.230 Y23.392
X16.207 Y23.418
X16.080 Y23.522
X15.898 Y23.744
X15.762 Y23.998
X15.679 Y24.273
X15.651 Y24.558
X15.679 Y24.843
X15.762 Y25.118
X15.898 Y25.372
X15.953 Y25.439
X15.971 Y25.470
X15.983 Y25.505
X15.987 Y25.542
X15.983 Y25.579
X15.971 Y25.614
X15.953 Y25.646
X15.928 Y25.674
X15.900 Y25.695
X15.861 Y25.715
X15.791 Y25.773
X15.734 Y25.842
X15.691 Y25.922
X15.665 Y26.009
X15.656 Y26.101
X15.656 Y28.095
X15.665 Y28.187
X15.691 Y28.273
X15.734 Y28.354
X15.791 Y28.423
X15.861 Y28.481
X15.940 Y28.523
X16.026 Y28.549
X16.132 Y28.559
X19.102 Y28.559
X19.207 Y28.549
X19.293 Y28.523
X19.372 Y28.481
X19.452 Y28.412
X19.471 Y28.391
X19.501 Y28.369
X19.535 Y28.354
X19.571 Y28.346
X19.608 Y28.346
X19.644 Y28.354
X19.677 Y28.369
X19.788 Y28.443
X19.925 Y28.500
X19.955 Y28.513
X19.985 Y28.535
X20.010 Y28.562
X20.028 Y28.594
X20.040 Y28.629
X20.044 Y28.666
X20.040 Y28.703
X20.028 Y28.738
X20.010 Y28.770
X19.988 Y28.795
X17.167 Y31.616
X17.138 Y31.637
X17.104 Y31.652
X17.068 Y31.659
X14.595 Y31.659
X14.560 Y31.656
X14.527 Y31.659
X14.391 Y31.673
X14.230 Y31.721
X14.210 Y31.732
X14.179 Y31.746
X14.143 Y31.754
X14.106 Y31.754
G0  Z3.000
G0  X57.802 Y31.443
G0  Z3.000
G0  Z0
G01 F50 Z-0.070
G01 F400 X57.588 Y31.398
X57.387 Y31.308
X57.209 Y31.179
X57.062 Y31.016
X56.953 Y30.826
X56.885 Y30.617
X56.862 Y30.399
X56.885 Y30.180
X56.953 Y29.972
X57.062 Y29.781
X57.209 Y29.618
X57.387 Y29.489
X57.588 Y29.400
X57.802 Y29.354
X58.022 Y29.354
X58.237 Y29.400
X58.437 Y29.489
X58.615 Y29.618
X58.704 Y29.718
X60.249 Y29.298
X60.701 Y28.846
X60.701 Y28.281
X59.601 Y28.281
X59.601 Y26.181
X62.701 Y26.181
X62.701 Y28.281
X61.601 Y28.281
X61.601 Y29.034
X61.591 Y29.125
X61.562 Y29.215
X61.515 Y29.296
X61.455 Y29.363
X60.783 Y30.035
X60.707 Y30.090
X60.623 Y30.128
X58.943 Y30.584
X58.939 Y30.617
X58.872 Y30.826
X58.762 Y31.016
X58.615 Y31.179
X58.437 Y31.308
X58.237 Y31.398
X58.022 Y31.443
X57.802 Y31.443
G0  Z3.000
G0  X44.108 Y30.915
G0  Z3.000
G0  Z0
G01 F50 Z-0.070
G01 F400 X43.894 Y30.869
X43.693 Y30.780
X43.516 Y30.651
X43.369 Y30.487
X43.259 Y30.297
X43.191 Y30.088
X43.168 Y29.870
X43.191 Y29.652
X43.259 Y29.443
X43.369 Y29.253
X43.516 Y29.090
X43.693 Y28.960
X43.894 Y28.871
X44.108 Y28.826
X44.328 Y28.826
X44.543 Y28.871
X44.611 Y28.901
X46.151 Y28.402
X46.901 Y27.651
X46.901 Y26.181
X50.001 Y26.181
X50.001 Y26.436
X50.152 Y26.436
X50.660 Y25.908
X50.692 Y25.608
X50.792 Y25.299
X50.954 Y25.019
X51.171 Y24.778
X51.433 Y24.587
X51.729 Y24.456
X52.046 Y24.388
X52.370 Y24.388
X52.687 Y24.456
X52.983 Y24.587
X53.246 Y24.778
X53.463 Y25.019
X53.625 Y25.299
X53.725 Y25.608
X53.759 Y25.930
X53.725 Y26.252
X53.625 Y26.561
X53.463 Y26.841
X53.246 Y27.082
X52.983 Y27.273
X52.687 Y27.404
X52.370 Y27.472
X52.046 Y27.472
X51.729 Y27.404
X51.532 Y27.317
X51.021 Y27.827
X50.887 Y27.925
X50.734 Y27.992
X50.571 Y28.027
X50.001 Y28.027
X50.001 Y28.281
X48.531 Y28.281
X47.113 Y29.700
X46.978 Y29.797
X46.828 Y29.864
X45.105 Y30.423
X45.068 Y30.487
X44.921 Y30.651
X44.743 Y30.780
X44.543 Y30.869
X44.328 Y30.915
X44.108 Y30.915
G0  Z3.000
G0  X27.119 Y30.845
G0  Z3.000
G0  Z0
G01 F50 Z-0.070
G01 F400 X26.904 Y30.799
X26.703 Y30.710
X26.526 Y30.581
X26.421 Y30.465
X26.263 Y30.580
X26.063 Y30.669
X25.848 Y30.715
X25.629 Y30.715
X25.414 Y30.669
X25.213 Y30.580
X25.036 Y30.451
X24.889 Y30.287
X24.779 Y30.097
X24.711 Y29.888
X24.688 Y29.670
X24.711 Y29.452
X24.779 Y29.243
X24.889 Y29.053
X25.036 Y28.890
X25.214 Y28.760
X25.404 Y28.681
X25.404 Y28.273
X24.654 Y28.273
X24.654 Y26.173
X27.754 Y26.173
X27.754 Y26.427
X28.162 Y26.427
X28.628 Y25.961
X28.612 Y25.912
X28.578 Y25.590
X28.612 Y25.268
X28.712 Y24.959
X28.874 Y24.679
X29.091 Y24.438
X29.353 Y24.247
X29.649 Y24.116
X29.966 Y24.048
X30.290 Y24.048
X30.607 Y24.116
X30.903 Y24.247
X31.166 Y24.438
X31.383 Y24.679
X31.545 Y24.959
X31.645 Y25.268
X31.679 Y25.590
X31.645 Y25.912
X31.545 Y26.221
X31.383 Y26.501
X31.166 Y26.742
X30.903 Y26.933
X30.607 Y27.064
X30.290 Y27.132
X29.966 Y27.132
X29.760 Y27.088
X29.030 Y27.818
X28.896 Y27.916
X28.743 Y27.984
X28.579 Y28.019
X27.754 Y28.019
X27.754 Y28.273
X27.004 Y28.273
X27.004 Y28.445
X27.314 Y28.756
X27.338 Y28.756
X27.553 Y28.801
X27.753 Y28.890
X27.931 Y29.020
X28.078 Y29.183
X28.188 Y29.373
X28.256 Y29.582
X28.279 Y29.800
X28.256 Y30.018
X28.188 Y30.227
X28.078 Y30.417
X27.931 Y30.581
X27.753 Y30.710
X27.553 Y30.799
X27.338 Y30.845
X27.119 Y30.845
G0  Z3.000
G0  X34.126 Y30.504
G0  Z3.000
G0  Z0
G01 F50 Z-0.070
G01 F400 X34.090 Y30.497
X34.056 Y30.482
X34.026 Y30.460
X34.001 Y30.432
X33.983 Y30.400
X33.971 Y30.365
X33.967 Y30.331
X33.967 Y29.143
X33.971 Y29.108
X33.983 Y29.073
X34.077 Y28.898
X34.126 Y28.735
X34.142 Y28.568
X34.137 Y28.520
X34.137 Y27.080
X34.142 Y27.032
X34.138 Y26.986
X34.126 Y26.865
X34.081 Y26.731
X33.874 Y26.501
X33.712 Y26.221
X33.612 Y25.912
X33.578 Y25.590
X33.612 Y25.268
X33.712 Y24.959
X33.810 Y24.790
X33.810 Y18.448
X33.813 Y18.413
X33.825 Y18.378
X33.843 Y18.346
X33.865 Y18.321
X36.907 Y15.279
X36.936 Y15.258
X36.970 Y15.243
X37.006 Y15.236
X37.044 Y15.236
X37.080 Y15.243
X37.114 Y15.258
X37.144 Y15.280
X37.168 Y15.308
X37.184 Y15.336
X37.367 Y15.559
X37.493 Y15.662
X37.517 Y15.689
X37.536 Y15.721
X37.547 Y15.756
X37.551 Y15.793
X37.547 Y15.830
X37.536 Y15.865
X37.517 Y15.897
X37.493 Y15.923
X37.367 Y16.027
X37.185 Y16.249
X37.049 Y16.503
X36.966 Y16.777
X36.938 Y17.063
X36.966 Y17.348
